assets/luts/cube/Cyberpunk_Neon.cube
TITLE "Cyberpunk_Neon_Grade"
LUT_3D_SIZE 9
DOMAIN_MIN 0.000000 0.000000 0.000000
DOMAIN_MAX 1.000000 1.000000 1.000000
0.000000 0.000000 0.000000
0.000000 0.000000 0.065000
0.000000 0.000000 0.260000
0.000000 0.000000 0.455000
0.000000 0.000000 0.650000
0.000000 0.000000 0.845000
0.000000 0.000000 1.000000
0.000000 0.000000 1.000000
0.000000 0.000000 1.000000
0.000000 0.035000 0.000000
0.000000 0.035000 0.065000
0.000000 0.035000 0.260000
0.000000 0.035000 0.455000
0.000000 0.035000 0.650000
0.000000 0.035000 0.845000
0.000000 0.035000 1.000000
0.000000 0.035000 1.000000
0.000000 0.035000 1.000000
0.000000 0.140000 0.000000
0.000000 0.140000 0.065000
0.000000 0.140000 0.260000
0.000000 0.140000 0.455000
0.000000 0.140000 0.650000
0.000000 0.140000 0.845000
0.000000 0.140000 1.000000
0.000000 0.140000 1.000000
0.000000 0.140000 1.000000
0.000000 0.245000 0.000000
0.000000 0.245000 0.065000
0.000000 0.245000 0.260000
0.000000 0.245000 0.455000
0.000000 0.245000 0.650000
0.000000 0.245000 0.845000
0.000000 0.245000 1.000000
0.000000 0.245000 1.000000
0.000000 0.245000 1.000000
0.000000 0.350000 0.000000
0.000000 0.350000 0.065000
0.000000 0.350000 0.260000
0.000000 0.300000 0.420000
0.000000 0.300000 0.600000
0.000000 0.300000 0.780000
0.000000 0.300000 0.960000
0.000000 0.300000 1.000000
0.000000 0.300000 1.000000
0.000000 0.390000 0.000000
0.000000 0.390000 0.060000
0.000000 0.390000 0.240000
0.000000 0.390000 0.420000
0.000000 0.390000 0.600000
0.000000 0.390000 0.780000
0.000000 0.390000 0.960000
0.000000 0.390000 1.000000
0.000000 0.390000 1.000000
0.000000 0.480000 0.000000
0.000000 0.480000 0.060000
0.000000 0.480000 0.240000
0.000000 0.480000 0.420000
0.000000 0.480000 0.600000
0.000000 0.480000 0.780000
0.000000 0.480000 0.960000
0.000000 0.480000 1.000000
0.000000 0.480000 1.000000
0.000000 0.570000 0.000000
0.000000 0.570000 0.060000
0.000000 0.570000 0.240000
0.000000 0.570000 0.420000
0.000000 0.570000 0.600000
0.000000 0.570000 0.780000
0.000000 0.570000 0.960000
0.000000 0.570000 1.000000
0.000000 0.570000 1.000000
0.000000 0.660000 0.000000
0.000000 0.660000 0.060000
0.000000 0.660000 0.240000
0.000000 0.660000 0.420000
0.000000 0.660000 0.600000
0.000000 0.660000 0.780000
0.000000 1.000000 1.000000
0.000000 1.000000 1.000000
0.000000 1.000000 1.000000
0.025000 0.000000 0.000000
0.025000 0.000000 0.065000
0.025000 0.000000 0.260000
0.025000 0.000000 0.455000
0.025000 0.000000 0.650000
0.025000 0.000000 0.845000
0.025000 0.000000 1.000000
0.025000 0.000000 1.000000
0.025000 0.000000 1.000000
0.025000 0.035000 0.000000
0.025000 0.035000 0.065000
0.025000 0.035000 0.260000
0.025000 0.035000 0.455000
0.025000 0.035000 0.650000
0.025000 0.035000 0.845000
0.025000 0.035000 1.000000
0.025000 0.035000 1.000000
0.025000 0.035000 1.000000
0.025000 0.140000 0.000000
0.025000 0.140000 0.065000
0.025000 0.140000 0.260000
0.025000 0.140000 0.455000
0.025000 0.140000 0.650000
0.025000 0.140000 0.845000
0.025000 0.140000 1.000000
0.025000 0.140000 1.000000
0.025000 0.140000 1.000000
0.025000 0.245000 0.000000
0.025000 0.245000 0.065000
0.025000 0.245000 0.260000
0.025000 0.245000 0.455000
0.025000 0.245000 0.650000
0.025000 0.245000 0.845000
0.060000 0.210000 0.960000
0.060000 0.210000 1.000000
0.060000 0.210000 1.000000
0.025000 0.350000 0.000000
0.060000 0.300000 0.060000
0.060000 0.300000 0.240000
0.060000 0.300000 0.420000
0.060000 0.300000 0.600000
0.060000 0.300000 0.780000
0.060000 0.300000 0.960000
0.060000 0.300000 1.000000
0.060000 0.300000 1.000000
0.060000 0.390000 0.000000
0.060000 0.390000 0.060000
0.060000 0.390000 0.240000
0.060000 0.390000 0.420000
0.060000 0.390000 0.600000
0.060000 0.390000 0.780000
0.060000 0.390000 0.960000
0.060000 0.390000 1.000000
0.060000 0.390000 1.000000
0.060000 0.480000 0.000000
0.060000 0.480000 0.060000
0.060000 0.480000 0.240000
0.060000 0.480000 0.420000
0.060000 0.480000 0.600000
0.060000 0.480000 0.780000
0.060000 0.480000 0.960000
0.060000 0.480000 1.000000
0.060000 0.480000 1.000000
0.060000 0.570000 0.000000
0.060000 0.570000 0.060000
0.060000 0.570000 0.240000
0.060000 0.570000 0.420000
0.060000 0.570000 0.600000
0.060000 0.570000 0.780000
0.060000 0.570000 0.960000
0.060000 0.570000 1.000000
0.060000 0.570000 1.000000
0.060000 0.660000 0.000000
0.060000 0.660000 0.060000
0.060000 0.660000 0.240000
0.040000 1.000000 0.455000
0.040000 1.000000 0.650000
0.040000 1.000000 0.845000
0.040000 1.000000 1.000000
0.040000 1.000000 1.000000
0.040000 1.000000 1.000000
0.100000 0.000000 0.000000
0.100000 0.000000 0.065000
0.100000 0.000000 0.260000
0.100000 0.000000 0.455000
0.100000 0.000000 0.650000
0.100000 0.000000 0.845000
0.100000 0.000000 1.000000
0.100000 0.000000 1.000000
0.100000 0.000000 1.000000
0.100000 0.035000 0.000000
0.100000 0.035000 0.065000
0.100000 0.035000 0.260000
0.100000 0.035000 0.455000
0.100000 0.035000 0.650000
0.100000 0.035000 0.845000
0.100000 0.035000 1.000000
0.100000 0.035000 1.000000
0.100000 0.035000 1.000000
0.100000 0.140000 0.000000
0.100000 0.140000 0.065000
0.100000 0.140000 0.260000
0.100000 0.140000 0.455000
0.100000 0.140000 0.650000
0.100000 0.140000 0.845000
0.100000 0.140000 1.000000
0.100000 0.140000 1.000000
0.100000 0.140000 1.000000
0.100000 0.245000 0.000000
0.100000 0.245000 0.065000
0.100000 0.245000 0.260000
0.240000 0.210000 0.420000
0.240000 0.210000 0.600000
0.240000 0.210000 0.780000
0.240000 0.210000 0.960000
0.240000 0.210000 1.000000
0.240000 0.210000 1.000000
0.240000 0.300000 0.000000
0.240000 0.300000 0.060000
0.240000 0.300000 0.240000
0.240000 0.300000 0.420000
0.240000 0.300000 0.600000
0.240000 0.300000 0.780000
0.240000 0.300000 0.960000
0.240000 0.300000 1.000000
0.240000 0.300000 1.000000
0.240000 0.390000 0.000000
0.240000 0.390000 0.060000
0.240000 0.390000 0.240000
0.240000 0.390000 0.420000
0.240000 0.390000 0.600000
0.240000 0.390000 0.780000
0.240000 0.390000 0.960000
0.240000 0.390000 1.000000
0.240000 0.390000 1.000000
0.240000 0.480000 0.000000
0.240000 0.480000 0.060000
0.240000 0.480000 0.240000
0.240000 0.480000 0.420000
0.240000 0.480000 0.600000
0.240000 0.480000 0.780000
0.240000 0.480000 0.960000
0.240000 0.480000 1.000000
0.240000 0.480000 1.000000
0.240000 0.570000 0.000000
0.240000 0.570000 0.060000
0.240000 0.570000 0.240000
0.240000 0.570000 0.420000
0.240000 0.570000 0.600000
0.240000 0.570000 0.780000
0.160000 1.000000 1.000000
0.160000 1.000000 1.000000
0.160000 1.000000 1.000000
0.240000 0.660000 0.000000
0.160000 1.000000 0.065000
0.160000 1.000000 0.260000
0.160000 1.000000 0.455000
0.160000 1.000000 0.650000
0.160000 1.000000 0.845000
0.160000 1.000000 1.000000
0.160000 1.000000 1.000000
0.160000 1.000000 1.000000
0.175000 0.000000 0.000000
0.175000 0.000000 0.065000
0.175000 0.000000 0.260000
0.175000 0.000000 0.455000
0.175000 0.000000 0.650000
0.175000 0.000000 0.845000
0.175000 0.000000 1.000000
0.175000 0.000000 1.000000
0.175000 0.000000 1.000000
0.175000 0.035000 0.000000
0.175000 0.035000 0.065000
0.175000 0.035000 0.260000
0.175000 0.035000 0.455000
0.175000 0.035000 0.650000
0.175000 0.035000 0.845000
0.175000 0.035000 1.000000
0.175000 0.035000 1.000000
0.175000 0.035000 1.000000
0.175000 0.140000 0.000000
0.175000 0.140000 0.065000
0.175000 0.140000 0.260000
0.175000 0.140000 0.455000
0.175000 0.140000 0.650000
0.175000 0.140000 0.845000
0.420000 0.120000 0.960000
0.420000 0.120000 1.000000
0.420000 0.120000 1.000000
0.420000 0.210000 0.000000
0.420000 0.210000 0.060000
0.420000 0.210000 0.240000
0.420000 0.210000 0.420000
0.420000 0.210000 0.600000
0.420000 0.210000 0.780000
0.420000 0.210000 0.960000
0.420000 0.210000 1.000000
0.420000 0.210000 1.000000
0.420000 0.300000 0.000000
0.420000 0.300000 0.060000
0.420000 0.300000 0.240000
0.420000 0.300000 0.420000
0.420000 0.300000 0.600000
0.420000 0.300000 0.780000
0.420000 0.300000 0.960000
0.420000 0.300000 1.000000
0.420000 0.300000 1.000000
0.420000 0.390000 0.000000
0.420000 0.390000 0.060000
0.420000 0.390000 0.240000
0.420000 0.390000 0.420000
0.420000 0.390000 0.600000
0.420000 0.390000 0.780000
0.420000 0.390000 0.960000
0.420000 0.390000 1.000000
0.420000 0.390000 1.000000
0.420000 0.480000 0.000000
0.420000 0.480000 0.060000
0.420000 0.480000 0.240000
0.420000 0.480000 0.420000
0.420000 0.480000 0.600000
0.420000 0.480000 0.780000
0.420000 0.480000 0.960000
0.420000 0.480000 1.000000
0.420000 0.480000 1.000000
0.420000 0.570000 0.000000
0.420000 0.570000 0.060000
0.420000 0.570000 0.240000
0.280000 1.000000 0.455000
0.280000 1.000000 0.650000
0.280000 1.000000 0.845000
0.280000 1.000000 1.000000
0.280000 1.000000 1.000000
0.280000 1.000000 1.000000
0.280000 1.000000 0.000000
0.280000 1.000000 0.065000
0.280000 1.000000 0.260000
0.280000 1.000000 0.455000
0.280000 1.000000 0.650000
0.280000 1.000000 0.845000
0.280000 1.000000 1.000000
0.280000 1.000000 1.000000
0.280000 1.000000 1.000000
0.250000 0.000000 0.000000
0.250000 0.000000 0.065000
0.250000 0.000000 0.260000
0.250000 0.000000 0.455000
0.250000 0.000000 0.650000
0.250000 0.000000 0.845000
0.250000 0.000000 1.000000
0.250000 0.000000 1.000000
0.250000 0.000000 1.000000
0.250000 0.035000 0.000000
0.250000 0.035000 0.065000
0.250000 0.035000 0.260000
0.250000 0.035000 0.455000
0.250000 0.035000 0.650000
0.250000 0.035000 0.845000
0.250000 0.035000 1.000000
0.250000 0.035000 1.000000
0.600000 0.030000 1.000000
0.250000 0.140000 0.000000
0.250000 0.140000 0.065000
0.250000 0.140000 0.260000
0.600000 0.120000 0.420000
0.600000 0.120000 0.600000
0.600000 0.120000 0.780000
0.600000 0.120000 0.960000
0.600000 0.120000 1.000000
0.600000 0.120000 1.000000
0.600000 0.210000 0.000000
0.600000 0.210000 0.060000
0.600000 0.210000 0.240000
0.600000 0.210000 0.420000
0.600000 0.210000 0.600000
0.600000 0.210000 0.780000
0.600000 0.210000 0.960000
0.600000 0.210000 1.000000
0.600000 0.210000 1.000000
0.600000 0.300000 0.000000
0.600000 0.300000 0.060000
0.600000 0.300000 0.240000
0.600000 0.300000 0.420000
0.600000 0.300000 0.600000
0.600000 0.300000 0.780000
0.600000 0.300000 0.960000
0.600000 0.300000 1.000000
0.600000 0.300000 1.000000
0.600000 0.390000 0.000000
0.600000 0.390000 0.060000
0.600000 0.390000 0.240000
0.600000 0.390000 0.420000
0.600000 0.390000 0.600000
0.600000 0.390000 0.780000
0.600000 0.390000 0.960000
0.600000 0.390000 1.000000
0.600000 0.390000 1.000000
0.600000 0.480000 0.000000
0.600000 0.480000 0.060000
0.600000 0.480000 0.240000
0.600000 0.480000 0.420000
0.600000 0.480000 0.600000
0.600000 0.480000 0.780000
0.400000 1.000000 1.000000
0.400000 1.000000 1.000000
0.400000 1.000000 1.000000
0.600000 0.570000 0.000000
0.400000 1.000000 0.065000
0.400000 1.000000 0.260000
0.400000 1.000000 0.455000
0.400000 1.000000 0.650000
0.400000 1.000000 0.845000
0.400000 1.000000 1.000000
0.400000 1.000000 1.000000
0.400000 1.000000 1.000000
0.400000 1.000000 0.000000
0.400000 1.000000 0.065000
0.400000 1.000000 0.260000
0.400000 1.000000 0.455000
0.400000 1.000000 0.650000
0.400000 1.000000 0.845000
0.400000 1.000000 1.000000
0.400000 1.000000 1.000000
0.400000 1.000000 1.000000
0.325000 0.000000 0.000000
0.325000 0.000000 0.065000
0.325000 0.000000 0.260000
0.325000 0.000000 0.455000
0.325000 0.000000 0.650000
0.325000 0.000000 0.845000
0.325000 0.000000 1.000000
0.325000 0.000000 1.000000
0.325000 0.000000 1.000000
0.325000 0.035000 0.000000
0.325000 0.035000 0.065000
0.325000 0.035000 0.260000
0.325000 0.035000 0.455000
0.325000 0.035000 0.650000
0.325000 0.035000 0.845000
0.780000 0.030000 0.960000
0.780000 0.030000 1.000000
0.780000 0.030000 1.000000
0.780000 0.120000 0.000000
0.780000 0.120000 0.060000
0.780000 0.120000 0.240000
0.780000 0.120000 0.420000
0.780000 0.120000 0.600000
0.780000 0.120000 0.780000
0.780000 0.120000 0.960000
0.780000 0.120000 1.000000
0.780000 0.120000 1.000000
0.780000 0.210000 0.000000
0.780000 0.210000 0.060000
0.780000 0.210000 0.240000
0.780000 0.210000 0.420000
0.780000 0.210000 0.600000
0.780000 0.210000 0.780000
0.780000 0.210000 0.960000
0.780000 0.210000 1.000000
0.780000 0.210000 1.000000
0.780000 0.300000 0.000000
0.780000 0.300000 0.060000
0.780000 0.300000 0.240000
0.780000 0.300000 0.420000
0.780000 0.300000 0.600000
0.780000 0.300000 0.780000
0.780000 0.300000 0.960000
0.780000 0.300000 1.000000
0.780000 0.300000 1.000000
0.780000 0.390000 0.000000
0.780000 0.390000 0.060000
0.780000 0.390000 0.240000
0.780000 0.390000 0.420000
0.780000 0.390000 0.600000
0.780000 0.390000 0.780000
0.780000 0.390000 0.960000
0.780000 0.390000 1.000000
0.780000 0.390000 1.000000
0.780000 0.480000 0.000000
0.780000 0.480000 0.060000
0.780000 0.480000 0.240000
0.520000 1.000000 0.455000
0.520000 1.000000 0.650000
0.520000 1.000000 0.845000
0.520000 1.000000 1.000000
0.520000 1.000000 1.000000
0.520000 1.000000 1.000000
0.520000 1.000000 0.000000
0.520000 1.000000 0.065000
0.520000 1.000000 0.260000
0.520000 1.000000 0.455000
0.520000 1.000000 0.650000
0.520000 1.000000 0.845000
0.520000 1.000000 1.000000
0.520000 1.000000 1.000000
0.520000 1.000000 1.000000
0.520000 1.000000 0.000000
0.520000 1.000000 0.065000
0.520000 1.000000 0.260000
0.520000 1.000000 0.455000
0.520000 1.000000 0.650000
0.520000 1.000000 0.845000
0.520000 1.000000 1.000000
0.520000 1.000000 1.000000
0.520000 1.000000 1.000000
0.400000 0.000000 0.000000
0.400000 0.000000 0.065000
0.400000 0.000000 0.260000
0.400000 0.000000 0.455000
0.400000 0.000000 0.650000
0.400000 0.000000 0.845000
0.400000 0.000000 1.000000
0.400000 0.000000 1.000000
0.960000 0.000000 1.000000
0.400000 0.035000 0.000000
0.400000 0.035000 0.065000
0.400000 0.035000 0.260000
0.960000 0.030000 0.420000
0.960000 0.030000 0.600000
0.960000 0.030000 0.780000
0.960000 0.030000 0.960000
0.960000 0.030000 1.000000
0.960000 0.030000 1.000000
0.960000 0.120000 0.000000
0.960000 0.120000 0.060000
0.960000 0.120000 0.240000
0.960000 0.120000 0.420000
0.960000 0.120000 0.600000
0.960000 0.120000 0.780000
0.960000 0.120000 0.960000
0.960000 0.120000 1.000000
0.960000 0.120000 1.000000
0.960000 0.210000 0.000000
0.960000 0.210000 0.060000
0.960000 0.210000 0.240000
0.960000 0.210000 0.420000
0.960000 0.210000 0.600000
0.960000 0.210000 0.780000
0.960000 0.210000 0.960000
0.960000 0.210000 1.000000
0.960000 0.210000 1.000000
0.960000 0.300000 0.000000
0.960000 0.300000 0.060000
0.960000 0.300000 0.240000
0.960000 0.300000 0.420000
0.960000 0.300000 0.600000
0.960000 0.300000 0.780000
0.960000 0.300000 0.960000
0.960000 0.300000 1.000000
0.960000 0.300000 1.000000
0.960000 0.390000 0.000000
0.960000 0.390000 0.060000
0.960000 0.390000 0.240000
0.960000 0.390000 0.420000
0.960000 0.390000 0.600000
0.960000 0.390000 0.780000
0.640000 0.845000 1.000000
0.640000 0.845000 1.000000
0.640000 0.845000 1.000000
0.640000 1.000000 0.000000
0.640000 1.000000 0.065000
0.640000 1.000000 0.260000
0.640000 1.000000 0.455000
0.640000 1.000000 0.650000
0.640000 1.000000 0.845000
0.640000 1.000000 1.000000
0.640000 1.000000 1.000000
0.640000 1.000000 1.000000
0.640000 1.000000 0.000000
0.640000 1.000000 0.065000
0.640000 1.000000 0.260000
0.640000 1.000000 0.455000
0.640000 1.000000 0.650000
0.640000 1.000000 0.845000
0.640000 1.000000 1.000000
0.640000 1.000000 1.000000
0.640000 1.000000 1.000000
0.640000 1.000000 0.000000
0.640000 1.000000 0.065000
0.640000 1.000000 0.260000
0.640000 1.000000 0.455000
0.640000 1.000000 0.650000
0.640000 1.000000 0.845000
0.640000 1.000000 1.000000
0.640000 1.000000 1.000000
0.640000 1.000000 1.000000
0.475000 0.000000 0.000000
0.475000 0.000000 0.065000
0.475000 0.000000 0.260000
0.475000 0.000000 0.455000
0.475000 0.000000 0.650000
0.475000 0.000000 0.845000
1.000000 0.000000 0.960000
1.000000 0.000000 1.000000
1.000000 0.000000 1.000000
1.000000 0.030000 0.000000
1.000000 0.030000 0.060000
1.000000 0.030000 0.240000
1.000000 0.030000 0.420000
1.000000 0.030000 0.600000
1.000000 0.030000 0.780000
1.000000 0.030000 0.960000
1.000000 0.030000 1.000000
1.000000 0.030000 1.000000
1.000000 0.120000 0.000000
1.000000 0.120000 0.060000
1.000000 0.120000 0.240000
1.000000 0.120000 0.420000
1.000000 0.120000 0.600000
1.000000 0.120000 0.780000
1.000000 0.120000 0.960000
1.000000 0.120000 1.000000
1.000000 0.120000 1.000000
1.000000 0.210000 0.000000
1.000000 0.210000 0.060000
1.000000 0.210000 0.240000
1.000000 0.210000 0.420000
1.000000 0.210000 0.600000
1.000000 0.210000 0.780000
1.000000 0.210000 0.960000
1.000000 0.210000 1.000000
1.000000 0.210000 1.000000
1.000000 0.300000 0.000000
1.000000 0.300000 0.060000
1.000000 0.300000 0.240000
1.000000 0.300000 0.420000
1.000000 0.300000 0.600000
1.000000 0.300000 0.780000
1.000000 0.300000 0.960000
1.000000 0.300000 1.000000
0.760000 0.650000 1.000000
1.000000 0.390000 0.000000
1.000000 0.390000 0.060000
1.000000 0.390000 0.240000
0.760000 0.845000 0.455000
0.760000 0.845000 0.650000
0.760000 0.845000 0.845000
0.760000 0.845000 1.000000
0.760000 0.845000 1.000000
0.760000 0.845000 1.000000
0.760000 1.000000 0.000000
0.760000 1.000000 0.065000
0.760000 1.000000 0.260000
0.760000 1.000000 0.455000
0.760000 1.000000 0.650000
0.760000 1.000000 0.845000
0.760000 1.000000 1.000000
0.760000 1.000000 1.000000
0.760000 1.000000 1.000000
0.760000 1.000000 0.000000
0.760000 1.000000 0.065000
0.760000 1.000000 0.260000
0.760000 1.000000 0.455000
0.760000 1.000000 0.650000
0.760000 1.000000 0.845000
0.760000 1.000000 1.000000
0.760000 1.000000 1.000000
0.760000 1.000000 1.000000
0.760000 1.000000 0.000000
0.760000 1.000000 0.065000
0.760000 1.000000 0.260000
0.760000 1.000000 0.455000
0.760000 1.000000 0.650000
0.760000 1.000000 0.845000
0.760000 1.000000 1.000000
0.760000 1.000000 1.000000
0.760000 1.000000 1.000000
0.550000 0.000000 0.000000
0.550000 0.000000 0.065000
0.550000 0.000000 0.260000
1.000000 0.000000 0.420000
1.000000 0.000000 0.600000
1.000000 0.000000 0.780000
1.000000 0.000000 0.960000
1.000000 0.000000 1.000000
1.000000 0.000000 1.000000
1.000000 0.030000 0.000000
1.000000 0.030000 0.060000
1.000000 0.030000 0.240000
1.000000 0.030000 0.420000
1.000000 0.030000 0.600000
1.000000 0.030000 0.780000
1.000000 0.030000 0.960000
1.000000 0.030000 1.000000
1.000000 0.030000 1.000000
1.000000 0.120000 0.000000
1.000000 0.120000 0.060000
1.000000 0.120000 0.240000
1.000000 0.120000 0.420000
1.000000 0.120000 0.600000
1.000000 0.120000 0.780000
1.000000 0.120000 0.960000
1.000000 0.120000 1.000000
1.000000 0.120000 1.000000
1.000000 0.210000 0.000000
1.000000 0.210000 0.060000
1.000000 0.210000 0.240000
1.000000 0.210000 0.420000
1.000000 0.210000 0.600000
1.000000 0.210000 0.780000
1.000000 0.210000 0.960000
1.000000 0.210000 1.000000
1.000000 0.210000 1.000000
1.000000 0.300000 0.000000
1.000000 0.300000 0.060000
1.000000 0.300000 0.240000
1.000000 0.300000 0.420000
1.000000 0.300000 0.600000
1.000000 0.300000 0.780000
0.880000 0.650000 1.000000
0.880000 0.650000 1.000000
0.880000 0.650000 1.000000
0.880000 0.845000 0.000000
0.880000 0.845000 0.065000
0.880000 0.845000 0.260000
0.880000 0.845000 0.455000
0.880000 0.845000 0.650000
0.880000 0.845000 0.845000
0.880000 0.845000 1.000000
0.880000 0.845000 1.000000
0.880000 0.845000 1.000000
0.880000 1.000000 0.000000
0.880000 1.000000 0.065000
0.880000 1.000000 0.260000
0.880000 1.000000 0.455000
0.880000 1.000000 0.650000
0.880000 1.000000 0.845000
0.880000 1.000000 1.000000
0.880000 1.000000 1.000000
0.880000 1.000000 1.000000
0.880000 1.000000 0.000000
0.880000 1.000000 0.065000
0.880000 1.000000 0.260000
0.880000 1.000000 0.455000
0.880000 1.000000 0.650000
0.880000 1.000000 0.845000
0.880000 1.000000 1.000000
0.880000 1.000000 1.000000
0.880000 1.000000 1.000000
0.880000 1.000000 0.000000
0.880000 1.000000 0.065000
0.880000 1.000000 0.260000
0.880000 1.000000 0.455000
0.880000 1.000000 0.650000
0.880000 1.000000 0.845000
0.880000 1.000000 1.000000
0.880000 1.000000 1.000000
0.880000 1.000000 1.000000
