assets/luts/cube/Cyberpunk_Neon.cube
TITLE "Cyberpunk_Neon_Grade"
LUT_3D_SIZE 33
DOMAIN_MIN 0.000000 0.000000 0.000000
DOMAIN_MAX 1.000000 1.000000 1.000000
0.000000 0.000000 0.000000
0.000000 0.000000 0.000000
0.000000 0.000000 0.000000
0.000000 0.000000 0.016250
0.000000 0.000000 0.065000
0.000000 0.000000 0.113750
0.000000 0.000000 0.162500
0.000000 0.000000 0.211250
0.000000 0.000000 0.260000
0.000000 0.000000 0.308750
0.000000 0.000000 0.357500
0.000000 0.000000 0.406250
0.000000 0.000000 0.455000
0.000000 0.000000 0.503750
0.000000 0.000000 0.552500
0.000000 0.000000 0.601250
0.000000 0.000000 0.650000
0.000000 0.000000 0.698750
0.000000 0.000000 0.747500
0.000000 0.000000 0.796250
0.000000 0.000000 0.845000
0.000000 0.000000 0.893750
0.000000 0.000000 0.942500
0.000000 0.000000 0.991250
0.000000 0.000000 1.000000
0.000000 0.000000 1.000000
0.000000 0.000000 1.000000
0.000000 0.000000 1.000000
0.000000 0.000000 1.000000
0.000000 0.000000 1.000000
0.000000 0.000000 1.000000
0.000000 0.000000 1.000000
0.000000 0.000000 1.000000
0.000000 0.000000 0.000000
0.000000 0.000000 0.000000
0.000000 0.000000 0.000000
0.000000 0.000000 0.016250
0.000000 0.000000 0.065000
0.000000 0.000000 0.113750
0.000000 0.000000 0.162500
0.000000 0.000000 0.211250
0.000000 0.000000 0.260000
0.000000 0.000000 0.308750
0.000000 0.000000 0.357500
0.000000 0.000000 0.406250
0.000000 0.000000 0.455000
0.000000 0.000000 0.503750
0.000000 0.000000 0.552500
0.000000 0.000000 0.601250
0.000000 0.000000 0.650000
0.000000 0.000000 0.698750
0.000000 0.000000 0.747500
0.000000 0.000000 0.796250
0.000000 0.000000 0.845000
0.000000 0.000000 0.893750
0.000000 0.000000 0.942500
0.000000 0.000000 0.991250
0.000000 0.000000 1.000000
0.000000 0.000000 1.000000
0.000000 0.000000 1.000000
0.000000 0.000000 1.000000
0.000000 0.000000 1.000000
0.000000 0.000000 1.000000
0.000000 0.000000 1.000000
0.000000 0.000000 1.000000
0.000000 0.000000 1.000000
0.000000 0.000000 0.000000
0.000000 0.000000 0.000000
0.000000 0.000000 0.000000
0.000000 0.000000 0.016250
0.000000 0.000000 0.065000
0.000000 0.000000 0.113750
0.000000 0.000000 0.162500
0.000000 0.000000 0.211250
0.000000 0.000000 0.260000
0.000000 0.000000 0.308750
0.000000 0.000000 0.357500
0.000000 0.000000 0.406250
0.000000 0.000000 0.455000
0.000000 0.000000 0.503750
0.000000 0.000000 0.552500
0.000000 0.000000 0.601250
0.000000 0.000000 0.650000
0.000000 0.000000 0.698750
0.000000 0.000000 0.747500
0.000000 0.000000 0.796250
0.000000 0.000000 0.845000
0.000000 0.000000 0.893750
0.000000 0.000000 0.942500
0.000000 0.000000 0.991250
0.000000 0.000000 1.000000
0.000000 0.000000 1.000000
0.000000 0.000000 1.000000
0.000000 0.000000 1.000000
0.000000 0.000000 1.000000
0.000000 0.000000 1.000000
0.000000 0.000000 1.000000
0.000000 0.000000 1.000000
0.000000 0.000000 1.000000
0.000000 0.008750 0.000000
0.000000 0.008750 0.000000
0.000000 0.008750 0.000000
0.000000 0.008750 0.016250
0.000000 0.008750 0.065000
0.000000 0.008750 0.113750
0.000000 0.008750 0.162500
0.000000 0.008750 0.211250
0.000000 0.008750 0.260000
0.000000 0.008750 0.308750
0.000000 0.008750 0.357500
0.000000 0.008750 0.406250
0.000000 0.008750 0.455000
0.000000 0.008750 0.503750
0.000000 0.008750 0.552500
0.000000 0.008750 0.601250
0.000000 0.008750 0.650000
0.000000 0.008750 0.698750
0.000000 0.008750 0.747500
0.000000 0.008750 0.796250
0.000000 0.008750 0.845000
0.000000 0.008750 0.893750
0.000000 0.008750 0.942500
0.000000 0.008750 0.991250
0.000000 0.008750 1.000000
0.000000 0.008750 1.000000
0.000000 0.008750 1.000000
0.000000 0.008750 1.000000
0.000000 0.008750 1.000000
0.000000 0.008750 1.000000
0.000000 0.008750 1.000000
0.000000 0.008750 1.000000
0.000000 0.008750 1.000000
0.000000 0.035000 0.000000
0.000000 0.035000 0.000000
0.000000 0.035000 0.000000
0.000000 0.035000 0.016250
0.000000 0.035000 0.065000
0.000000 0.035000 0.113750
0.000000 0.035000 0.162500
0.000000 0.035000 0.211250
0.000000 0.035000 0.260000
0.000000 0.035000 0.308750
0.000000 0.035000 0.357500
0.000000 0.035000 0.406250
0.000000 0.035000 0.455000
0.000000 0.035000 0.503750
0.000000 0.035000 0.552500
0.000000 0.035000 0.601250
0.000000 0.035000 0.650000
0.000000 0.035000 0.698750
0.000000 0.035000 0.747500
0.000000 0.035000 0.796250
0.000000 0.035000 0.845000
0.000000 0.035000 0.893750
0.000000 0.035000 0.942500
0.000000 0.035000 0.991250
0.000000 0.035000 1.000000
0.000000 0.035000 1.000000
0.000000 0.035000 1.000000
0.000000 0.035000 1.000000
0.000000 0.035000 1.000000
0.000000 0.035000 1.000000
0.000000 0.035000 1.000000
0.000000 0.035000 1.000000
0.000000 0.035000 1.000000
0.000000 0.061250 0.000000
0.000000 0.061250 0.000000
0.000000 0.061250 0.000000
0.000000 0.061250 0.016250
0.000000 0.061250 0.065000
0.000000 0.061250 0.113750
0.000000 0.061250 0.162500
0.000000 0.061250 0.211250
0.000000 0.061250 0.260000
0.000000 0.061250 0.308750
0.000000 0.061250 0.357500
0.000000 0.061250 0.406250
0.000000 0.061250 0.455000
0.000000 0.061250 0.503750
0.000000 0.061250 0.552500
0.000000 0.061250 0.601250
0.000000 0.061250 0.650000
0.000000 0.061250 0.698750
0.000000 0.061250 0.747500
0.000000 0.061250 0.796250
0.000000 0.061250 0.845000
0.000000 0.061250 0.893750
0.000000 0.061250 0.942500
0.000000 0.061250 0.991250
0.000000 0.061250 1.000000
0.000000 0.061250 1.000000
0.000000 0.061250 1.000000
0.000000 0.061250 1.000000
0.000000 0.061250 1.000000
0.000000 0.061250 1.000000
0.000000 0.061250 1.000000
0.000000 0.061250 1.000000
0.000000 0.061250 1.000000
0.000000 0.087500 0.000000
0.000000 0.087500 0.000000
0.000000 0.087500 0.000000
0.000000 0.087500 0.016250
0.000000 0.087500 0.065000
0.000000 0.087500 0.113750
0.000000 0.087500 0.162500
0.000000 0.087500 0.211250
0.000000 0.087500 0.260000
0.000000 0.087500 0.308750
0.000000 0.087500 0.357500
0.000000 0.087500 0.406250
0.000000 0.087500 0.455000
0.000000 0.087500 0.503750
0.000000 0.087500 0.552500
0.000000 0.087500 0.601250
0.000000 0.087500 0.650000
0.000000 0.087500 0.698750
0.000000 0.087500 0.747500
0.000000 0.087500 0.796250
0.000000 0.087500 0.845000
0.000000 0.087500 0.893750
0.000000 0.087500 0.942500
0.000000 0.087500 0.991250
0.000000 0.087500 1.000000
0.000000 0.087500 1.000000
0.000000 0.087500 1.000000
0.000000 0.087500 1.000000
0.000000 0.087500 1.000000
0.000000 0.087500 1.000000
0.000000 0.087500 1.000000
0.000000 0.087500 1.000000
0.000000 0.087500 1.000000
0.000000 0.113750 0.000000
0.000000 0.113750 0.000000
0.000000 0.113750 0.000000
0.000000 0.113750 0.016250
0.000000 0.113750 0.065000
0.000000 0.113750 0.113750
0.000000 0.113750 0.162500
0.000000 0.113750 0.211250
0.000000 0.113750 0.260000
0.000000 0.113750 0.308750
0.000000 0.113750 0.357500
0.000000 0.113750 0.406250
0.000000 0.113750 0.455000
0.000000 0.113750 0.503750
0.000000 0.113750 0.552500
0.000000 0.113750 0.601250
0.000000 0.113750 0.650000
0.000000 0.113750 0.698750
0.000000 0.113750 0.747500
0.000000 0.113750 0.796250
0.000000 0.113750 0.845000
0.000000 0.113750 0.893750
0.000000 0.113750 0.942500
0.000000 0.113750 0.991250
0.000000 0.113750 1.000000
0.000000 0.113750 1.000000
0.000000 0.113750 1.000000
0.000000 0.113750 1.000000
0.000000 0.113750 1.000000
0.000000 0.113750 1.000000
0.000000 0.113750 1.000000
0.000000 0.113750 1.000000
0.000000 0.113750 1.000000
0.000000 0.140000 0.000000
0.000000 0.140000 0.000000
0.000000 0.140000 0.000000
0.000000 0.140000 0.016250
0.000000 0.140000 0.065000
0.000000 0.140000 0.113750
0.000000 0.140000 0.162500
0.000000 0.140000 0.211250
0.000000 0.140000 0.260000
0.000000 0.140000 0.308750
0.000000 0.140000 0.357500
0.000000 0.140000 0.406250
0.000000 0.140000 0.455000
0.000000 0.140000 0.503750
0.000000 0.140000 0.552500
0.000000 0.140000 0.601250
0.000000 0.140000 0.650000
0.000000 0.140000 0.698750
0.000000 0.140000 0.747500
0.000000 0.140000 0.796250
0.000000 0.140000 0.845000
0.000000 0.140000 0.893750
0.000000 0.140000 0.942500
0.000000 0.140000 0.991250
0.000000 0.140000 1.000000
0.000000 0.140000 1.000000
0.000000 0.140000 1.000000
0.000000 0.140000 1.000000
0.000000 0.140000 1.000000
0.000000 0.140000 1.000000
0.000000 0.140000 1.000000
0.000000 0.140000 1.000000
0.000000 0.140000 1.000000
0.000000 0.166250 0.000000
0.000000 0.166250 0.000000
0.000000 0.166250 0.000000
0.000000 0.166250 0.016250
0.000000 0.166250 0.065000
0.000000 0.166250 0.113750
0.000000 0.166250 0.162500
0.000000 0.166250 0.211250
0.000000 0.166250 0.260000
0.000000 0.166250 0.308750
0.000000 0.166250 0.357500
0.000000 0.166250 0.406250
0.000000 0.166250 0.455000
0.000000 0.166250 0.503750
0.000000 0.166250 0.552500
0.000000 0.166250 0.601250
0.000000 0.166250 0.650000
0.000000 0.166250 0.698750
0.000000 0.166250 0.747500
0.000000 0.166250 0.796250
0.000000 0.166250 0.845000
0.000000 0.166250 0.893750
0.000000 0.166250 0.942500
0.000000 0.166250 0.991250
0.000000 0.166250 1.000000
0.000000 0.166250 1.000000
0.000000 0.166250 1.000000
0.000000 0.166250 1.000000
0.000000 0.166250 1.000000
0.000000 0.166250 1.000000
0.000000 0.166250 1.000000
0.000000 0.166250 1.000000
0.000000 0.166250 1.000000
0.000000 0.192500 0.000000
0.000000 0.192500 0.000000
0.000000 0.192500 0.000000
0.000000 0.192500 0.016250
0.000000 0.192500 0.065000
0.000000 0.192500 0.113750
0.000000 0.192500 0.162500
0.000000 0.192500 0.211250
0.000000 0.192500 0.260000
0.000000 0.192500 0.308750
0.000000 0.192500 0.357500
0.000000 0.192500 0.406250
0.000000 0.192500 0.455000
0.000000 0.192500 0.503750
0.000000 0.192500 0.552500
0.000000 0.192500 0.601250
0.000000 0.192500 0.650000
0.000000 0.192500 0.698750
0.000000 0.192500 0.747500
0.000000 0.192500 0.796250
0.000000 0.192500 0.845000
0.000000 0.192500 0.893750
0.000000 0.192500 0.942500
0.000000 0.192500 0.991250
0.000000 0.192500 1.000000
0.000000 0.192500 1.000000
0.000000 0.192500 1.000000
0.000000 0.192500 1.000000
0.000000 0.192500 1.000000
0.000000 0.192500 1.000000
0.000000 0.192500 1.000000
0.000000 0.192500 1.000000
0.000000 0.192500 1.000000
0.000000 0.218750 0.000000
0.000000 0.218750 0.000000
0.000000 0.218750 0.000000
0.000000 0.218750 0.016250
0.000000 0.218750 0.065000
0.000000 0.218750 0.113750
0.000000 0.218750 0.162500
0.000000 0.218750 0.211250
0.000000 0.218750 0.260000
0.000000 0.218750 0.308750
0.000000 0.218750 0.357500
0.000000 0.218750 0.406250
0.000000 0.218750 0.455000
0.000000 0.218750 0.503750
0.000000 0.218750 0.552500
0.000000 0.218750 0.601250
0.000000 0.218750 0.650000
0.000000 0.218750 0.698750
0.000000 0.218750 0.747500
0.000000 0.218750 0.796250
0.000000 0.218750 0.845000
0.000000 0.218750 0.893750
0.000000 0.218750 0.942500
0.000000 0.218750 0.991250
0.000000 0.218750 1.000000
0.000000 0.218750 1.000000
0.000000 0.218750 1.000000
0.000000 0.218750 1.000000
0.000000 0.218750 1.000000
0.000000 0.218750 1.000000
0.000000 0.218750 1.000000
0.000000 0.218750 1.000000
0.000000 0.218750 1.000000
0.000000 0.245000 0.000000
0.000000 0.245000 0.000000
0.000000 0.245000 0.000000
0.000000 0.245000 0.016250
0.000000 0.245000 0.065000
0.000000 0.245000 0.113750
0.000000 0.245000 0.162500
0.000000 0.245000 0.211250
0.000000 0.245000 0.260000
0.000000 0.245000 0.308750
0.000000 0.245000 0.357500
0.000000 0.245000 0.406250
0.000000 0.245000 0.455000
0.000000 0.245000 0.503750
0.000000 0.245000 0.552500
0.000000 0.245000 0.601250
0.000000 0.245000 0.650000
0.000000 0.245000 0.698750
0.000000 0.245000 0.747500
0.000000 0.245000 0.796250
0.000000 0.245000 0.845000
0.000000 0.245000 0.893750
0.000000 0.245000 0.942500
0.000000 0.245000 0.991250
0.000000 0.245000 1.000000
0.000000 0.245000 1.000000
0.000000 0.245000 1.000000
0.000000 0.245000 1.000000
0.000000 0.245000 1.000000
0.000000 0.245000 1.000000
0.000000 0.245000 1.000000
0.000000 0.245000 1.000000
0.000000 0.245000 1.000000
0.000000 0.271250 0.000000
0.000000 0.271250 0.000000
0.000000 0.271250 0.000000
0.000000 0.271250 0.016250
0.000000 0.271250 0.065000
0.000000 0.271250 0.113750
0.000000 0.271250 0.162500
0.000000 0.271250 0.211250
0.000000 0.271250 0.260000
0.000000 0.271250 0.308750
0.000000 0.271250 0.357500
0.000000 0.271250 0.406250
0.000000 0.271250 0.455000
0.000000 0.271250 0.503750
0.000000 0.271250 0.552500
0.000000 0.271250 0.601250
0.000000 0.271250 0.650000
0.000000 0.271250 0.698750
0.000000 0.271250 0.747500
0.000000 0.271250 0.796250
0.000000 0.271250 0.845000
0.000000 0.271250 0.893750
0.000000 0.271250 0.942500
0.000000 0.271250 0.991250
0.000000 0.271250 1.000000
0.000000 0.271250 1.000000
0.000000 0.271250 1.000000
0.000000 0.271250 1.000000
0.000000 0.232500 1.000000
0.000000 0.232500 1.000000
0.000000 0.232500 1.000000
0.000000 0.232500 1.000000
0.000000 0.232500 1.000000
0.000000 0.297500 0.000000
0.000000 0.297500 0.000000
0.000000 0.297500 0.000000
0.000000 0.297500 0.016250
0.000000 0.297500 0.065000
0.000000 0.297500 0.113750
0.000000 0.297500 0.162500
0.000000 0.297500 0.211250
0.000000 0.297500 0.260000
0.000000 0.297500 0.308750
0.000000 0.297500 0.357500
0.000000 0.297500 0.406250
0.000000 0.297500 0.455000
0.000000 0.297500 0.503750
0.000000 0.297500 0.552500
0.000000 0.297500 0.601250
0.000000 0.297500 0.650000
0.000000 0.297500 0.698750
0.000000 0.297500 0.747500
0.000000 0.297500 0.796250
0.000000 0.297500 0.845000
0.000000 0.297500 0.893750
0.000000 0.255000 0.870000
0.000000 0.255000 0.915000
0.000000 0.255000 0.960000
0.000000 0.255000 1.000000
0.000000 0.255000 1.000000
0.000000 0.255000 1.000000
0.000000 0.255000 1.000000
0.000000 0.255000 1.000000
0.000000 0.255000 1.000000
0.000000 0.255000 1.000000
0.000000 0.255000 1.000000
0.000000 0.323750 0.000000
0.000000 0.323750 0.000000
0.000000 0.323750 0.000000
0.000000 0.323750 0.016250
0.000000 0.323750 0.065000
0.000000 0.323750 0.113750
0.000000 0.323750 0.162500
0.000000 0.323750 0.211250
0.000000 0.323750 0.260000
0.000000 0.323750 0.308750
0.000000 0.323750 0.357500
0.000000 0.323750 0.406250
0.000000 0.323750 0.455000
0.000000 0.323750 0.503750
0.000000 0.323750 0.552500
0.000000 0.323750 0.601250
0.000000 0.323750 0.650000
0.000000 0.277500 0.645000
0.000000 0.277500 0.690000
0.000000 0.277500 0.735000
0.000000 0.277500 0.780000
0.000000 0.277500 0.825000
0.000000 0.277500 0.870000
0.000000 0.277500 0.915000
0.000000 0.277500 0.960000
0.000000 0.277500 1.000000
0.000000 0.277500 1.000000
0.000000 0.277500 1.000000
0.000000 0.277500 1.000000
0.000000 0.277500 1.000000
0.000000 0.277500 1.000000
0.000000 0.277500 1.000000
0.000000 0.277500 1.000000
0.000000 0.350000 0.000000
0.000000 0.350000 0.000000
0.000000 0.350000 0.000000
0.000000 0.350000 0.016250
0.000000 0.350000 0.065000
0.000000 0.350000 0.113750
0.000000 0.350000 0.162500
0.000000 0.350000 0.211250
0.000000 0.350000 0.260000
0.000000 0.350000 0.308750
0.000000 0.350000 0.357500
0.000000 0.350000 0.406250
0.000000 0.300000 0.420000
0.000000 0.300000 0.465000
0.000000 0.300000 0.510000
0.000000 0.300000 0.555000
0.000000 0.300000 0.600000
0.000000 0.300000 0.645000
0.000000 0.300000 0.690000
0.000000 0.300000 0.735000
0.000000 0.300000 0.780000
0.000000 0.300000 0.825000
0.000000 0.300000 0.870000
0.000000 0.300000 0.915000
0.000000 0.300000 0.960000
0.000000 0.300000 1.000000
0.000000 0.300000 1.000000
0.000000 0.300000 1.000000
0.000000 0.300000 1.000000
0.000000 0.300000 1.000000
0.000000 0.300000 1.000000
0.000000 0.300000 1.000000
0.000000 0.300000 1.000000
0.000000 0.376250 0.000000
0.000000 0.376250 0.000000
0.000000 0.376250 0.000000
0.000000 0.376250 0.016250
0.000000 0.376250 0.065000
0.000000 0.376250 0.113750
0.000000 0.322500 0.150000
0.000000 0.322500 0.195000
0.000000 0.322500 0.240000
0.000000 0.322500 0.285000
0.000000 0.322500 0.330000
0.000000 0.322500 0.375000
0.000000 0.322500 0.420000
0.000000 0.322500 0.465000
0.000000 0.322500 0.510000
0.000000 0.322500 0.555000
0.000000 0.322500 0.600000
0.000000 0.322500 0.645000
0.000000 0.322500 0.690000
0.000000 0.322500 0.735000
0.000000 0.322500 0.780000
0.000000 0.322500 0.825000
0.000000 0.322500 0.870000
0.000000 0.322500 0.915000
0.000000 0.322500 0.960000
0.000000 0.322500 1.000000
0.000000 0.322500 1.000000
0.000000 0.322500 1.000000
0.000000 0.322500 1.000000
0.000000 0.322500 1.000000
0.000000 0.322500 1.000000
0.000000 0.322500 1.000000
0.000000 0.322500 1.000000
0.000000 0.402500 0.000000
0.000000 0.345000 0.000000
0.000000 0.345000 0.000000
0.000000 0.345000 0.015000
0.000000 0.345000 0.060000
0.000000 0.345000 0.105000
0.000000 0.345000 0.150000
0.000000 0.345000 0.195000
0.000000 0.345000 0.240000
0.000000 0.345000 0.285000
0.000000 0.345000 0.330000
0.000000 0.345000 0.375000
0.000000 0.345000 0.420000
0.000000 0.345000 0.465000
0.000000 0.345000 0.510000
0.000000 0.345000 0.555000
0.000000 0.345000 0.600000
0.000000 0.345000 0.645000
0.000000 0.345000 0.690000
0.000000 0.345000 0.735000
0.000000 0.345000 0.780000
0.000000 0.345000 0.825000
0.000000 0.345000 0.870000
0.000000 0.345000 0.915000
0.000000 0.345000 0.960000
0.000000 0.345000 1.000000
0.000000 0.345000 1.000000
0.000000 0.345000 1.000000
0.000000 0.345000 1.000000
0.000000 0.345000 1.000000
0.000000 0.345000 1.000000
0.000000 0.345000 1.000000
0.000000 0.345000 1.000000
0.000000 0.367500 0.000000
0.000000 0.367500 0.000000
0.000000 0.367500 0.000000
0.000000 0.367500 0.015000
0.000000 0.367500 0.060000
0.000000 0.367500 0.105000
0.000000 0.367500 0.150000
0.000000 0.367500 0.195000
0.000000 0.367500 0.240000
0.000000 0.367500 0.285000
0.000000 0.367500 0.330000
0.000000 0.367500 0.375000
0.000000 0.367500 0.420000
0.000000 0.367500 0.465000
0.000000 0.367500 0.510000
0.000000 0.367500 0.555000
0.000000 0.367500 0.600000
0.000000 0.367500 0.645000
0.000000 0.367500 0.690000
0.000000 0.367500 0.735000
0.000000 0.367500 0.780000
0.000000 0.367500 0.825000
0.000000 0.367500 0.870000
0.000000 0.367500 0.915000
0.000000 0.367500 0.960000
0.000000 0.367500 1.000000
0.000000 0.367500 1.000000
0.000000 0.367500 1.000000
0.000000 0.367500 1.000000
0.000000 0.367500 1.000000
0.000000 0.367500 1.000000
0.000000 0.367500 1.000000
0.000000 0.367500 1.000000
0.000000 0.390000 0.000000
0.000000 0.390000 0.000000
0.000000 0.390000 0.000000
0.000000 0.390000 0.015000
0.000000 0.390000 0.060000
0.000000 0.390000 0.105000
0.000000 0.390000 0.150000
0.000000 0.390000 0.195000
0.000000 0.390000 0.240000
0.000000 0.390000 0.285000
0.000000 0.390000 0.330000
0.000000 0.390000 0.375000
0.000000 0.390000 0.420000
0.000000 0.390000 0.465000
0.000000 0.390000 0.510000
0.000000 0.390000 0.555000
0.000000 0.390000 0.600000
0.000000 0.390000 0.645000
0.000000 0.390000 0.690000
0.000000 0.390000 0.735000
0.000000 0.390000 0.780000
0.000000 0.390000 0.825000
0.000000 0.390000 0.870000
0.000000 0.390000 0.915000
0.000000 0.390000 0.960000
0.000000 0.390000 1.000000
0.000000 0.390000 1.000000
0.000000 0.390000 1.000000
0.000000 0.390000 1.000000
0.000000 0.390000 1.000000
0.000000 0.390000 1.000000
0.000000 0.390000 1.000000
0.000000 0.390000 1.000000
0.000000 0.412500 0.000000
0.000000 0.412500 0.000000
0.000000 0.412500 0.000000
0.000000 0.412500 0.015000
0.000000 0.412500 0.060000
0.000000 0.412500 0.105000
0.000000 0.412500 0.150000
0.000000 0.412500 0.195000
0.000000 0.412500 0.240000
0.000000 0.412500 0.285000
0.000000 0.412500 0.330000
0.000000 0.412500 0.375000
0.000000 0.412500 0.420000
0.000000 0.412500 0.465000
0.000000 0.412500 0.510000
0.000000 0.412500 0.555000
0.000000 0.412500 0.600000
0.000000 0.412500 0.645000
0.000000 0.412500 0.690000
0.000000 0.412500 0.735000
0.000000 0.412500 0.780000
0.000000 0.412500 0.825000
0.000000 0.412500 0.870000
0.000000 0.412500 0.915000
0.000000 0.412500 0.960000
0.000000 0.412500 1.000000
0.000000 0.412500 1.000000
0.000000 0.412500 1.000000
0.000000 0.412500 1.000000
0.000000 0.412500 1.000000
0.000000 0.412500 1.000000
0.000000 0.412500 1.000000
0.000000 0.412500 1.000000
0.000000 0.435000 0.000000
0.000000 0.435000 0.000000
0.000000 0.435000 0.000000
0.000000 0.435000 0.015000
0.000000 0.435000 0.060000
0.000000 0.435000 0.105000
0.000000 0.435000 0.150000
0.000000 0.435000 0.195000
0.000000 0.435000 0.240000
0.000000 0.435000 0.285000
0.000000 0.435000 0.330000
0.000000 0.435000 0.375000
0.000000 0.435000 0.420000
0.000000 0.435000 0.465000
0.000000 0.435000 0.510000
0.000000 0.435000 0.555000
0.000000 0.435000 0.600000
0.000000 0.435000 0.645000
0.000000 0.435000 0.690000
0.000000 0.435000 0.735000
0.000000 0.435000 0.780000
0.000000 0.435000 0.825000
0.000000 0.435000 0.870000
0.000000 0.435000 0.915000
0.000000 0.435000 0.960000
0.000000 0.435000 1.000000
0.000000 0.435000 1.000000
0.000000 0.435000 1.000000
0.000000 0.435000 1.000000
0.000000 0.435000 1.000000
0.000000 0.435000 1.000000
0.000000 0.435000 1.000000
0.000000 0.435000 1.000000
0.000000 0.457500 0.000000
0.000000 0.457500 0.000000
0.000000 0.457500 0.000000
0.000000 0.457500 0.015000
0.000000 0.457500 0.060000
0.000000 0.457500 0.105000
0.000000 0.457500 0.150000
0.000000 0.457500 0.195000
0.000000 0.457500 0.240000
0.000000 0.457500 0.285000
0.000000 0.457500 0.330000
0.000000 0.457500 0.375000
0.000000 0.457500 0.420000
0.000000 0.457500 0.465000
0.000000 0.457500 0.510000
0.000000 0.457500 0.555000
0.000000 0.457500 0.600000
0.000000 0.457500 0.645000
0.000000 0.457500 0.690000
0.000000 0.457500 0.735000
0.000000 0.457500 0.780000
0.000000 0.457500 0.825000
0.000000 0.457500 0.870000
0.000000 0.457500 0.915000
0.000000 0.457500 0.960000
0.000000 0.457500 1.000000
0.000000 0.457500 1.000000
0.000000 0.457500 1.000000
0.000000 0.457500 1.000000
0.000000 0.457500 1.000000
0.000000 0.457500 1.000000
0.000000 0.457500 1.000000
0.000000 0.457500 1.000000
0.000000 0.480000 0.000000
0.000000 0.480000 0.000000
0.000000 0.480000 0.000000
0.000000 0.480000 0.015000
0.000000 0.480000 0.060000
0.000000 0.480000 0.105000
0.000000 0.480000 0.150000
0.000000 0.480000 0.195000
0.000000 0.480000 0.240000
0.000000 0.480000 0.285000
0.000000 0.480000 0.330000
0.000000 0.480000 0.375000
0.000000 0.480000 0.420000
0.000000 0.480000 0.465000
0.000000 0.480000 0.510000
0.000000 0.480000 0.555000
0.000000 0.480000 0.600000
0.000000 0.480000 0.645000
0.000000 0.480000 0.690000
0.000000 0.480000 0.735000
0.000000 0.480000 0.780000
0.000000 0.480000 0.825000
0.000000 0.480000 0.870000
0.000000 0.480000 0.915000
0.000000 0.480000 0.960000
0.000000 0.480000 1.000000
0.000000 0.480000 1.000000
0.000000 0.480000 1.000000
0.000000 0.480000 1.000000
0.000000 0.480000 1.000000
0.000000 0.480000 1.000000
0.000000 0.480000 1.000000
0.000000 0.480000 1.000000
0.000000 0.502500 0.000000
0.000000 0.502500 0.000000
0.000000 0.502500 0.000000
0.000000 0.502500 0.015000
0.000000 0.502500 0.060000
0.000000 0.502500 0.105000
0.000000 0.502500 0.150000
0.000000 0.502500 0.195000
0.000000 0.502500 0.240000
0.000000 0.502500 0.285000
0.000000 0.502500 0.330000
0.000000 0.502500 0.375000
0.000000 0.502500 0.420000
0.000000 0.502500 0.465000
0.000000 0.502500 0.510000
0.000000 0.502500 0.555000
0.000000 0.502500 0.600000
0.000000 0.502500 0.645000
0.000000 0.502500 0.690000
0.000000 0.502500 0.735000
0.000000 0.502500 0.780000
0.000000 0.502500 0.825000
0.000000 0.502500 0.870000
0.000000 0.502500 0.915000
0.000000 0.502500 0.960000
0.000000 0.502500 1.000000
0.000000 0.502500 1.000000
0.000000 0.502500 1.000000
0.000000 0.502500 1.000000
0.000000 0.502500 1.000000
0.000000 0.502500 1.000000
0.000000 0.502500 1.000000
0.000000 0.502500 1.000000
0.000000 0.525000 0.000000
0.000000 0.525000 0.000000
0.000000 0.525000 0.000000
0.000000 0.525000 0.015000
0.000000 0.525000 0.060000
0.000000 0.525000 0.105000
0.000000 0.525000 0.150000
0.000000 0.525000 0.195000
0.000000 0.525000 0.240000
0.000000 0.525000 0.285000
0.000000 0.525000 0.330000
0.000000 0.525000 0.375000
0.000000 0.525000 0.420000
0.000000 0.525000 0.465000
0.000000 0.525000 0.510000
0.000000 0.525000 0.555000
0.000000 0.525000 0.600000
0.000000 0.525000 0.645000
0.000000 0.525000 0.690000
0.000000 0.525000 0.735000
0.000000 0.525000 0.780000
0.000000 0.525000 0.825000
0.000000 0.525000 0.870000
0.000000 0.525000 0.915000
0.000000 0.525000 0.960000
0.000000 0.525000 1.000000
