assets/luts/cube/Surreal_Experimental.cube
TITLE "Surreal_Experimental_Grade"
LUT_3D_SIZE 33
DOMAIN_MIN 0.0 0.0 0.0
DOMAIN_MAX 1.0 1.0 1.0
0.000000 0.000000 1.000000
0.000000 0.000000 0.999023
0.000000 0.000000 0.996094
0.000000 0.000000 0.991211
0.000000 0.000000 0.984375
0.000000 0.000000 0.975586
0.000000 0.000000 0.964844
0.000000 0.000000 0.952148
0.000000 0.000000 0.937500
0.000000 0.000000 0.920898
0.000000 0.000000 0.902344
0.000000 0.000000 0.881836
0.000000 0.000000 0.859375
0.000000 0.000000 0.834961
0.000000 0.000000 0.808594
0.000000 0.000000 0.780273
0.000000 0.000000 0.750000
0.000000 0.000000 0.717773
0.000000 0.000000 0.683594
0.000000 0.000000 0.647461
0.000000 0.000000 0.609375
0.000000 0.000000 0.569336
0.000000 0.000000 0.527344
0.000000 0.000000 0.483398
0.000000 0.000000 0.437500
0.000000 0.000000 0.389648
0.000000 0.000000 0.339844
0.000000 0.000000 0.288086
0.000000 0.000000 0.234375
0.000000 0.000000 0.178711
0.000000 0.000000 0.121094
0.000000 0.000000 0.061523
0.000000 0.000000 0.000000
0.000000 0.176777 1.000000
0.000000 0.176777 0.999023
0.000000 0.176777 0.996094
0.000000 0.176777 0.991211
0.000000 0.176777 0.984375
0.000000 0.176777 0.975586
0.000000 0.176777 0.964844
0.000000 0.176777 0.952148
0.000000 0.176777 0.937500
0.000000 0.176777 0.920898
0.000000 0.176777 0.902344
0.000000 0.176777 0.881836
0.000000 0.176777 0.859375
0.000000 0.176777 0.834961
0.000000 0.176777 0.808594
0.000000 0.176777 0.780273
0.000000 0.176777 0.750000
0.000000 0.176777 0.717773
0.000000 0.176777 0.683594
0.000000 0.176777 0.647461
0.000000 0.176777 0.609375
0.000000 0.176777 0.569336
0.000000 0.176777 0.527344
0.000000 0.176777 0.483398
0.000000 0.176777 0.437500
0.000000 0.176777 0.389648
0.000000 0.176777 0.339844
0.000000 0.176777 0.288086
0.000000 0.176777 0.234375
0.000000 0.176777 0.178711
0.000000 0.176777 0.121094
0.000000 0.176777 0.061523
0.000000 0.176777 0.000000
0.000000 0.250000 1.000000
0.000000 0.250000 0.999023
0.000000 0.250000 0.996094
0.000000 0.250000 0.991211
0.000000 0.250000 0.984375
0.000000 0.250000 0.975586
0.000000 0.250000 0.964844
0.000000 0.250000 0.952148
0.000000 0.250000 0.937500
0.000000 0.250000 0.920898
0.000000 0.250000 0.902344
0.000000 0.250000 0.881836
0.000000 0.250000 0.859375
0.000000 0.250000 0.834961
0.000000 0.250000 0.808594
0.000000 0.250000 0.780273
0.000000 0.250000 0.750000
0.000000 0.250000 0.717773
0.000000 0.250000 0.683594
0.000000 0.250000 0.647461
0.000000 0.250000 0.609375
0.000000 0.250000 0.569336
0.000000 0.250000 0.527344
0.000000 0.250000 0.483398
0.000000 0.250000 0.437500
0.000000 0.250000 0.389648
0.000000 0.250000 0.339844
0.000000 0.250000 0.288086
0.000000 0.250000 0.234375
0.000000 0.250000 0.178711
0.000000 0.250000 0.121094
0.000000 0.250000 0.061523
0.000000 0.250000 0.000000
0.000000 0.306186 1.000000
0.000000 0.306186 0.999023
0.000000 0.306186 0.996094
0.000000 0.306186 0.991211
0.000000 0.306186 0.984375
0.000000 0.306186 0.975586
0.000000 0.306186 0.964844
0.000000 0.306186 0.952148
0.000000 0.306186 0.937500
0.000000 0.306186 0.920898
0.000000 0.306186 0.902344
0.000000 0.306186 0.881836
0.000000 0.306186 0.859375
0.000000 0.306186 0.834961
0.000000 0.306186 0.808594
0.000000 0.306186 0.780273
0.000000 0.306186 0.750000
0.000000 0.306186 0.717773
0.000000 0.306186 0.683594
0.000000 0.306186 0.647461
0.000000 0.306186 0.609375
0.000000 0.306186 0.569336
0.000000 0.306186 0.527344
0.000000 0.306186 0.483398
0.000000 0.306186 0.437500
0.000000 0.306186 0.389648
0.000000 0.306186 0.339844
0.000000 0.306186 0.288086
0.000000 0.306186 0.234375
0.000000 0.306186 0.178711
0.000000 0.306186 0.121094
0.000000 0.306186 0.061523
0.000000 0.306186 0.000000
0.000000 0.353553 1.000000
0.000000 0.353553 0.999023
0.000000 0.353553 0.996094
0.000000 0.353553 0.991211
0.000000 0.353553 0.984375
0.000000 0.353553 0.975586
0.000000 0.353553 0.964844
0.000000 0.353553 0.952148
0.000000 0.353553 0.937500
0.000000 0.353553 0.920898
0.000000 0.353553 0.902344
0.000000 0.353553 0.881836
0.000000 0.353553 0.859375
0.000000 0.353553 0.834961
0.000000 0.353553 0.808594
0.000000 0.353553 0.780273
0.000000 0.353553 0.750000
0.000000 0.353553 0.717773
0.000000 0.353553 0.683594
0.000000 0.353553 0.647461
0.000000 0.353553 0.609375
0.000000 0.353553 0.569336
0.000000 0.353553 0.527344
0.000000 0.353553 0.483398
0.000000 0.353553 0.437500
0.000000 0.353553 0.389648
0.000000 0.353553 0.339844
0.000000 0.353553 0.288086
0.000000 0.353553 0.234375
0.000000 0.353553 0.178711
0.000000 0.353553 0.121094
0.000000 0.353553 0.061523
0.000000 0.353553 0.000000
0.000000 0.395285 1.000000
0.000000 0.395285 0.999023
0.000000 0.395285 0.996094
0.000000 0.395285 0.991211
0.000000 0.395285 0.984375
0.000000 0.395285 0.975586
0.000000 0.395285 0.964844
0.000000 0.395285 0.952148
0.000000 0.395285 0.937500
0.000000 0.395285 0.920898
0.000000 0.395285 0.902344
0.000000 0.395285 0.881836
0.000000 0.395285 0.859375
0.000000 0.395285 0.834961
0.000000 0.395285 0.808594
0.000000 0.395285 0.780273
0.000000 0.395285 0.750000
0.000000 0.395285 0.717773
0.000000 0.395285 0.683594
0.000000 0.395285 0.647461
0.000000 0.395285 0.609375
0.000000 0.395285 0.569336
0.000000 0.395285 0.527344
0.000000 0.395285 0.483398
0.000000 0.395285 0.437500
0.000000 0.395285 0.389648
0.000000 0.395285 0.339844
0.000000 0.395285 0.288086
0.000000 0.395285 0.234375
0.000000 0.395285 0.178711
0.000000 0.395285 0.121094
0.000000 0.395285 0.061523
0.000000 0.395285 0.000000
0.000000 0.433013 1.000000
0.000000 0.433013 0.999023
0.000000 0.433013 0.996094
0.000000 0.433013 0.991211
0.000000 0.433013 0.984375
0.000000 0.433013 0.975586
0.000000 0.433013 0.964844
0.000000 0.433013 0.952148
0.000000 0.433013 0.937500
0.000000 0.433013 0.920898
0.000000 0.433013 0.902344
0.000000 0.433013 0.881836
0.000000 0.433013 0.859375
0.000000 0.433013 0.834961
0.000000 0.433013 0.808594
0.000000 0.433013 0.780273
0.000000 0.433013 0.750000
0.000000 0.433013 0.717773
0.000000 0.433013 0.683594
0.000000 0.433013 0.647461
0.000000 0.433013 0.609375
0.000000 0.433013 0.569336
0.000000 0.433013 0.527344
0.000000 0.433013 0.483398
0.000000 0.433013 0.437500
0.000000 0.433013 0.389648
0.000000 0.433013 0.339844
0.000000 0.433013 0.288086
0.000000 0.433013 0.234375
0.000000 0.433013 0.178711
0.000000 0.433013 0.121094
0.000000 0.433013 0.061523
0.000000 0.433013 0.000000
0.000000 0.467707 1.000000
0.000000 0.467707 0.999023
0.000000 0.467707 0.996094
0.000000 0.467707 0.991211
0.000000 0.467707 0.984375
0.000000 0.467707 0.975586
0.000000 0.467707 0.964844
0.000000 0.467707 0.952148
0.000000 0.467707 0.937500
0.000000 0.467707 0.920898
0.000000 0.467707 0.902344
0.000000 0.467707 0.881836
0.000000 0.467707 0.859375
0.000000 0.467707 0.834961
0.000000 0.467707 0.808594
0.000000 0.467707 0.780273
0.000000 0.467707 0.750000
0.000000 0.467707 0.717773
0.000000 0.467707 0.683594
0.000000 0.467707 0.647461
0.000000 0.467707 0.609375
0.000000 0.467707 0.569336
0.000000 0.467707 0.527344
0.000000 0.467707 0.483398
0.000000 0.467707 0.437500
0.000000 0.467707 0.389648
0.000000 0.467707 0.339844
0.000000 0.467707 0.288086
0.000000 0.467707 0.234375
0.000000 0.467707 0.178711
0.000000 0.467707 0.121094
0.000000 0.467707 0.061523
0.000000 0.467707 0.000000
0.000000 0.500000 1.000000
0.000000 0.500000 0.999023
0.000000 0.500000 0.996094
0.000000 0.500000 0.991211
0.000000 0.500000 0.984375
0.000000 0.500000 0.975586
0.000000 0.500000 0.964844
0.000000 0.500000 0.952148
0.000000 0.500000 0.937500
0.000000 0.500000 0.920898
0.000000 0.500000 0.902344
0.000000 0.500000 0.881836
0.000000 0.500000 0.859375
0.000000 0.500000 0.834961
0.000000 0.500000 0.808594
0.000000 0.500000 0.780273
0.000000 0.500000 0.750000
0.000000 0.500000 0.717773
0.000000 0.500000 0.683594
0.000000 0.500000 0.647461
0.000000 0.500000 0.609375
0.000000 0.500000 0.569336
0.000000 0.500000 0.527344
0.000000 0.500000 0.483398
0.000000 0.500000 0.437500
0.000000 0.500000 0.389648
0.000000 0.500000 0.339844
0.000000 0.500000 0.288086
0.000000 0.500000 0.234375
0.000000 0.500000 0.178711
0.000000 0.500000 0.121094
0.000000 0.500000 0.061523
0.000000 0.500000 0.000000
0.000000 0.530330 1.000000
0.000000 0.530330 0.999023
0.000000 0.530330 0.996094
0.000000 0.530330 0.991211
0.000000 0.530330 0.984375
0.000000 0.530330 0.975586
0.000000 0.530330 0.964844
0.000000 0.530330 0.952148
0.000000 0.530330 0.937500
0.000000 0.530330 0.920898
0.000000 0.530330 0.902344
0.000000 0.530330 0.881836
0.000000 0.530330 0.859375
0.000000 0.530330 0.834961
0.000000 0.530330 0.808594
0.000000 0.530330 0.780273
0.000000 0.530330 0.750000
0.000000 0.530330 0.717773
0.000000 0.530330 0.683594
0.000000 0.530330 0.647461
0.000000 0.530330 0.609375
0.000000 0.530330 0.569336
0.000000 0.530330 0.527344
0.000000 0.530330 0.483398
0.000000 0.530330 0.437500
0.000000 0.530330 0.389648
0.000000 0.530330 0.339844
0.000000 0.530330 0.288086
0.000000 0.530330 0.234375
0.000000 0.530330 0.178711
0.000000 0.530330 0.121094
0.000000 0.530330 0.061523
0.000000 0.530330 0.000000
0.000000 0.559017 1.000000
0.000000 0.559017 0.999023
0.000000 0.559017 0.996094
0.000000 0.559017 0.991211
0.000000 0.559017 0.984375
0.000000 0.559017 0.975586
0.000000 0.559017 0.964844
0.000000 0.559017 0.952148
0.000000 0.559017 0.937500
0.000000 0.559017 0.920898
0.000000 0.559017 0.902344
0.000000 0.559017 0.881836
0.000000 0.559017 0.859375
0.000000 0.559017 0.834961
0.000000 0.559017 0.808594
0.000000 0.559017 0.780273
0.000000 0.559017 0.750000
0.000000 0.559017 0.717773
0.000000 0.559017 0.683594
0.000000 0.559017 0.647461
0.000000 0.559017 0.609375
0.000000 0.559017 0.569336
0.000000 0.559017 0.527344
0.000000 0.559017 0.483398
0.000000 0.559017 0.437500
0.000000 0.559017 0.389648
0.000000 0.559017 0.339844
0.000000 0.559017 0.288086
0.000000 0.559017 0.234375
0.000000 0.559017 0.178711
0.000000 0.559017 0.121094
0.000000 0.559017 0.061523
0.000000 0.559017 0.000000
0.000000 0.586302 1.000000
0.000000 0.586302 0.999023
0.000000 0.586302 0.996094
0.000000 0.586302 0.991211
0.000000 0.586302 0.984375
0.000000 0.586302 0.975586
0.000000 0.586302 0.964844
0.000000 0.586302 0.952148
0.000000 0.586302 0.937500
0.000000 0.586302 0.920898
0.000000 0.586302 0.902344
0.000000 0.586302 0.881836
0.000000 0.586302 0.859375
0.000000 0.586302 0.834961
0.000000 0.586302 0.808594
0.000000 0.586302 0.780273
0.000000 0.586302 0.750000
0.000000 0.586302 0.717773
0.000000 0.586302 0.683594
0.000000 0.586302 0.647461
0.000000 0.586302 0.609375
0.000000 0.586302 0.569336
0.000000 0.586302 0.527344
0.000000 0.586302 0.483398
0.000000 0.586302 0.437500
0.000000 0.586302 0.389648
0.000000 0.586302 0.339844
0.000000 0.586302 0.288086
0.000000 0.586302 0.234375
0.586302 0.178711 0.586302
0.586302 0.121094 0.586302
0.586302 0.061523 0.586302
0.586302 0.000000 0.586302
0.000000 0.612372 1.000000
0.000000 0.612372 0.999023
0.000000 0.612372 0.996094
0.000000 0.612372 0.991211
0.000000 0.612372 0.984375
0.000000 0.612372 0.975586
0.000000 0.612372 0.964844
0.000000 0.612372 0.952148
0.000000 0.612372 0.937500
0.000000 0.612372 0.920898
0.000000 0.612372 0.902344
0.000000 0.612372 0.881836
0.000000 0.612372 0.859375
0.000000 0.612372 0.834961
0.000000 0.612372 0.808594
0.000000 0.612372 0.780273
0.000000 0.612372 0.750000
0.000000 0.612372 0.717773
0.000000 0.612372 0.683594
0.000000 0.612372 0.647461
0.000000 0.612372 0.609375
0.000000 0.612372 0.569336
0.000000 0.612372 0.527344
0.612372 0.483398 0.612372
0.612372 0.437500 0.612372
0.612372 0.389648 0.612372
0.612372 0.339844 0.612372
0.612372 0.288086 0.612372
0.612372 0.234375 0.612372
0.612372 0.178711 0.612372
0.612372 0.121094 0.612372
0.612372 0.061523 0.612372
0.612372 0.000000 0.612372
0.000000 0.637377 1.000000
0.000000 0.637377 0.999023
0.000000 0.637377 0.996094
0.000000 0.637377 0.991211
0.000000 0.637377 0.984375
0.000000 0.637377 0.975586
0.000000 0.637377 0.964844
0.000000 0.637377 0.952148
0.000000 0.637377 0.937500
0.000000 0.637377 0.920898
0.000000 0.637377 0.902344
0.000000 0.637377 0.881836
0.000000 0.637377 0.859375
0.000000 0.637377 0.834961
0.000000 0.637377 0.808594
0.000000 0.637377 0.780273
0.000000 0.637377 0.750000
0.000000 0.637377 0.717773
0.637377 0.683594 0.637377
0.637377 0.647461 0.637377
0.637377 0.609375 0.637377
0.637377 0.569336 0.637377
0.637377 0.527344 0.637377
0.637377 0.483398 0.637377
0.637377 0.437500 0.637377
0.637377 0.389648 0.637377
0.637377 0.339844 0.637377
0.637377 0.288086 0.637377
0.637377 0.234375 0.637377
0.637377 0.178711 0.637377
0.637377 0.121094 0.637377
0.637377 0.061523 0.637377
0.637377 0.000000 0.637377
0.000000 0.661438 1.000000
0.000000 0.661438 0.999023
0.000000 0.661438 0.996094
0.000000 0.661438 0.991211
0.000000 0.661438 0.984375
0.000000 0.661438 0.975586
0.000000 0.661438 0.964844
0.000000 0.661438 0.952148
0.000000 0.661438 0.937500
0.000000 0.661438 0.920898
0.000000 0.661438 0.902344
0.000000 0.661438 0.881836
0.000000 0.661438 0.859375
0.661438 0.834961 0.661438
0.661438 0.808594 0.661438
0.661438 0.780273 0.661438
0.661438 0.750000 0.661438
0.661438 0.717773 0.661438
0.661438 0.683594 0.661438
0.661438 0.647461 0.661438
0.661438 0.609375 0.661438
0.661438 0.569336 0.661438
0.661438 0.527344 0.661438
0.661438 0.483398 0.661438
0.661438 0.437500 0.661438
0.661438 0.389648 0.661438
0.661438 0.339844 0.661438
0.661438 0.288086 0.661438
0.661438 0.234375 0.661438
0.661438 0.178711 0.661438
0.661438 0.121094 0.661438
0.661438 0.061523 0.661438
0.661438 0.000000 0.661438
0.000000 0.684653 1.000000
0.000000 0.684653 0.999023
0.000000 0.684653 0.996094
0.000000 0.684653 0.991211
0.000000 0.684653 0.984375
0.000000 0.684653 0.975586
0.000000 0.684653 0.964844
0.684653 0.952148 0.684653
0.684653 0.937500 0.684653
0.684653 0.920898 0.684653
0.684653 0.902344 0.684653
0.684653 0.881836 0.684653
0.684653 0.859375 0.684653
0.684653 0.834961 0.684653
0.684653 0.808594 0.684653
0.684653 0.780273 0.684653
0.684653 0.750000 0.684653
0.684653 0.717773 0.684653
0.684653 0.683594 0.684653
0.684653 0.647461 0.684653
0.684653 0.609375 0.684653
0.684653 0.569336 0.684653
0.684653 0.527344 0.684653
0.684653 0.483398 0.684653
0.684653 0.437500 0.684653
0.684653 0.389648 0.684653
0.684653 0.339844 0.684653
0.684653 0.288086 0.684653
0.684653 0.234375 0.684653
0.684653 0.178711 0.684653
0.684653 0.121094 0.684653
0.684653 0.061523 0.684653
0.684653 0.000000 0.684653
0.000000 0.707107 1.000000
0.000000 0.707107 0.999023
0.707107 0.996094 0.707107
0.707107 0.991211 0.707107
0.707107 0.984375 0.707107
0.707107 0.975586 0.707107
0.707107 0.964844 0.707107
0.707107 0.952148 0.707107
0.707107 0.937500 0.707107
0.707107 0.920898 0.707107
0.707107 0.902344 0.707107
0.707107 0.881836 0.707107
0.707107 0.859375 0.707107
0.707107 0.834961 0.707107
0.707107 0.808594 0.707107
0.707107 0.780273 0.707107
0.707107 0.750000 0.707107
0.707107 0.717773 0.707107
0.707107 0.683594 0.707107
0.707107 0.647461 0.707107
0.707107 0.609375 0.707107
0.707107 0.569336 0.707107
0.707107 0.527344 0.707107
0.707107 0.483398 0.707107
0.707107 0.437500 0.707107
0.707107 0.389648 0.707107
0.707107 0.339844 0.707107
0.707107 0.288086 0.707107
0.707107 0.234375 0.707107
0.707107 0.178711 0.707107
0.707107 0.121094 0.707107
0.707107 0.061523 0.707107
0.707107 0.000000 0.707107
0.728869 1.000000 0.728869
0.728869 0.999023 0.728869
0.728869 0.996094 0.728869
0.728869 0.991211 0.728869
0.728869 0.984375 0.728869
0.728869 0.975586 0.728869
0.728869 0.964844 0.728869
0.728869 0.952148 0.728869
0.728869 0.937500 0.728869
0.728869 0.920898 0.728869
0.728869 0.902344 0.728869
0.728869 0.881836 0.728869
0.728869 0.859375 0.728869
0.728869 0.834961 0.728869
0.728869 0.808594 0.728869
0.728869 0.780273 0.728869
0.728869 0.750000 0.728869
0.728869 0.717773 0.728869
0.728869 0.683594 0.728869
0.728869 0.647461 0.728869
0.728869 0.609375 0.728869
0.728869 0.569336 0.728869
0.728869 0.527344 0.728869
0.728869 0.483398 0.728869
0.728869 0.437500 0.728869
0.728869 0.389648 0.728869
0.728869 0.339844 0.728869
0.728869 0.288086 0.728869
0.728869 0.234375 0.728869
0.728869 0.178711 0.728869
0.728869 0.121094 0.728869
0.728869 0.061523 0.728869
0.728869 0.000000 0.728869
0.750000 1.000000 0.750000
0.750000 0.999023 0.750000
0.750000 0.996094 0.750000
0.750000 0.991211 0.750000
0.750000 0.984375 0.750000
0.750000 0.975586 0.750000
0.750000 0.964844 0.750000
0.750000 0.952148 0.750000
0.750000 0.937500 0.750000
0.750000 0.920898 0.750000
0.750000 0.902344 0.750000
0.750000 0.881836 0.750000
0.750000 0.859375 0.750000
0.750000 0.834961 0.750000
0.750000 0.808594 0.750000
0.750000 0.780273 0.750000
0.750000 0.750000 0.750000
0.750000 0.717773 0.750000
0.750000 0.683594 0.750000
0.750000 0.647461 0.750000
0.750000 0.609375 0.750000
0.750000 0.569336 0.750000
0.750000 0.527344 0.750000
0.750000 0.483398 0.750000
0.750000 0.437500 0.750000
0.750000 0.389648 0.750000
0.750000 0.339844 0.750000
0.750000 0.288086 0.750000
0.750000 0.234375 0.750000
0.750000 0.178711 0.750000
0.750000 0.121094 0.750000
0.750000 0.061523 0.750000
0.750000 0.000000 0.750000
0.770552 1.000000 0.770552
0.770552 0.999023 0.770552
0.770552 0.996094 0.770552
0.770552 0.991211 0.770552
0.770552 0.984375 0.770552
0.770552 0.975586 0.770552
0.770552 0.964844 0.770552
0.770552 0.952148 0.770552
0.770552 0.937500 0.770552
0.770552 0.920898 0.770552
0.770552 0.902344 0.770552
0.770552 0.881836 0.770552
0.770552 0.859375 0.770552
0.770552 0.834961 0.770552
0.770552 0.808594 0.770552
0.770552 0.780273 0.770552
0.770552 0.750000 0.770552
0.770552 0.717773 0.770552
0.770552 0.683594 0.770552
0.770552 0.647461 0.770552
0.770552 0.609375 0.770552
0.770552 0.569336 0.770552
0.770552 0.527344 0.770552
0.770552 0.483398 0.770552
0.770552 0.437500 0.770552
0.770552 0.389648 0.770552
0.770552 0.339844 0.770552
0.770552 0.288086 0.770552
0.770552 0.234375 0.770552
0.770552 0.178711 0.770552
0.770552 0.121094 0.770552
0.770552 0.061523 0.770552
0.770552 0.000000 0.770552
0.790569 1.000000 0.790569
0.790569 0.999023 0.790569
0.790569 0.996094 0.790569
0.790569 0.991211 0.790569
0.790569 0.984375 0.790569
0.790569 0.975586 0.790569
0.790569 0.964844 0.790569
0.790569 0.952148 0.790569
0.790569 0.937500 0.790569
0.790569 0.920898 0.790569
0.790569 0.902344 0.790569
0.790569 0.881836 0.790569
0.790569 0.859375 0.790569
0.790569 0.834961 0.790569
0.790569 0.808594 0.790569
0.790569 0.780273 0.790569
0.790569 0.750000 0.790569
0.790569 0.717773 0.790569
0.790569 0.683594 0.790569
0.790569 0.647461 0.790569
0.790569 0.609375 0.790569
0.790569 0.569336 0.790569
0.790569 0.527344 0.790569
0.790569 0.483398 0.790569
0.790569 0.437500 0.790569
0.790569 0.389648 0.790569
0.790569 0.339844 0.790569
0.790569 0.288086 0.790569
0.790569 0.234375 0.790569
0.790569 0.178711 0.790569
0.790569 0.121094 0.790569
0.790569 0.061523 0.790569
0.790569 0.000000 0.790569
0.810093 1.000000 0.810093
0.810093 0.999023 0.810093
0.810093 0.996094 0.810093
0.810093 0.991211 0.810093
0.810093 0.984375 0.810093
0.810093 0.975586 0.810093
0.810093 0.964844 0.810093
0.810093 0.952148 0.810093
0.810093 0.937500 0.810093
0.810093 0.920898 0.810093
0.810093 0.902344 0.810093
0.810093 0.881836 0.810093
0.810093 0.859375 0.810093
0.810093 0.834961 0.810093
0.810093 0.808594 0.810093
0.810093 0.780273 0.810093
0.810093 0.750000 0.810093
0.810093 0.717773 0.810093
0.810093 0.683594 0.810093
0.810093 0.647461 0.810093
0.810093 0.609375 0.810093
0.810093 0.569336 0.810093
0.810093 0.527344 0.810093
0.810093 0.483398 0.810093
0.810093 0.437500 0.810093
0.810093 0.389648 0.810093
0.810093 0.339844 0.810093
0.810093 0.288086 0.810093
0.810093 0.234375 0.810093
0.810093 0.178711 0.810093
0.810093 0.121094 0.810093
0.810093 0.061523 0.810093
0.810093 0.000000 0.810093
0.829156 1.000000 0.829156
0.829156 0.999023 0.829156
0.829156 0.996094 0.829156
0.829156 0.991211 0.829156
0.829156 0.984375 0.829156
0.829156 0.975586 0.829156
0.829156 0.964844 0.829156
0.829156 0.952148 0.829156
0.829156 0.937500 0.829156
0.829156 0.920898 0.829156
0.829156 0.902344 0.829156
0.829156 0.881836 0.829156
0.829156 0.859375 0.829156
0.829156 0.834961 0.829156
0.829156 0.808594 0.829156
0.829156 0.780273 0.829156
0.829156 0.750000 0.829156
0.829156 0.717773 0.829156
0.829156 0.683594 0.829156
0.829156 0.647461 0.829156
0.829156 0.609375 0.829156
0.829156 0.569336 0.829156
0.829156 0.527344 0.829156
0.829156 0.483398 0.829156
0.829156 0.437500 0.829156
0.829156 0.389648 0.829156
0.829156 0.339844 0.829156
0.829156 0.288086 0.829156
0.829156 0.234375 0.829156
0.829156 0.178711 0.829156
0.829156 0.121094 0.829156
0.829156 0.061523 0.829156
0.829156 0.000000 0.829156
0.847791 1.000000 0.847791
0.847791 0.999023 0.847791
0.847791 0.996094 0.847791
0.847791 0.991211 0.847791
0.847791 0.984375 0.847791
0.847791 0.975586 0.847791
0.847791 0.964844 0.847791
0.847791 0.952148 0.847791
0.847791 0.937500 0.847791
0.847791 0.920898 0.847791
0.847791 0.902344 0.847791
0.847791 0.881836 0.847791
0.847791 0.859375 0.847791
0.847791 0.834961 0.847791
0.847791 0.808594 0.847791
0.847791 0.780273 0.847791
0.847791 0.750000 0.847791
0.847791 0.717773 0.847791
0.847791 0.683594 0.847791
0.847791 0.647461 0.847791
0.847791 0.609375 0.847791
0.847791 0.569336 0.847791
0.847791 0.527344 0.847791
0.847791 0.483398 0.847791
0.847791 0.437500 0.847791
0.847791 0.389648 0.847791
0.847791 0.339844 0.847791
0.847791 0.288086 0.847791
0.847791 0.234375 0.847791
0.847791 0.178711 0.847791
0.847791 0.121094 0.847791
0.847791 0.061523 0.847791
0.847791 0.000000 0.847791
0.866025 1.000000 0.866025
0.866025 0.999023 0.866025
0.866025 0.996094 0.866025
0.866025 0.991211 0.866025
0.866025 0.984375 0.866025
0.866025 0.975586 0.866025
0.866025 0.964844 0.866025
0.866025 0.952148 0.866025
0.866025 0.937500 0.866025
0.866025 0.920898 0.866025
0.866025 0.902344 0.866025
0.866025 0.881836 0.866025
0.866025 0.859375 0.866025
0.866025 0.834961 0.866025
0.866025 0.808594 0.866025
0.866025 0.780273 0.866025
0.866025 0.750000 0.866025
0.866025 0.717773 0.866025
0.866025 0.683594 0.866025
0.866025 0.647461 0.866025
0.866025 0.609375 0.866025
0.866025 0.569336 0.866025
0.866025 0.527344 0.866025
0.866025 0.483398 0.866025
0.866025 0.437500 0.866025
0.866025 0.389648 0.866025
0.866025 0.339844 0.866025
0.866025 0.288086 0.866025
0.866025 0.234375 0.866025
0.866025 0.178711 0.866025
0.866025 0.121094 0.866025
0.866025 0.061523 0.866025
0.866025 0.000000 0.866025
0.883883 1.000000 0.883883
0.883883 0.999023 0.883883
0.883883 0.996094 0.883883
0.883883 0.991211 0.883883
0.883883 0.984375 0.883883
0.883883 0.975586 0.883883
0.883883 0.964844 0.883883
0.883883 0.952148 0.883883
0.883883 0.937500 0.883883
0.883883 0.920898 0.883883
0.883883 0.902344 0.883883
0.883883 0.881836 0.883883
0.883883 0.859375 0.883883
0.883883 0.834961 0.883883
0.883883 0.808594 0.883883
0.883883 0.780273 0.883883
0.883883 0.750000 0.883883
0.883883 0.717773 0.883883
0.883883 0.683594 0.883883
0.883883 0.647461 0.883883
0.883883 0.609375 0.883883
0.883883 0.569336 0.883883
0.883883 0.527344 0.883883
0.883883 0.483398 0.883883
0.883883 0.437500 0.883883
0.883883 0.389648 0.883883
0.883883 0.339844 0.883883
0.883883 0.288086 0.883883
0.883883 0.234375 0.883883
0.883883 0.178711 0.883883
0.883883 0.121094 0.883883
0.883883 0.061523 0.883883
0.883883 0.000000 0.883883
0.901388 1.000000 0.901388
0.901388 0.999023 0.901388
0.901388 0.996094 0.901388
0.901388 0.991211 0.901388
0.901388 0.984375 0.901388
0.901388 0.975586 0.901388
0.901388 0.964844 0.901388
0.901388 0.952148 0.901388
0.901388 0.937500 0.901388
0.901388 0.920898 0.901388
0.901388 0.902344 0.901388
0.901388 0.881836 0.901388
0.901388 0.859375 0.901388
0.901388 0.834961 0.901388
0.901388 0.808594 0.901388
0.901388 0.780273 0.901388
0.901388 0.750000 0.901388
0.901388 0.717773 0.901388
0.901388 0.683594 0.901388
0.901388 0.647461 0.901388
0.901388 0.609375 0.901388
0.901388 0.569336 0.901388
0.901388 0.527344 0.901388
0.901388 0.483398 0.901388
0.901388 0.437500 0.901388
0.901388 0.389648 0.901388
0.901388 0.339844 0.901388
