assets/luts/cube/Surreal_Experimental.cube
TITLE "Surreal_Experimental_Grade"
LUT_3D_SIZE 5
DOMAIN_MIN 0.0 0.0 0.0
DOMAIN_MAX 1.0 1.0 1.0
0.000000 0.000000 1.000000
0.000000 0.000000 0.937500
0.000000 0.000000 0.750000
0.000000 0.000000 0.437500
0.000000 0.000000 0.000000
0.000000 0.500000 1.000000
0.000000 0.500000 0.937500
0.000000 0.500000 0.750000
0.000000 0.500000 0.437500
0.000000 0.500000 0.000000
0.000000 0.707107 1.000000
0.707107 0.937500 0.707107
0.707107 0.750000 0.707107
0.707107 0.437500 0.707107
0.707107 0.000000 0.707107
0.866025 1.000000 0.866025
0.866025 0.937500 0.866025
0.866025 0.750000 0.866025
0.866025 0.437500 0.866025
0.866025 0.000000 0.866025
1.000000 1.000000 1.000000
1.000000 0.937500 1.000000
1.000000 0.750000 1.000000
1.000000 0.437500 1.000000
0.000000 1.000000 0.000000
0.707107 0.000000 1.000000
0.707107 0.000000 0.937500
0.707107 0.000000 0.750000
0.707107 0.000000 0.437500
0.707107 0.000000 0.000000
0.707107 0.500000 1.000000
0.707107 0.500000 0.937500
0.707107 0.500000 0.750000
0.500000 0.437500 0.500000
0.500000 0.000000 0.500000
0.707107 1.000000 0.707107
0.707107 0.937500 0.707107
0.707107 0.750000 0.707107
0.707107 0.437500 0.707107
0.707107 0.000000 0.707107
0.866025 1.000000 0.866025
0.866025 0.937500 0.866025
0.866025 0.750000 0.866025
0.866025 0.437500 0.866025
0.866025 0.000000 0.866025
1.000000 1.000000 1.000000
1.000000 0.937500 1.000000
0.707107 1.000000 0.750000
0.707107 1.000000 0.437500
0.707107 1.000000 0.000000
1.000000 0.000000 1.000000
1.000000 0.000000 0.937500
1.000000 0.000000 0.750000
1.000000 0.000000 0.437500
1.000000 0.000000 0.000000
1.000000 0.500000 1.000000
0.500000 0.937500 0.500000
0.500000 0.750000 0.500000
0.500000 0.437500 0.500000
0.500000 0.000000 0.500000
0.707107 1.000000 0.707107
0.707107 0.937500 0.707107
0.707107 0.750000 0.707107
0.707107 0.437500 0.707107
0.707107 0.000000 0.707107
0.866025 1.000000 0.866025
0.866025 0.937500 0.866025
0.866025 0.750000 0.866025
0.866025 0.437500 0.866025
1.000000 0.866025 0.000000
1.000000 1.000000 1.000000
1.000000 1.000000 0.937500
1.000000 1.000000 0.750000
1.000000 1.000000 0.437500
1.000000 1.000000 0.000000
0.707107 0.000000 1.000000
0.707107 0.000000 0.937500
0.707107 0.000000 0.750000
0.000000 0.437500 0.000000
0.000000 0.000000 0.000000
0.500000 1.000000 0.500000
0.500000 0.937500 0.500000
0.500000 0.750000 0.500000
0.500000 0.437500 0.500000
0.500000 0.000000 0.500000
0.707107 1.000000 0.707107
0.707107 0.937500 0.707107
0.707107 0.750000 0.707107
0.707107 0.437500 0.707107
0.707107 0.000000 0.707107
0.866025 1.000000 0.866025
0.866025 0.937500 0.866025
0.707107 0.866025 0.750000
0.707107 0.866025 0.437500
0.707107 0.866025 0.000000
0.707107 1.000000 1.000000
0.707107 1.000000 0.937500
0.707107 1.000000 0.750000
0.707107 1.000000 0.437500
0.707107 1.000000 0.000000
0.000000 0.000000 1.000000
0.000000 0.937500 0.000000
0.000000 0.750000 0.000000
0.000000 0.437500 0.000000
0.000000 0.000000 0.000000
0.500000 1.000000 0.500000
0.500000 0.937500 0.500000
0.500000 0.750000 0.500000
0.500000 0.437500 0.500000
0.500000 0.000000 0.500000
0.707107 1.000000 0.707107
0.707107 0.937500 0.707107
0.707107 0.750000 0.707107
0.707107 0.437500 0.707107
0.000000 0.707107 0.000000
0.000000 0.866025 1.000000
0.000000 0.866025 0.937500
0.000000 0.866025 0.750000
0.000000 0.866025 0.437500
0.000000 0.866025 0.000000
0.000000 1.000000 1.000000
0.000000 1.000000 0.937500
0.000000 1.000000 0.750000
0.000000 1.000000 0.437500
0.000000 1.000000 0.000000
