assets/luts/cube/Surreal_Experimental.cube
TITLE "Surreal_Experimental_Grade"
LUT_3D_SIZE 9
DOMAIN_MIN 0.0 0.0 0.0
DOMAIN_MAX 1.0 1.0 1.0
0.000000 0.000000 1.000000
0.000000 0.000000 0.984375
0.000000 0.000000 0.937500
0.000000 0.000000 0.859375
0.000000 0.000000 0.750000
0.000000 0.000000 0.609375
0.000000 0.000000 0.437500
0.000000 0.000000 0.234375
0.000000 0.000000 0.000000
0.000000 0.353553 1.000000
0.000000 0.353553 0.984375
0.000000 0.353553 0.937500
0.000000 0.353553 0.859375
0.000000 0.353553 0.750000
0.000000 0.353553 0.609375
0.000000 0.353553 0.437500
0.000000 0.353553 0.234375
0.000000 0.353553 0.000000
0.000000 0.500000 1.000000
0.000000 0.500000 0.984375
0.000000 0.500000 0.937500
0.000000 0.500000 0.859375
0.000000 0.500000 0.750000
0.000000 0.500000 0.609375
0.000000 0.500000 0.437500
0.000000 0.500000 0.234375
0.000000 0.500000 0.000000
0.000000 0.612372 1.000000
0.000000 0.612372 0.984375
0.000000 0.612372 0.937500
0.000000 0.612372 0.859375
0.000000 0.612372 0.750000
0.000000 0.612372 0.609375
0.612372 0.437500 0.612372
0.612372 0.234375 0.612372
0.612372 0.000000 0.612372
0.000000 0.707107 1.000000
0.707107 0.984375 0.707107
0.707107 0.937500 0.707107
0.707107 0.859375 0.707107
0.707107 0.750000 0.707107
0.707107 0.609375 0.707107
0.707107 0.437500 0.707107
0.707107 0.234375 0.707107
0.707107 0.000000 0.707107
0.790569 1.000000 0.790569
0.790569 0.984375 0.790569
0.790569 0.937500 0.790569
0.790569 0.859375 0.790569
0.790569 0.750000 0.790569
0.790569 0.609375 0.790569
0.790569 0.437500 0.790569
0.790569 0.234375 0.790569
0.790569 0.000000 0.790569
0.866025 1.000000 0.866025
0.866025 0.984375 0.866025
0.866025 0.937500 0.866025
0.866025 0.859375 0.866025
0.866025 0.750000 0.866025
0.866025 0.609375 0.866025
0.866025 0.437500 0.866025
0.866025 0.234375 0.866025
0.866025 0.000000 0.866025
0.935414 1.000000 0.935414
0.935414 0.984375 0.935414
0.935414 0.937500 0.935414
0.935414 0.859375 0.935414
0.935414 0.750000 0.935414
0.935414 0.609375 0.935414
0.935414 0.437500 0.935414
0.935414 0.234375 0.935414
0.935414 0.000000 0.935414
1.000000 1.000000 1.000000
1.000000 0.984375 1.000000
1.000000 0.937500 1.000000
1.000000 0.859375 1.000000
1.000000 0.750000 1.000000
1.000000 0.609375 1.000000
1.000000 0.437500 1.000000
1.000000 0.234375 1.000000
0.000000 1.000000 0.000000
0.382683 0.000000 1.000000
0.382683 0.000000 0.984375
0.382683 0.000000 0.937500
0.382683 0.000000 0.859375
0.382683 0.000000 0.750000
0.382683 0.000000 0.609375
0.382683 0.000000 0.437500
0.382683 0.000000 0.234375
0.382683 0.000000 0.000000
0.382683 0.353553 1.000000
0.382683 0.353553 0.984375
0.382683 0.353553 0.937500
0.382683 0.353553 0.859375
0.382683 0.353553 0.750000
0.382683 0.353553 0.609375
0.382683 0.353553 0.437500
0.382683 0.353553 0.234375
0.382683 0.353553 0.000000
0.382683 0.500000 1.000000
0.382683 0.500000 0.984375
0.382683 0.500000 0.937500
0.382683 0.500000 0.859375
0.382683 0.500000 0.750000
0.382683 0.500000 0.609375
0.382683 0.500000 0.437500
0.382683 0.500000 0.234375
0.382683 0.500000 0.000000
0.382683 0.612372 1.000000
0.382683 0.612372 0.984375
0.382683 0.612372 0.937500
0.382683 0.612372 0.859375
0.612372 0.750000 0.612372
0.612372 0.609375 0.612372
0.612372 0.437500 0.612372
0.612372 0.234375 0.612372
0.612372 0.000000 0.612372
0.707107 1.000000 0.707107
0.707107 0.984375 0.707107
0.707107 0.937500 0.707107
0.707107 0.859375 0.707107
0.707107 0.750000 0.707107
0.707107 0.609375 0.707107
0.707107 0.437500 0.707107
0.707107 0.234375 0.707107
0.707107 0.000000 0.707107
0.790569 1.000000 0.790569
0.790569 0.984375 0.790569
0.790569 0.937500 0.790569
0.790569 0.859375 0.790569
0.790569 0.750000 0.790569
0.790569 0.609375 0.790569
0.790569 0.437500 0.790569
0.790569 0.234375 0.790569
0.790569 0.000000 0.790569
0.866025 1.000000 0.866025
0.866025 0.984375 0.866025
0.866025 0.937500 0.866025
0.866025 0.859375 0.866025
0.866025 0.750000 0.866025
0.866025 0.609375 0.866025
0.866025 0.437500 0.866025
0.866025 0.234375 0.866025
0.866025 0.000000 0.866025
0.935414 1.000000 0.935414
0.935414 0.984375 0.935414
0.935414 0.937500 0.935414
0.935414 0.859375 0.935414
0.935414 0.750000 0.935414
0.935414 0.609375 0.935414
0.935414 0.437500 0.935414
0.935414 0.234375 0.935414
0.935414 0.000000 0.935414
1.000000 1.000000 1.000000
1.000000 0.984375 1.000000
1.000000 0.937500 1.000000
1.000000 0.859375 1.000000
1.000000 0.750000 1.000000
1.000000 0.609375 1.000000
0.382683 1.000000 0.437500
0.382683 1.000000 0.234375
0.382683 1.000000 0.000000
0.707107 0.000000 1.000000
0.707107 0.000000 0.984375
0.707107 0.000000 0.937500
0.707107 0.000000 0.859375
0.707107 0.000000 0.750000
0.707107 0.000000 0.609375
0.707107 0.000000 0.437500
0.707107 0.000000 0.234375
0.707107 0.000000 0.000000
0.707107 0.353553 1.000000
0.707107 0.353553 0.984375
0.707107 0.353553 0.937500
0.707107 0.353553 0.859375
0.707107 0.353553 0.750000
0.707107 0.353553 0.609375
0.707107 0.353553 0.437500
0.707107 0.353553 0.234375
0.707107 0.353553 0.000000
0.707107 0.500000 1.000000
0.707107 0.500000 0.984375
0.707107 0.500000 0.937500
0.707107 0.500000 0.859375
0.707107 0.500000 0.750000
0.707107 0.500000 0.609375
0.500000 0.437500 0.500000
0.500000 0.234375 0.500000
0.500000 0.000000 0.500000
0.707107 0.612372 1.000000
0.612372 0.984375 0.612372
0.612372 0.937500 0.612372
0.612372 0.859375 0.612372
0.612372 0.750000 0.612372
0.612372 0.609375 0.612372
0.612372 0.437500 0.612372
0.612372 0.234375 0.612372
0.612372 0.000000 0.612372
0.707107 1.000000 0.707107
0.707107 0.984375 0.707107
0.707107 0.937500 0.707107
0.707107 0.859375 0.707107
0.707107 0.750000 0.707107
0.707107 0.609375 0.707107
0.707107 0.437500 0.707107
0.707107 0.234375 0.707107
0.707107 0.000000 0.707107
0.790569 1.000000 0.790569
0.790569 0.984375 0.790569
0.790569 0.937500 0.790569
0.790569 0.859375 0.790569
0.790569 0.750000 0.790569
0.790569 0.609375 0.790569
0.790569 0.437500 0.790569
0.790569 0.234375 0.790569
0.790569 0.000000 0.790569
0.866025 1.000000 0.866025
0.866025 0.984375 0.866025
0.866025 0.937500 0.866025
0.866025 0.859375 0.866025
0.866025 0.750000 0.866025
0.866025 0.609375 0.866025
0.866025 0.437500 0.866025
0.866025 0.234375 0.866025
0.866025 0.000000 0.866025
0.935414 1.000000 0.935414
0.935414 0.984375 0.935414
0.935414 0.937500 0.935414
0.935414 0.859375 0.935414
0.935414 0.750000 0.935414
0.935414 0.609375 0.935414
0.935414 0.437500 0.935414
0.935414 0.234375 0.935414
0.707107 0.935414 0.000000
1.000000 1.000000 1.000000
1.000000 0.984375 1.000000
1.000000 0.937500 1.000000
0.707107 1.000000 0.859375
0.707107 1.000000 0.750000
0.707107 1.000000 0.609375
0.707107 1.000000 0.437500
0.707107 1.000000 0.234375
0.707107 1.000000 0.000000
0.923880 0.000000 1.000000
0.923880 0.000000 0.984375
0.923880 0.000000 0.937500
0.923880 0.000000 0.859375
0.923880 0.000000 0.750000
0.923880 0.000000 0.609375
0.923880 0.000000 0.437500
0.923880 0.000000 0.234375
0.923880 0.000000 0.000000
0.923880 0.353553 1.000000
0.923880 0.353553 0.984375
0.923880 0.353553 0.937500
0.923880 0.353553 0.859375
0.923880 0.353553 0.750000
0.923880 0.353553 0.609375
0.923880 0.353553 0.437500
0.923880 0.353553 0.234375
0.923880 0.353553 0.000000
0.923880 0.500000 1.000000
0.923880 0.500000 0.984375
0.923880 0.500000 0.937500
0.500000 0.859375 0.500000
0.500000 0.750000 0.500000
0.500000 0.609375 0.500000
0.500000 0.437500 0.500000
0.500000 0.234375 0.500000
0.500000 0.000000 0.500000
0.612372 1.000000 0.612372
0.612372 0.984375 0.612372
0.612372 0.937500 0.612372
0.612372 0.859375 0.612372
0.612372 0.750000 0.612372
0.612372 0.609375 0.612372
0.612372 0.437500 0.612372
0.612372 0.234375 0.612372
0.612372 0.000000 0.612372
0.707107 1.000000 0.707107
0.707107 0.984375 0.707107
0.707107 0.937500 0.707107
0.707107 0.859375 0.707107
0.707107 0.750000 0.707107
0.707107 0.609375 0.707107
0.707107 0.437500 0.707107
0.707107 0.234375 0.707107
0.707107 0.000000 0.707107
0.790569 1.000000 0.790569
0.790569 0.984375 0.790569
0.790569 0.937500 0.790569
0.790569 0.859375 0.790569
0.790569 0.750000 0.790569
0.790569 0.609375 0.790569
0.790569 0.437500 0.790569
0.790569 0.234375 0.790569
0.790569 0.000000 0.790569
0.866025 1.000000 0.866025
0.866025 0.984375 0.866025
0.866025 0.937500 0.866025
0.866025 0.859375 0.866025
0.866025 0.750000 0.866025
0.866025 0.609375 0.866025
0.866025 0.437500 0.866025
0.866025 0.234375 0.866025
0.866025 0.000000 0.866025
0.935414 1.000000 0.935414
0.935414 0.984375 0.935414
0.935414 0.937500 0.935414
0.935414 0.859375 0.935414
0.935414 0.750000 0.935414
0.935414 0.609375 0.935414
0.923880 0.935414 0.437500
0.923880 0.935414 0.234375
0.923880 0.935414 0.000000
0.923880 1.000000 1.000000
0.923880 1.000000 0.984375
0.923880 1.000000 0.937500
0.923880 1.000000 0.859375
0.923880 1.000000 0.750000
0.923880 1.000000 0.609375
0.923880 1.000000 0.437500
0.923880 1.000000 0.234375
0.923880 1.000000 0.000000
1.000000 0.000000 1.000000
1.000000 0.000000 0.984375
1.000000 0.000000 0.937500
1.000000 0.000000 0.859375
1.000000 0.000000 0.750000
1.000000 0.000000 0.609375
1.000000 0.000000 0.437500
1.000000 0.000000 0.234375
1.000000 0.000000 0.000000
1.000000 0.353553 1.000000
1.000000 0.353553 0.984375
1.000000 0.353553 0.937500
1.000000 0.353553 0.859375
1.000000 0.353553 0.750000
1.000000 0.353553 0.609375
0.353553 0.437500 0.353553
0.353553 0.234375 0.353553
0.353553 0.000000 0.353553
1.000000 0.500000 1.000000
0.500000 0.984375 0.500000
0.500000 0.937500 0.500000
0.500000 0.859375 0.500000
0.500000 0.750000 0.500000
0.500000 0.609375 0.500000
0.500000 0.437500 0.500000
0.500000 0.234375 0.500000
0.500000 0.000000 0.500000
0.612372 1.000000 0.612372
0.612372 0.984375 0.612372
0.612372 0.937500 0.612372
0.612372 0.859375 0.612372
0.612372 0.750000 0.612372
0.612372 0.609375 0.612372
0.612372 0.437500 0.612372
0.612372 0.234375 0.612372
0.612372 0.000000 0.612372
0.707107 1.000000 0.707107
0.707107 0.984375 0.707107
0.707107 0.937500 0.707107
0.707107 0.859375 0.707107
0.707107 0.750000 0.707107
0.707107 0.609375 0.707107
0.707107 0.437500 0.707107
0.707107 0.234375 0.707107
0.707107 0.000000 0.707107
0.790569 1.000000 0.790569
0.790569 0.984375 0.790569
0.790569 0.937500 0.790569
0.790569 0.859375 0.790569
0.790569 0.750000 0.790569
0.790569 0.609375 0.790569
0.790569 0.437500 0.790569
0.790569 0.234375 0.790569
0.790569 0.000000 0.790569
0.866025 1.000000 0.866025
0.866025 0.984375 0.866025
0.866025 0.937500 0.866025
0.866025 0.859375 0.866025
0.866025 0.750000 0.866025
0.866025 0.609375 0.866025
0.866025 0.437500 0.866025
0.866025 0.234375 0.866025
1.000000 0.866025 0.000000
0.935414 1.000000 0.935414
0.935414 0.984375 0.935414
0.935414 0.937500 0.935414
1.000000 0.935414 0.859375
1.000000 0.935414 0.750000
1.000000 0.935414 0.609375
1.000000 0.935414 0.437500
1.000000 0.935414 0.234375
1.000000 0.935414 0.000000
1.000000 1.000000 1.000000
1.000000 1.000000 0.984375
1.000000 1.000000 0.937500
1.000000 1.000000 0.859375
1.000000 1.000000 0.750000
1.000000 1.000000 0.609375
1.000000 1.000000 0.437500
1.000000 1.000000 0.234375
1.000000 1.000000 0.000000
0.923880 0.000000 1.000000
0.923880 0.000000 0.984375
0.923880 0.000000 0.937500
0.923880 0.000000 0.859375
0.923880 0.000000 0.750000
0.923880 0.000000 0.609375
0.923880 0.000000 0.437500
0.923880 0.000000 0.234375
0.923880 0.000000 0.000000
0.923880 0.353553 1.000000
0.923880 0.353553 0.984375
0.923880 0.353553 0.937500
0.353553 0.859375 0.353553
0.353553 0.750000 0.353553
0.353553 0.609375 0.353553
0.353553 0.437500 0.353553
0.353553 0.234375 0.353553
0.353553 0.000000 0.353553
0.500000 1.000000 0.500000
0.500000 0.984375 0.500000
0.500000 0.937500 0.500000
0.500000 0.859375 0.500000
0.500000 0.750000 0.500000
0.500000 0.609375 0.500000
0.500000 0.437500 0.500000
0.500000 0.234375 0.500000
0.500000 0.000000 0.500000
0.612372 1.000000 0.612372
0.612372 0.984375 0.612372
0.612372 0.937500 0.612372
0.612372 0.859375 0.612372
0.612372 0.750000 0.612372
0.612372 0.609375 0.612372
0.612372 0.437500 0.612372
0.612372 0.234375 0.612372
0.612372 0.000000 0.612372
0.707107 1.000000 0.707107
0.707107 0.984375 0.707107
0.707107 0.937500 0.707107
0.707107 0.859375 0.707107
0.707107 0.750000 0.707107
0.707107 0.609375 0.707107
0.707107 0.437500 0.707107
0.707107 0.234375 0.707107
0.707107 0.000000 0.707107
0.790569 1.000000 0.790569
0.790569 0.984375 0.790569
0.790569 0.937500 0.790569
0.790569 0.859375 0.790569
0.790569 0.750000 0.790569
0.790569 0.609375 0.790569
0.790569 0.437500 0.790569
0.790569 0.234375 0.790569
0.790569 0.000000 0.790569
0.866025 1.000000 0.866025
0.866025 0.984375 0.866025
0.866025 0.937500 0.866025
0.866025 0.859375 0.866025
0.866025 0.750000 0.866025
0.866025 0.609375 0.866025
0.923880 0.866025 0.437500
0.923880 0.866025 0.234375
0.923880 0.866025 0.000000
0.923880 0.935414 1.000000
0.923880 0.935414 0.984375
0.923880 0.935414 0.937500
0.923880 0.935414 0.859375
0.923880 0.935414 0.750000
0.923880 0.935414 0.609375
0.923880 0.935414 0.437500
0.923880 0.935414 0.234375
0.923880 0.935414 0.000000
0.923880 1.000000 1.000000
0.923880 1.000000 0.984375
0.923880 1.000000 0.937500
0.923880 1.000000 0.859375
0.923880 1.000000 0.750000
0.923880 1.000000 0.609375
0.923880 1.000000 0.437500
0.923880 1.000000 0.234375
0.923880 1.000000 0.000000
0.707107 0.000000 1.000000
0.707107 0.000000 0.984375
0.707107 0.000000 0.937500
0.707107 0.000000 0.859375
0.707107 0.000000 0.750000
0.707107 0.000000 0.609375
0.000000 0.437500 0.000000
0.000000 0.234375 0.000000
0.000000 0.000000 0.000000
0.707107 0.353553 1.000000
0.353553 0.984375 0.353553
0.353553 0.937500 0.353553
0.353553 0.859375 0.353553
0.353553 0.750000 0.353553
0.353553 0.609375 0.353553
0.353553 0.437500 0.353553
0.353553 0.234375 0.353553
0.353553 0.000000 0.353553
0.500000 1.000000 0.500000
0.500000 0.984375 0.500000
0.500000 0.937500 0.500000
0.500000 0.859375 0.500000
0.500000 0.750000 0.500000
0.500000 0.609375 0.500000
0.500000 0.437500 0.500000
0.500000 0.234375 0.500000
0.500000 0.000000 0.500000
0.612372 1.000000 0.612372
0.612372 0.984375 0.612372
0.612372 0.937500 0.612372
0.612372 0.859375 0.612372
0.612372 0.750000 0.612372
0.612372 0.609375 0.612372
0.612372 0.437500 0.612372
0.612372 0.234375 0.612372
0.612372 0.000000 0.612372
0.707107 1.000000 0.707107
0.707107 0.984375 0.707107
0.707107 0.937500 0.707107
0.707107 0.859375 0.707107
0.707107 0.750000 0.707107
0.707107 0.609375 0.707107
0.707107 0.437500 0.707107
0.707107 0.234375 0.707107
0.707107 0.000000 0.707107
0.790569 1.000000 0.790569
0.790569 0.984375 0.790569
0.790569 0.937500 0.790569
0.790569 0.859375 0.790569
0.790569 0.750000 0.790569
0.790569 0.609375 0.790569
0.790569 0.437500 0.790569
0.790569 0.234375 0.790569
0.707107 0.790569 0.000000
0.866025 1.000000 0.866025
0.866025 0.984375 0.866025
0.866025 0.937500 0.866025
0.707107 0.866025 0.859375
0.707107 0.866025 0.750000
0.707107 0.866025 0.609375
0.707107 0.866025 0.437500
0.707107 0.866025 0.234375
0.707107 0.866025 0.000000
0.707107 0.935414 1.000000
0.707107 0.935414 0.984375
0.707107 0.935414 0.937500
0.707107 0.935414 0.859375
0.707107 0.935414 0.750000
0.707107 0.935414 0.609375
0.707107 0.935414 0.437500
0.707107 0.935414 0.234375
0.707107 0.935414 0.000000
0.707107 1.000000 1.000000
0.707107 1.000000 0.984375
0.707107 1.000000 0.937500
0.707107 1.000000 0.859375
0.707107 1.000000 0.750000
0.707107 1.000000 0.609375
0.707107 1.000000 0.437500
0.707107 1.000000 0.234375
0.707107 1.000000 0.000000
0.382683 0.000000 1.000000
0.382683 0.000000 0.984375
0.382683 0.000000 0.937500
0.000000 0.859375 0.000000
0.000000 0.750000 0.000000
0.000000 0.609375 0.000000
0.000000 0.437500 0.000000
0.000000 0.234375 0.000000
0.000000 0.000000 0.000000
0.353553 1.000000 0.353553
0.353553 0.984375 0.353553
0.353553 0.937500 0.353553
0.353553 0.859375 0.353553
0.353553 0.750000 0.353553
0.353553 0.609375 0.353553
0.353553 0.437500 0.353553
0.353553 0.234375 0.353553
0.353553 0.000000 0.353553
0.500000 1.000000 0.500000
0.500000 0.984375 0.500000
0.500000 0.937500 0.500000
0.500000 0.859375 0.500000
0.500000 0.750000 0.500000
0.500000 0.609375 0.500000
0.500000 0.437500 0.500000
0.500000 0.234375 0.500000
0.500000 0.000000 0.500000
0.612372 1.000000 0.612372
0.612372 0.984375 0.612372
0.612372 0.937500 0.612372
0.612372 0.859375 0.612372
0.612372 0.750000 0.612372
0.612372 0.609375 0.612372
0.612372 0.437500 0.612372
0.612372 0.234375 0.612372
0.612372 0.000000 0.612372
0.707107 1.000000 0.707107
0.707107 0.984375 0.707107
0.707107 0.937500 0.707107
0.707107 0.859375 0.707107
0.707107 0.750000 0.707107
0.707107 0.609375 0.707107
0.707107 0.437500 0.707107
0.707107 0.234375 0.707107
0.707107 0.000000 0.707107
0.790569 1.000000 0.790569
0.790569 0.984375 0.790569
0.790569 0.937500 0.790569
0.790569 0.859375 0.790569
0.790569 0.750000 0.790569
0.382683 0.790569 0.609375
0.382683 0.790569 0.437500
0.382683 0.790569 0.234375
0.382683 0.790569 0.000000
0.382683 0.866025 1.000000
0.382683 0.866025 0.984375
0.382683 0.866025 0.937500
0.382683 0.866025 0.859375
0.382683 0.866025 0.750000
0.382683 0.866025 0.609375
0.382683 0.866025 0.437500
0.382683 0.866025 0.234375
0.382683 0.866025 0.000000
0.382683 0.935414 1.000000
0.382683 0.935414 0.984375
0.382683 0.935414 0.937500
0.382683 0.935414 0.859375
0.382683 0.935414 0.750000
0.382683 0.935414 0.609375
0.382683 0.935414 0.437500
0.382683 0.935414 0.234375
0.382683 0.935414 0.000000
0.382683 1.000000 1.000000
0.382683 1.000000 0.984375
0.382683 1.000000 0.937500
0.382683 1.000000 0.859375
0.382683 1.000000 0.750000
0.382683 1.000000 0.609375
0.382683 1.000000 0.437500
0.382683 1.000000 0.234375
0.382683 1.000000 0.000000
0.000000 0.000000 1.000000
0.000000 0.984375 0.000000
0.000000 0.937500 0.000000
0.000000 0.859375 0.000000
0.000000 0.750000 0.000000
0.000000 0.609375 0.000000
0.000000 0.437500 0.000000
0.000000 0.234375 0.000000
0.000000 0.000000 0.000000
0.353553 1.000000 0.353553
0.353553 0.984375 0.353553
0.353553 0.937500 0.353553
0.353553 0.859375 0.353553
0.353553 0.750000 0.353553
0.353553 0.609375 0.353553
0.353553 0.437500 0.353553
0.353553 0.234375 0.353553
0.353553 0.000000 0.353553
0.500000 1.000000 0.500000
0.500000 0.984375 0.500000
0.500000 0.937500 0.500000
0.500000 0.859375 0.500000
0.500000 0.750000 0.500000
0.500000 0.609375 0.500000
0.500000 0.437500 0.500000
0.500000 0.234375 0.500000
0.500000 0.000000 0.500000
0.612372 1.000000 0.612372
0.612372 0.984375 0.612372
0.612372 0.937500 0.612372
0.612372 0.859375 0.612372
0.612372 0.750000 0.612372
0.612372 0.609375 0.612372
0.612372 0.437500 0.612372
0.612372 0.234375 0.612372
0.612372 0.000000 0.612372
0.707107 1.000000 0.707107
0.707107 0.984375 0.707107
0.707107 0.937500 0.707107
0.707107 0.859375 0.707107
0.707107 0.750000 0.707107
0.707107 0.609375 0.707107
0.707107 0.437500 0.707107
0.707107 0.234375 0.707107
0.000000 0.707107 0.000000
0.790569 1.000000 0.790569
0.790569 0.984375 0.790569
0.790569 0.937500 0.790569
0.000000 0.790569 0.859375
0.000000 0.790569 0.750000
0.000000 0.790569 0.609375
0.000000 0.790569 0.437500
0.000000 0.790569 0.234375
0.000000 0.790569 0.000000
0.000000 0.866025 1.000000
0.000000 0.866025 0.984375
0.000000 0.866025 0.937500
0.000000 0.866025 0.859375
0.000000 0.866025 0.750000
0.000000 0.866025 0.609375
0.000000 0.866025 0.437500
0.000000 0.866025 0.234375
0.000000 0.866025 0.000000
0.000000 0.935414 1.000000
0.000000 0.935414 0.984375
0.000000 0.935414 0.937500
0.000000 0.935414 0.859375
0.000000 0.935414 0.750000
0.000000 0.935414 0.609375
0.000000 0.935414 0.437500
0.000000 0.935414 0.234375
0.000000 0.935414 0.000000
0.000000 1.000000 1.000000
0.000000 1.000000 0.984375
0.000000 1.000000 0.937500
0.000000 1.000000 0.859375
0.000000 1.000000 0.750000
0.000000 1.000000 0.609375
0.000000 1.000000 0.437500
0.000000 1.000000 0.234375
0.000000 1.000000 0.000000
