assets/luts/cube/Teal_Orange.cube
TITLE "Teal_Orange_Grade"
LUT_3D_SIZE 5
DOMAIN_MIN 0.0 0.0 0.0
DOMAIN_MAX 1.0 1.0 1.0
0.000000 0.000000 0.000000
0.000000 0.000000 0.270000
0.000000 0.000000 0.600000
0.000000 0.000000 0.930000
0.000000 0.000000 1.000000
0.000000 0.225000 0.000000
0.000000 0.225000 0.270000
0.000000 0.225000 0.600000
0.000000 0.225000 0.930000
0.000000 0.225000 1.000000
0.000000 0.500000 0.000000
0.000000 0.500000 0.270000
0.000000 0.500000 0.600000
0.000000 0.500000 0.930000
0.000000 0.500000 0.900000
0.000000 0.775000 0.000000
0.000000 0.775000 0.270000
0.000000 0.775000 0.600000
0.000000 0.775000 0.697500
0.000000 0.775000 0.900000
0.000000 1.000000 0.000000
0.000000 1.000000 0.270000
0.000000 1.000000 0.450000
0.000000 1.000000 0.697500
0.000000 1.000000 0.900000
0.180000 0.000000 0.000000
0.180000 0.000000 0.270000
0.180000 0.000000 0.600000
0.180000 0.000000 0.930000
0.180000 0.000000 1.000000
0.180000 0.225000 0.000000
0.180000 0.225000 0.270000
0.180000 0.225000 0.600000
0.180000 0.225000 0.930000
0.247500 0.225000 0.900000
0.180000 0.500000 0.000000
0.180000 0.500000 0.270000
0.180000 0.500000 0.600000
0.247500 0.500000 0.697500
0.247500 0.500000 0.900000
0.180000 0.775000 0.000000
0.180000 0.775000 0.270000
0.247500 0.775000 0.450000
0.247500 0.775000 0.697500
0.247500 0.775000 0.900000
0.180000 1.000000 0.000000
0.247500 1.000000 0.202500
0.247500 1.000000 0.450000
0.247500 1.000000 0.697500
0.247500 1.000000 0.900000
0.400000 0.000000 0.000000
0.400000 0.000000 0.270000
0.400000 0.000000 0.600000
0.400000 0.000000 0.930000
0.550000 0.000000 0.900000
0.400000 0.225000 0.000000
0.400000 0.225000 0.270000
0.400000 0.225000 0.600000
0.550000 0.225000 0.697500
0.550000 0.225000 0.900000
0.400000 0.500000 0.000000
0.400000 0.500000 0.270000
0.550000 0.500000 0.450000
0.550000 0.500000 0.697500
0.550000 0.500000 0.900000
0.400000 0.775000 0.000000
0.550000 0.775000 0.202500
0.550000 0.775000 0.450000
0.550000 0.775000 0.697500
0.550000 0.775000 0.900000
0.550000 1.000000 0.000000
0.550000 1.000000 0.202500
0.550000 1.000000 0.450000
0.550000 1.000000 0.697500
0.550000 1.000000 0.900000
0.620000 0.000000 0.000000
0.620000 0.000000 0.270000
0.620000 0.000000 0.600000
0.852500 0.000000 0.697500
0.852500 0.000000 0.900000
0.620000 0.225000 0.000000
0.620000 0.225000 0.270000
0.852500 0.225000 0.450000
0.852500 0.225000 0.697500
0.852500 0.225000 0.900000
0.620000 0.500000 0.000000
0.852500 0.500000 0.202500
0.852500 0.500000 0.450000
0.852500 0.500000 0.697500
0.852500 0.500000 0.900000
0.852500 0.775000 0.000000
0.852500 0.775000 0.202500
0.852500 0.775000 0.450000
0.852500 0.775000 0.697500
0.852500 0.775000 0.900000
0.852500 1.000000 0.000000
0.852500 1.000000 0.202500
0.852500 1.000000 0.450000
0.852500 1.000000 0.697500
0.852500 1.000000 0.900000
0.800000 0.000000 0.000000
0.800000 0.000000 0.270000
1.000000 0.000000 0.450000
1.000000 0.000000 0.697500
1.000000 0.000000 0.900000
0.800000 0.225000 0.000000
1.000000 0.225000 0.202500
1.000000 0.225000 0.450000
1.000000 0.225000 0.697500
1.000000 0.225000 0.900000
1.000000 0.500000 0.000000
1.000000 0.500000 0.202500
1.000000 0.500000 0.450000
1.000000 0.500000 0.697500
1.000000 0.500000 0.900000
1.000000 0.775000 0.000000
1.000000 0.775000 0.202500
1.000000 0.775000 0.450000
1.000000 0.775000 0.697500
1.000000 0.775000 0.900000
1.000000 1.000000 0.000000
1.000000 1.000000 0.202500
1.000000 1.000000 0.450000
1.000000 1.000000 0.697500
1.000000 1.000000 0.900000
