assets/luts/cube/Teal_Orange.cube
TITLE "Teal_Orange_Grade"
LUT_3D_SIZE 9
DOMAIN_MIN 0.0 0.0 0.0
DOMAIN_MAX 1.0 1.0 1.0
0.000000 0.000000 0.000000
0.000000 0.000000 0.105000
0.000000 0.000000 0.270000
0.000000 0.000000 0.435000
0.000000 0.000000 0.600000
0.000000 0.000000 0.765000
0.000000 0.000000 0.930000
0.000000 0.000000 1.000000
0.000000 0.000000 1.000000
0.000000 0.087500 0.000000
0.000000 0.087500 0.105000
0.000000 0.087500 0.270000
0.000000 0.087500 0.435000
0.000000 0.087500 0.600000
0.000000 0.087500 0.765000
0.000000 0.087500 0.930000
0.000000 0.087500 1.000000
0.000000 0.087500 1.000000
0.000000 0.225000 0.000000
0.000000 0.225000 0.105000
0.000000 0.225000 0.270000
0.000000 0.225000 0.435000
0.000000 0.225000 0.600000
0.000000 0.225000 0.765000
0.000000 0.225000 0.930000
0.000000 0.225000 1.000000
0.000000 0.225000 1.000000
0.000000 0.362500 0.000000
0.000000 0.362500 0.105000
0.000000 0.362500 0.270000
0.000000 0.362500 0.435000
0.000000 0.362500 0.600000
0.000000 0.362500 0.765000
0.000000 0.362500 0.930000
0.000000 0.362500 1.000000
0.000000 0.362500 1.000000
0.000000 0.500000 0.000000
0.000000 0.500000 0.105000
0.000000 0.500000 0.270000
0.000000 0.500000 0.435000
0.000000 0.500000 0.600000
0.000000 0.500000 0.765000
0.000000 0.500000 0.930000
0.000000 0.500000 1.000000
0.000000 0.500000 0.900000
0.000000 0.637500 0.000000
0.000000 0.637500 0.105000
0.000000 0.637500 0.270000
0.000000 0.637500 0.435000
0.000000 0.637500 0.600000
0.000000 0.637500 0.765000
0.000000 0.637500 0.930000
0.000000 0.637500 0.821250
0.000000 0.637500 0.900000
0.000000 0.775000 0.000000
0.000000 0.775000 0.105000
0.000000 0.775000 0.270000
0.000000 0.775000 0.435000
0.000000 0.775000 0.600000
0.000000 0.775000 0.765000
0.000000 0.775000 0.697500
0.000000 0.775000 0.821250
0.000000 0.775000 0.900000
0.000000 0.912500 0.000000
0.000000 0.912500 0.105000
0.000000 0.912500 0.270000
0.000000 0.912500 0.435000
0.000000 0.912500 0.600000
0.000000 0.912500 0.573750
0.000000 0.912500 0.697500
0.000000 0.912500 0.821250
0.000000 0.912500 0.900000
0.000000 1.000000 0.000000
0.000000 1.000000 0.105000
0.000000 1.000000 0.270000
0.000000 1.000000 0.435000
0.000000 1.000000 0.450000
0.000000 1.000000 0.573750
0.000000 1.000000 0.697500
0.000000 1.000000 0.821250
0.000000 1.000000 0.900000
0.070000 0.000000 0.000000
0.070000 0.000000 0.105000
0.070000 0.000000 0.270000
0.070000 0.000000 0.435000
0.070000 0.000000 0.600000
0.070000 0.000000 0.765000
0.070000 0.000000 0.930000
0.070000 0.000000 1.000000
0.070000 0.000000 1.000000
0.070000 0.087500 0.000000
0.070000 0.087500 0.105000
0.070000 0.087500 0.270000
0.070000 0.087500 0.435000
0.070000 0.087500 0.600000
0.070000 0.087500 0.765000
0.070000 0.087500 0.930000
0.070000 0.087500 1.000000
0.070000 0.087500 1.000000
0.070000 0.225000 0.000000
0.070000 0.225000 0.105000
0.070000 0.225000 0.270000
0.070000 0.225000 0.435000
0.070000 0.225000 0.600000
0.070000 0.225000 0.765000
0.070000 0.225000 0.930000
0.070000 0.225000 1.000000
0.070000 0.225000 1.000000
0.070000 0.362500 0.000000
0.070000 0.362500 0.105000
0.070000 0.362500 0.270000
0.070000 0.362500 0.435000
0.070000 0.362500 0.600000
0.070000 0.362500 0.765000
0.070000 0.362500 0.930000
0.070000 0.362500 1.000000
0.096250 0.362500 0.900000
0.070000 0.500000 0.000000
0.070000 0.500000 0.105000
0.070000 0.500000 0.270000
0.070000 0.500000 0.435000
0.070000 0.500000 0.600000
0.070000 0.500000 0.765000
0.070000 0.500000 0.930000
0.096250 0.500000 0.821250
0.096250 0.500000 0.900000
0.070000 0.637500 0.000000
0.070000 0.637500 0.105000
0.070000 0.637500 0.270000
0.070000 0.637500 0.435000
0.070000 0.637500 0.600000
0.070000 0.637500 0.765000
0.096250 0.637500 0.697500
0.096250 0.637500 0.821250
0.096250 0.637500 0.900000
0.070000 0.775000 0.000000
0.070000 0.775000 0.105000
0.070000 0.775000 0.270000
0.070000 0.775000 0.435000
0.070000 0.775000 0.600000
0.096250 0.775000 0.573750
0.096250 0.775000 0.697500
0.096250 0.775000 0.821250
0.096250 0.775000 0.900000
0.070000 0.912500 0.000000
0.070000 0.912500 0.105000
0.070000 0.912500 0.270000
0.070000 0.912500 0.435000
0.096250 0.912500 0.450000
0.096250 0.912500 0.573750
0.096250 0.912500 0.697500
0.096250 0.912500 0.821250
0.096250 0.912500 0.900000
0.070000 1.000000 0.000000
0.070000 1.000000 0.105000
0.070000 1.000000 0.270000
0.096250 1.000000 0.326250
0.096250 1.000000 0.450000
0.096250 1.000000 0.573750
0.096250 1.000000 0.697500
0.096250 1.000000 0.821250
0.096250 1.000000 0.900000
0.180000 0.000000 0.000000
0.180000 0.000000 0.105000
0.180000 0.000000 0.270000
0.180000 0.000000 0.435000
0.180000 0.000000 0.600000
0.180000 0.000000 0.765000
0.180000 0.000000 0.930000
0.180000 0.000000 1.000000
0.180000 0.000000 1.000000
0.180000 0.087500 0.000000
0.180000 0.087500 0.105000
0.180000 0.087500 0.270000
0.180000 0.087500 0.435000
0.180000 0.087500 0.600000
0.180000 0.087500 0.765000
0.180000 0.087500 0.930000
0.180000 0.087500 1.000000
0.180000 0.087500 1.000000
0.180000 0.225000 0.000000
0.180000 0.225000 0.105000
0.180000 0.225000 0.270000
0.180000 0.225000 0.435000
0.180000 0.225000 0.600000
0.180000 0.225000 0.765000
0.180000 0.225000 0.930000
0.180000 0.225000 1.000000
0.247500 0.225000 0.900000
0.180000 0.362500 0.000000
0.180000 0.362500 0.105000
0.180000 0.362500 0.270000
0.180000 0.362500 0.435000
0.180000 0.362500 0.600000
0.180000 0.362500 0.765000
0.180000 0.362500 0.930000
0.247500 0.362500 0.821250
0.247500 0.362500 0.900000
0.180000 0.500000 0.000000
0.180000 0.500000 0.105000
0.180000 0.500000 0.270000
0.180000 0.500000 0.435000
0.180000 0.500000 0.600000
0.180000 0.500000 0.765000
0.247500 0.500000 0.697500
0.247500 0.500000 0.821250
0.247500 0.500000 0.900000
0.180000 0.637500 0.000000
0.180000 0.637500 0.105000
0.180000 0.637500 0.270000
0.180000 0.637500 0.435000
0.180000 0.637500 0.600000
0.247500 0.637500 0.573750
0.247500 0.637500 0.697500
0.247500 0.637500 0.821250
0.247500 0.637500 0.900000
0.180000 0.775000 0.000000
0.180000 0.775000 0.105000
0.180000 0.775000 0.270000
0.180000 0.775000 0.435000
0.247500 0.775000 0.450000
0.247500 0.775000 0.573750
0.247500 0.775000 0.697500
0.247500 0.775000 0.821250
0.247500 0.775000 0.900000
0.180000 0.912500 0.000000
0.180000 0.912500 0.105000
0.180000 0.912500 0.270000
0.247500 0.912500 0.326250
0.247500 0.912500 0.450000
0.247500 0.912500 0.573750
0.247500 0.912500 0.697500
0.247500 0.912500 0.821250
0.247500 0.912500 0.900000
0.180000 1.000000 0.000000
0.180000 1.000000 0.105000
0.247500 1.000000 0.202500
0.247500 1.000000 0.326250
0.247500 1.000000 0.450000
0.247500 1.000000 0.573750
0.247500 1.000000 0.697500
0.247500 1.000000 0.821250
0.247500 1.000000 0.900000
0.290000 0.000000 0.000000
0.290000 0.000000 0.105000
0.290000 0.000000 0.270000
0.290000 0.000000 0.435000
0.290000 0.000000 0.600000
0.290000 0.000000 0.765000
0.290000 0.000000 0.930000
0.290000 0.000000 1.000000
0.290000 0.000000 1.000000
0.290000 0.087500 0.000000
0.290000 0.087500 0.105000
0.290000 0.087500 0.270000
0.290000 0.087500 0.435000
0.290000 0.087500 0.600000
0.290000 0.087500 0.765000
0.290000 0.087500 0.930000
0.290000 0.087500 1.000000
0.398750 0.087500 0.900000
0.290000 0.225000 0.000000
0.290000 0.225000 0.105000
0.290000 0.225000 0.270000
0.290000 0.225000 0.435000
0.290000 0.225000 0.600000
0.290000 0.225000 0.765000
0.290000 0.225000 0.930000
0.398750 0.225000 0.821250
0.398750 0.225000 0.900000
0.290000 0.362500 0.000000
0.290000 0.362500 0.105000
0.290000 0.362500 0.270000
0.290000 0.362500 0.435000
0.290000 0.362500 0.600000
0.290000 0.362500 0.765000
0.398750 0.362500 0.697500
0.398750 0.362500 0.821250
0.398750 0.362500 0.900000
0.290000 0.500000 0.000000
0.290000 0.500000 0.105000
0.290000 0.500000 0.270000
0.290000 0.500000 0.435000
0.290000 0.500000 0.600000
0.398750 0.500000 0.573750
0.398750 0.500000 0.697500
0.398750 0.500000 0.821250
0.398750 0.500000 0.900000
0.290000 0.637500 0.000000
0.290000 0.637500 0.105000
0.290000 0.637500 0.270000
0.290000 0.637500 0.435000
0.398750 0.637500 0.450000
0.398750 0.637500 0.573750
0.398750 0.637500 0.697500
0.398750 0.637500 0.821250
0.398750 0.637500 0.900000
0.290000 0.775000 0.000000
0.290000 0.775000 0.105000
0.290000 0.775000 0.270000
0.398750 0.775000 0.326250
0.398750 0.775000 0.450000
0.398750 0.775000 0.573750
0.398750 0.775000 0.697500
0.398750 0.775000 0.821250
0.398750 0.775000 0.900000
0.290000 0.912500 0.000000
0.290000 0.912500 0.105000
0.398750 0.912500 0.202500
0.398750 0.912500 0.326250
0.398750 0.912500 0.450000
0.398750 0.912500 0.573750
0.398750 0.912500 0.697500
0.398750 0.912500 0.821250
0.398750 0.912500 0.900000
0.290000 1.000000 0.000000
0.398750 1.000000 0.078750
0.398750 1.000000 0.202500
0.398750 1.000000 0.326250
0.398750 1.000000 0.450000
0.398750 1.000000 0.573750
0.398750 1.000000 0.697500
0.398750 1.000000 0.821250
0.398750 1.000000 0.900000
0.400000 0.000000 0.000000
0.400000 0.000000 0.105000
0.400000 0.000000 0.270000
0.400000 0.000000 0.435000
0.400000 0.000000 0.600000
0.400000 0.000000 0.765000
0.400000 0.000000 0.930000
0.400000 0.000000 1.000000
0.550000 0.000000 0.900000
0.400000 0.087500 0.000000
0.400000 0.087500 0.105000
0.400000 0.087500 0.270000
0.400000 0.087500 0.435000
0.400000 0.087500 0.600000
0.400000 0.087500 0.765000
0.400000 0.087500 0.930000
0.550000 0.087500 0.821250
0.550000 0.087500 0.900000
0.400000 0.225000 0.000000
0.400000 0.225000 0.105000
0.400000 0.225000 0.270000
0.400000 0.225000 0.435000
0.400000 0.225000 0.600000
0.400000 0.225000 0.765000
0.550000 0.225000 0.697500
0.550000 0.225000 0.821250
0.550000 0.225000 0.900000
0.400000 0.362500 0.000000
0.400000 0.362500 0.105000
0.400000 0.362500 0.270000
0.400000 0.362500 0.435000
0.400000 0.362500 0.600000
0.550000 0.362500 0.573750
0.550000 0.362500 0.697500
0.550000 0.362500 0.821250
0.550000 0.362500 0.900000
0.400000 0.500000 0.000000
0.400000 0.500000 0.105000
0.400000 0.500000 0.270000
0.400000 0.500000 0.435000
0.550000 0.500000 0.450000
0.550000 0.500000 0.573750
0.550000 0.500000 0.697500
0.550000 0.500000 0.821250
0.550000 0.500000 0.900000
0.400000 0.637500 0.000000
0.400000 0.637500 0.105000
0.400000 0.637500 0.270000
0.550000 0.637500 0.326250
0.550000 0.637500 0.450000
0.550000 0.637500 0.573750
0.550000 0.637500 0.697500
0.550000 0.637500 0.821250
0.550000 0.637500 0.900000
0.400000 0.775000 0.000000
0.400000 0.775000 0.105000
0.550000 0.775000 0.202500
0.550000 0.775000 0.326250
0.550000 0.775000 0.450000
0.550000 0.775000 0.573750
0.550000 0.775000 0.697500
0.550000 0.775000 0.821250
0.550000 0.775000 0.900000
0.400000 0.912500 0.000000
0.550000 0.912500 0.078750
0.550000 0.912500 0.202500
0.550000 0.912500 0.326250
0.550000 0.912500 0.450000
0.550000 0.912500 0.573750
0.550000 0.912500 0.697500
0.550000 0.912500 0.821250
0.550000 0.912500 0.900000
0.550000 1.000000 0.000000
0.550000 1.000000 0.078750
0.550000 1.000000 0.202500
0.550000 1.000000 0.326250
0.550000 1.000000 0.450000
0.550000 1.000000 0.573750
0.550000 1.000000 0.697500
0.550000 1.000000 0.821250
0.550000 1.000000 0.900000
0.510000 0.000000 0.000000
0.510000 0.000000 0.105000
0.510000 0.000000 0.270000
0.510000 0.000000 0.435000
0.510000 0.000000 0.600000
0.510000 0.000000 0.765000
0.510000 0.000000 0.930000
0.701250 0.000000 0.821250
0.701250 0.000000 0.900000
0.510000 0.087500 0.000000
0.510000 0.087500 0.105000
0.510000 0.087500 0.270000
0.510000 0.087500 0.435000
0.510000 0.087500 0.600000
0.510000 0.087500 0.765000
0.701250 0.087500 0.697500
0.701250 0.087500 0.821250
0.701250 0.087500 0.900000
0.510000 0.225000 0.000000
0.510000 0.225000 0.105000
0.510000 0.225000 0.270000
0.510000 0.225000 0.435000
0.510000 0.225000 0.600000
0.701250 0.225000 0.573750
0.701250 0.225000 0.697500
0.701250 0.225000 0.821250
0.701250 0.225000 0.900000
0.510000 0.362500 0.000000
0.510000 0.362500 0.105000
0.510000 0.362500 0.270000
0.510000 0.362500 0.435000
0.701250 0.362500 0.450000
0.701250 0.362500 0.573750
0.701250 0.362500 0.697500
0.701250 0.362500 0.821250
0.701250 0.362500 0.900000
0.510000 0.500000 0.000000
0.510000 0.500000 0.105000
0.510000 0.500000 0.270000
0.701250 0.500000 0.326250
0.701250 0.500000 0.450000
0.701250 0.500000 0.573750
0.701250 0.500000 0.697500
0.701250 0.500000 0.821250
0.701250 0.500000 0.900000
0.510000 0.637500 0.000000
0.510000 0.637500 0.105000
0.701250 0.637500 0.202500
0.701250 0.637500 0.326250
0.701250 0.637500 0.450000
0.701250 0.637500 0.573750
0.701250 0.637500 0.697500
0.701250 0.637500 0.821250
0.701250 0.637500 0.900000
0.510000 0.775000 0.000000
0.701250 0.775000 0.078750
0.701250 0.775000 0.202500
0.701250 0.775000 0.326250
0.701250 0.775000 0.450000
0.701250 0.775000 0.573750
0.701250 0.775000 0.697500
0.701250 0.775000 0.821250
0.701250 0.775000 0.900000
0.701250 0.912500 0.000000
0.701250 0.912500 0.078750
0.701250 0.912500 0.202500
0.701250 0.912500 0.326250
0.701250 0.912500 0.450000
0.701250 0.912500 0.573750
0.701250 0.912500 0.697500
0.701250 0.912500 0.821250
0.701250 0.912500 0.900000
0.701250 1.000000 0.000000
0.701250 1.000000 0.078750
0.701250 1.000000 0.202500
0.701250 1.000000 0.326250
0.701250 1.000000 0.450000
0.701250 1.000000 0.573750
0.701250 1.000000 0.697500
0.701250 1.000000 0.821250
0.701250 1.000000 0.900000
0.620000 0.000000 0.000000
0.620000 0.000000 0.105000
0.620000 0.000000 0.270000
0.620000 0.000000 0.435000
0.620000 0.000000 0.600000
0.620000 0.000000 0.765000
0.852500 0.000000 0.697500
0.852500 0.000000 0.821250
0.852500 0.000000 0.900000
0.620000 0.087500 0.000000
0.620000 0.087500 0.105000
0.620000 0.087500 0.270000
0.620000 0.087500 0.435000
0.620000 0.087500 0.600000
0.852500 0.087500 0.573750
0.852500 0.087500 0.697500
0.852500 0.087500 0.821250
0.852500 0.087500 0.900000
0.620000 0.225000 0.000000
0.620000 0.225000 0.105000
0.620000 0.225000 0.270000
0.620000 0.225000 0.435000
0.852500 0.225000 0.450000
0.852500 0.225000 0.573750
0.852500 0.225000 0.697500
0.852500 0.225000 0.821250
0.852500 0.225000 0.900000
0.620000 0.362500 0.000000
0.620000 0.362500 0.105000
0.620000 0.362500 0.270000
0.852500 0.362500 0.326250
0.852500 0.362500 0.450000
0.852500 0.362500 0.573750
0.852500 0.362500 0.697500
0.852500 0.362500 0.821250
0.852500 0.362500 0.900000
0.620000 0.500000 0.000000
0.620000 0.500000 0.105000
0.852500 0.500000 0.202500
0.852500 0.500000 0.326250
0.852500 0.500000 0.450000
0.852500 0.500000 0.573750
0.852500 0.500000 0.697500
0.852500 0.500000 0.821250
0.852500 0.500000 0.900000
0.620000 0.637500 0.000000
0.852500 0.637500 0.078750
0.852500 0.637500 0.202500
0.852500 0.637500 0.326250
0.852500 0.637500 0.450000
0.852500 0.637500 0.573750
0.852500 0.637500 0.697500
0.852500 0.637500 0.821250
0.852500 0.637500 0.900000
0.852500 0.775000 0.000000
0.852500 0.775000 0.078750
0.852500 0.775000 0.202500
0.852500 0.775000 0.326250
0.852500 0.775000 0.450000
0.852500 0.775000 0.573750
0.852500 0.775000 0.697500
0.852500 0.775000 0.821250
0.852500 0.775000 0.900000
0.852500 0.912500 0.000000
0.852500 0.912500 0.078750
0.852500 0.912500 0.202500
0.852500 0.912500 0.326250
0.852500 0.912500 0.450000
0.852500 0.912500 0.573750
0.852500 0.912500 0.697500
0.852500 0.912500 0.821250
0.852500 0.912500 0.900000
0.852500 1.000000 0.000000
0.852500 1.000000 0.078750
0.852500 1.000000 0.202500
0.852500 1.000000 0.326250
0.852500 1.000000 0.450000
0.852500 1.000000 0.573750
0.852500 1.000000 0.697500
0.852500 1.000000 0.821250
0.852500 1.000000 0.900000
0.730000 0.000000 0.000000
0.730000 0.000000 0.105000
0.730000 0.000000 0.270000
0.730000 0.000000 0.435000
0.730000 0.000000 0.600000
1.000000 0.000000 0.573750
1.000000 0.000000 0.697500
1.000000 0.000000 0.821250
1.000000 0.000000 0.900000
0.730000 0.087500 0.000000
0.730000 0.087500 0.105000
0.730000 0.087500 0.270000
0.730000 0.087500 0.435000
1.000000 0.087500 0.450000
1.000000 0.087500 0.573750
1.000000 0.087500 0.697500
1.000000 0.087500 0.821250
1.000000 0.087500 0.900000
0.730000 0.225000 0.000000
0.730000 0.225000 0.105000
0.730000 0.225000 0.270000
1.000000 0.225000 0.326250
1.000000 0.225000 0.450000
1.000000 0.225000 0.573750
1.000000 0.225000 0.697500
1.000000 0.225000 0.821250
1.000000 0.225000 0.900000
0.730000 0.362500 0.000000
0.730000 0.362500 0.105000
1.000000 0.362500 0.202500
1.000000 0.362500 0.326250
1.000000 0.362500 0.450000
1.000000 0.362500 0.573750
1.000000 0.362500 0.697500
1.000000 0.362500 0.821250
1.000000 0.362500 0.900000
0.730000 0.500000 0.000000
1.000000 0.500000 0.078750
1.000000 0.500000 0.202500
1.000000 0.500000 0.326250
1.000000 0.500000 0.450000
1.000000 0.500000 0.573750
1.000000 0.500000 0.697500
1.000000 0.500000 0.821250
1.000000 0.500000 0.900000
1.000000 0.637500 0.000000
1.000000 0.637500 0.078750
1.000000 0.637500 0.202500
1.000000 0.637500 0.326250
1.000000 0.637500 0.450000
1.000000 0.637500 0.573750
1.000000 0.637500 0.697500
1.000000 0.637500 0.821250
1.000000 0.637500 0.900000
1.000000 0.775000 0.000000
1.000000 0.775000 0.078750
1.000000 0.775000 0.202500
1.000000 0.775000 0.326250
1.000000 0.775000 0.450000
1.000000 0.775000 0.573750
1.000000 0.775000 0.697500
1.000000 0.775000 0.821250
1.000000 0.775000 0.900000
1.000000 0.912500 0.000000
1.000000 0.912500 0.078750
1.000000 0.912500 0.202500
1.000000 0.912500 0.326250
1.000000 0.912500 0.450000
1.000000 0.912500 0.573750
1.000000 0.912500 0.697500
1.000000 0.912500 0.821250
1.000000 0.912500 0.900000
1.000000 1.000000 0.000000
1.000000 1.000000 0.078750
1.000000 1.000000 0.202500
1.000000 1.000000 0.326250
1.000000 1.000000 0.450000
1.000000 1.000000 0.573750
1.000000 1.000000 0.697500
1.000000 1.000000 0.821250
1.000000 1.000000 0.900000
0.800000 0.000000 0.000000
0.800000 0.000000 0.105000
0.800000 0.000000 0.270000
0.800000 0.000000 0.435000
1.000000 0.000000 0.450000
1.000000 0.000000 0.573750
1.000000 0.000000 0.697500
1.000000 0.000000 0.821250
1.000000 0.000000 0.900000
0.800000 0.087500 0.000000
0.800000 0.087500 0.105000
0.800000 0.087500 0.270000
1.000000 0.087500 0.326250
1.000000 0.087500 0.450000
1.000000 0.087500 0.573750
1.000000 0.087500 0.697500
1.000000 0.087500 0.821250
1.000000 0.087500 0.900000
0.800000 0.225000 0.000000
0.800000 0.225000 0.105000
1.000000 0.225000 0.202500
1.000000 0.225000 0.326250
1.000000 0.225000 0.450000
1.000000 0.225000 0.573750
1.000000 0.225000 0.697500
1.000000 0.225000 0.821250
1.000000 0.225000 0.900000
0.800000 0.362500 0.000000
1.000000 0.362500 0.078750
1.000000 0.362500 0.202500
1.000000 0.362500 0.326250
1.000000 0.362500 0.450000
1.000000 0.362500 0.573750
1.000000 0.362500 0.697500
1.000000 0.362500 0.821250
1.000000 0.362500 0.900000
1.000000 0.500000 0.000000
1.000000 0.500000 0.078750
1.000000 0.500000 0.202500
1.000000 0.500000 0.326250
1.000000 0.500000 0.450000
1.000000 0.500000 0.573750
1.000000 0.500000 0.697500
1.000000 0.500000 0.821250
1.000000 0.500000 0.900000
1.000000 0.637500 0.000000
1.000000 0.637500 0.078750
1.000000 0.637500 0.202500
1.000000 0.637500 0.326250
1.000000 0.637500 0.450000
1.000000 0.637500 0.573750
1.000000 0.637500 0.697500
1.000000 0.637500 0.821250
1.000000 0.637500 0.900000
1.000000 0.775000 0.000000
1.000000 0.775000 0.078750
1.000000 0.775000 0.202500
1.000000 0.775000 0.326250
1.000000 0.775000 0.450000
1.000000 0.775000 0.573750
1.000000 0.775000 0.697500
1.000000 0.775000 0.821250
1.000000 0.775000 0.900000
1.000000 0.912500 0.000000
1.000000 0.912500 0.078750
1.000000 0.912500 0.202500
1.000000 0.912500 0.326250
1.000000 0.912500 0.450000
1.000000 0.912500 0.573750
1.000000 0.912500 0.697500
1.000000 0.912500 0.821250
1.000000 0.912500 0.900000
1.000000 1.000000 0.000000
1.000000 1.000000 0.078750
1.000000 1.000000 0.202500
1.000000 1.000000 0.326250
1.000000 1.000000 0.450000
1.000000 1.000000 0.573750
1.000000 1.000000 0.697500
1.000000 1.000000 0.821250
1.000000 1.000000 0.900000
