assets/luts/cube/Teal_Orange.cube
TITLE "Teal_Orange_Grade"
LUT_3D_SIZE 33
DOMAIN_MIN 0.0 0.0 0.0
DOMAIN_MAX 1.0 1.0 1.0
0.000000 0.000000 0.000000
0.000000 0.000000 0.000000
0.000000 0.000000 0.022500
0.000000 0.000000 0.063750
0.000000 0.000000 0.105000
0.000000 0.000000 0.146250
0.000000 0.000000 0.187500
0.000000 0.000000 0.228750
0.000000 0.000000 0.270000
0.000000 0.000000 0.311250
0.000000 0.000000 0.352500
0.000000 0.000000 0.393750
0.000000 0.000000 0.435000
0.000000 0.000000 0.476250
0.000000 0.000000 0.517500
0.000000 0.000000 0.558750
0.000000 0.000000 0.600000
0.000000 0.000000 0.641250
0.000000 0.000000 0.682500
0.000000 0.000000 0.723750
0.000000 0.000000 0.765000
0.000000 0.000000 0.806250
0.000000 0.000000 0.847500
0.000000 0.000000 0.888750
0.000000 0.000000 0.930000
0.000000 0.000000 0.971250
0.000000 0.000000 1.000000
0.000000 0.000000 1.000000
0.000000 0.000000 1.000000
0.000000 0.000000 1.000000
0.000000 0.000000 1.000000
0.000000 0.000000 1.000000
0.000000 0.000000 1.000000
0.000000 0.000000 0.000000
0.000000 0.000000 0.000000
0.000000 0.000000 0.022500
0.000000 0.000000 0.063750
0.000000 0.000000 0.105000
0.000000 0.000000 0.146250
0.000000 0.000000 0.187500
0.000000 0.000000 0.228750
0.000000 0.000000 0.270000
0.000000 0.000000 0.311250
0.000000 0.000000 0.352500
0.000000 0.000000 0.393750
0.000000 0.000000 0.435000
0.000000 0.000000 0.476250
0.000000 0.000000 0.517500
0.000000 0.000000 0.558750
0.000000 0.000000 0.600000
0.000000 0.000000 0.641250
0.000000 0.000000 0.682500
0.000000 0.000000 0.723750
0.000000 0.000000 0.765000
0.000000 0.000000 0.806250
0.000000 0.000000 0.847500
0.000000 0.000000 0.888750
0.000000 0.000000 0.930000
0.000000 0.000000 0.971250
0.000000 0.000000 1.000000
0.000000 0.000000 1.000000
0.000000 0.000000 1.000000
0.000000 0.000000 1.000000
0.000000 0.000000 1.000000
0.000000 0.000000 1.000000
0.000000 0.000000 1.000000
0.000000 0.018750 0.000000
0.000000 0.018750 0.000000
0.000000 0.018750 0.022500
0.000000 0.018750 0.063750
0.000000 0.018750 0.105000
0.000000 0.018750 0.146250
0.000000 0.018750 0.187500
0.000000 0.018750 0.228750
0.000000 0.018750 0.270000
0.000000 0.018750 0.311250
0.000000 0.018750 0.352500
0.000000 0.018750 0.393750
0.000000 0.018750 0.435000
0.000000 0.018750 0.476250
0.000000 0.018750 0.517500
0.000000 0.018750 0.558750
0.000000 0.018750 0.600000
0.000000 0.018750 0.641250
0.000000 0.018750 0.682500
0.000000 0.018750 0.723750
0.000000 0.018750 0.765000
0.000000 0.018750 0.806250
0.000000 0.018750 0.847500
0.000000 0.018750 0.888750
0.000000 0.018750 0.930000
0.000000 0.018750 0.971250
0.000000 0.018750 1.000000
0.000000 0.018750 1.000000
0.000000 0.018750 1.000000
0.000000 0.018750 1.000000
0.000000 0.018750 1.000000
0.000000 0.018750 1.000000
0.000000 0.018750 1.000000
0.000000 0.053125 0.000000
0.000000 0.053125 0.000000
0.000000 0.053125 0.022500
0.000000 0.053125 0.063750
0.000000 0.053125 0.105000
0.000000 0.053125 0.146250
0.000000 0.053125 0.187500
0.000000 0.053125 0.228750
0.000000 0.053125 0.270000
0.000000 0.053125 0.311250
0.000000 0.053125 0.352500
0.000000 0.053125 0.393750
0.000000 0.053125 0.435000
0.000000 0.053125 0.476250
0.000000 0.053125 0.517500
0.000000 0.053125 0.558750
0.000000 0.053125 0.600000
0.000000 0.053125 0.641250
0.000000 0.053125 0.682500
0.000000 0.053125 0.723750
0.000000 0.053125 0.765000
0.000000 0.053125 0.806250
0.000000 0.053125 0.847500
0.000000 0.053125 0.888750
0.000000 0.053125 0.930000
0.000000 0.053125 0.971250
0.000000 0.053125 1.000000
0.000000 0.053125 1.000000
0.000000 0.053125 1.000000
0.000000 0.053125 1.000000
0.000000 0.053125 1.000000
0.000000 0.053125 1.000000
0.000000 0.053125 1.000000
0.000000 0.087500 0.000000
0.000000 0.087500 0.000000
0.000000 0.087500 0.022500
0.000000 0.087500 0.063750
0.000000 0.087500 0.105000
0.000000 0.087500 0.146250
0.000000 0.087500 0.187500
0.000000 0.087500 0.228750
0.000000 0.087500 0.270000
0.000000 0.087500 0.311250
0.000000 0.087500 0.352500
0.000000 0.087500 0.393750
0.000000 0.087500 0.435000
0.000000 0.087500 0.476250
0.000000 0.087500 0.517500
0.000000 0.087500 0.558750
0.000000 0.087500 0.600000
0.000000 0.087500 0.641250
0.000000 0.087500 0.682500
0.000000 0.087500 0.723750
0.000000 0.087500 0.765000
0.000000 0.087500 0.806250
0.000000 0.087500 0.847500
0.000000 0.087500 0.888750
0.000000 0.087500 0.930000
0.000000 0.087500 0.971250
0.000000 0.087500 1.000000
0.000000 0.087500 1.000000
0.000000 0.087500 1.000000
0.000000 0.087500 1.000000
0.000000 0.087500 1.000000
0.000000 0.087500 1.000000
0.000000 0.087500 1.000000
0.000000 0.121875 0.000000
0.000000 0.121875 0.000000
0.000000 0.121875 0.022500
0.000000 0.121875 0.063750
0.000000 0.121875 0.105000
0.000000 0.121875 0.146250
0.000000 0.121875 0.187500
0.000000 0.121875 0.228750
0.000000 0.121875 0.270000
0.000000 0.121875 0.311250
0.000000 0.121875 0.352500
0.000000 0.121875 0.393750
0.000000 0.121875 0.435000
0.000000 0.121875 0.476250
0.000000 0.121875 0.517500
0.000000 0.121875 0.558750
0.000000 0.121875 0.600000
0.000000 0.121875 0.641250
0.000000 0.121875 0.682500
0.000000 0.121875 0.723750
0.000000 0.121875 0.765000
0.000000 0.121875 0.806250
0.000000 0.121875 0.847500
0.000000 0.121875 0.888750
0.000000 0.121875 0.930000
0.000000 0.121875 0.971250
0.000000 0.121875 1.000000
0.000000 0.121875 1.000000
0.000000 0.121875 1.000000
0.000000 0.121875 1.000000
0.000000 0.121875 1.000000
0.000000 0.121875 1.000000
0.000000 0.121875 1.000000
0.000000 0.156250 0.000000
0.000000 0.156250 0.000000
0.000000 0.156250 0.022500
0.000000 0.156250 0.063750
0.000000 0.156250 0.105000
0.000000 0.156250 0.146250
0.000000 0.156250 0.187500
0.000000 0.156250 0.228750
0.000000 0.156250 0.270000
0.000000 0.156250 0.311250
0.000000 0.156250 0.352500
0.000000 0.156250 0.393750
0.000000 0.156250 0.435000
0.000000 0.156250 0.476250
0.000000 0.156250 0.517500
0.000000 0.156250 0.558750
0.000000 0.156250 0.600000
0.000000 0.156250 0.641250
0.000000 0.156250 0.682500
0.000000 0.156250 0.723750
0.000000 0.156250 0.765000
0.000000 0.156250 0.806250
0.000000 0.156250 0.847500
0.000000 0.156250 0.888750
0.000000 0.156250 0.930000
0.000000 0.156250 0.971250
0.000000 0.156250 1.000000
0.000000 0.156250 1.000000
0.000000 0.156250 1.000000
0.000000 0.156250 1.000000
0.000000 0.156250 1.000000
0.000000 0.156250 1.000000
0.000000 0.156250 1.000000
0.000000 0.190625 0.000000
0.000000 0.190625 0.000000
0.000000 0.190625 0.022500
0.000000 0.190625 0.063750
0.000000 0.190625 0.105000
0.000000 0.190625 0.146250
0.000000 0.190625 0.187500
0.000000 0.190625 0.228750
0.000000 0.190625 0.270000
0.000000 0.190625 0.311250
0.000000 0.190625 0.352500
0.000000 0.190625 0.393750
0.000000 0.190625 0.435000
0.000000 0.190625 0.476250
0.000000 0.190625 0.517500
0.000000 0.190625 0.558750
0.000000 0.190625 0.600000
0.000000 0.190625 0.641250
0.000000 0.190625 0.682500
0.000000 0.190625 0.723750
0.000000 0.190625 0.765000
0.000000 0.190625 0.806250
0.000000 0.190625 0.847500
0.000000 0.190625 0.888750
0.000000 0.190625 0.930000
0.000000 0.190625 0.971250
0.000000 0.190625 1.000000
0.000000 0.190625 1.000000
0.000000 0.190625 1.000000
0.000000 0.190625 1.000000
0.000000 0.190625 1.000000
0.000000 0.190625 1.000000
0.000000 0.190625 1.000000
0.000000 0.225000 0.000000
0.000000 0.225000 0.000000
0.000000 0.225000 0.022500
0.000000 0.225000 0.063750
0.000000 0.225000 0.105000
0.000000 0.225000 0.146250
0.000000 0.225000 0.187500
0.000000 0.225000 0.228750
0.000000 0.225000 0.270000
0.000000 0.225000 0.311250
0.000000 0.225000 0.352500
0.000000 0.225000 0.393750
0.000000 0.225000 0.435000
0.000000 0.225000 0.476250
0.000000 0.225000 0.517500
0.000000 0.225000 0.558750
0.000000 0.225000 0.600000
0.000000 0.225000 0.641250
0.000000 0.225000 0.682500
0.000000 0.225000 0.723750
0.000000 0.225000 0.765000
0.000000 0.225000 0.806250
0.000000 0.225000 0.847500
0.000000 0.225000 0.888750
0.000000 0.225000 0.930000
0.000000 0.225000 0.971250
0.000000 0.225000 1.000000
0.000000 0.225000 1.000000
0.000000 0.225000 1.000000
0.000000 0.225000 1.000000
0.000000 0.225000 1.000000
0.000000 0.225000 1.000000
0.000000 0.225000 1.000000
0.000000 0.259375 0.000000
0.000000 0.259375 0.000000
0.000000 0.259375 0.022500
0.000000 0.259375 0.063750
0.000000 0.259375 0.105000
0.000000 0.259375 0.146250
0.000000 0.259375 0.187500
0.000000 0.259375 0.228750
0.000000 0.259375 0.270000
0.000000 0.259375 0.311250
0.000000 0.259375 0.352500
0.000000 0.259375 0.393750
0.000000 0.259375 0.435000
0.000000 0.259375 0.476250
0.000000 0.259375 0.517500
0.000000 0.259375 0.558750
0.000000 0.259375 0.600000
0.000000 0.259375 0.641250
0.000000 0.259375 0.682500
0.000000 0.259375 0.723750
0.000000 0.259375 0.765000
0.000000 0.259375 0.806250
0.000000 0.259375 0.847500
0.000000 0.259375 0.888750
0.000000 0.259375 0.930000
0.000000 0.259375 0.971250
0.000000 0.259375 1.000000
0.000000 0.259375 1.000000
0.000000 0.259375 1.000000
0.000000 0.259375 1.000000
0.000000 0.259375 1.000000
0.000000 0.259375 1.000000
0.000000 0.259375 1.000000
0.000000 0.293750 0.000000
0.000000 0.293750 0.000000
0.000000 0.293750 0.022500
0.000000 0.293750 0.063750
0.000000 0.293750 0.105000
0.000000 0.293750 0.146250
0.000000 0.293750 0.187500
0.000000 0.293750 0.228750
0.000000 0.293750 0.270000
0.000000 0.293750 0.311250
0.000000 0.293750 0.352500
0.000000 0.293750 0.393750
0.000000 0.293750 0.435000
0.000000 0.293750 0.476250
0.000000 0.293750 0.517500
0.000000 0.293750 0.558750
0.000000 0.293750 0.600000
0.000000 0.293750 0.641250
0.000000 0.293750 0.682500
0.000000 0.293750 0.723750
0.000000 0.293750 0.765000
0.000000 0.293750 0.806250
0.000000 0.293750 0.847500
0.000000 0.293750 0.888750
0.000000 0.293750 0.930000
0.000000 0.293750 0.971250
0.000000 0.293750 1.000000
0.000000 0.293750 1.000000
0.000000 0.293750 1.000000
0.000000 0.293750 1.000000
0.000000 0.293750 1.000000
0.000000 0.293750 1.000000
0.000000 0.293750 1.000000
0.000000 0.328125 0.000000
0.000000 0.328125 0.000000
0.000000 0.328125 0.022500
0.000000 0.328125 0.063750
0.000000 0.328125 0.105000
0.000000 0.328125 0.146250
0.000000 0.328125 0.187500
0.000000 0.328125 0.228750
0.000000 0.328125 0.270000
0.000000 0.328125 0.311250
0.000000 0.328125 0.352500
0.000000 0.328125 0.393750
0.000000 0.328125 0.435000
0.000000 0.328125 0.476250
0.000000 0.328125 0.517500
0.000000 0.328125 0.558750
0.000000 0.328125 0.600000
0.000000 0.328125 0.641250
0.000000 0.328125 0.682500
0.000000 0.328125 0.723750
0.000000 0.328125 0.765000
0.000000 0.328125 0.806250
0.000000 0.328125 0.847500
0.000000 0.328125 0.888750
0.000000 0.328125 0.930000
0.000000 0.328125 0.971250
0.000000 0.328125 1.000000
0.000000 0.328125 1.000000
0.000000 0.328125 1.000000
0.000000 0.328125 1.000000
0.000000 0.328125 1.000000
0.000000 0.328125 1.000000
0.000000 0.328125 1.000000
0.000000 0.362500 0.000000
0.000000 0.362500 0.000000
0.000000 0.362500 0.022500
0.000000 0.362500 0.063750
0.000000 0.362500 0.105000
0.000000 0.362500 0.146250
0.000000 0.362500 0.187500
0.000000 0.362500 0.228750
0.000000 0.362500 0.270000
0.000000 0.362500 0.311250
0.000000 0.362500 0.352500
0.000000 0.362500 0.393750
0.000000 0.362500 0.435000
0.000000 0.362500 0.476250
0.000000 0.362500 0.517500
0.000000 0.362500 0.558750
0.000000 0.362500 0.600000
0.000000 0.362500 0.641250
0.000000 0.362500 0.682500
0.000000 0.362500 0.723750
0.000000 0.362500 0.765000
0.000000 0.362500 0.806250
0.000000 0.362500 0.847500
0.000000 0.362500 0.888750
0.000000 0.362500 0.930000
0.000000 0.362500 0.971250
0.000000 0.362500 1.000000
0.000000 0.362500 1.000000
0.000000 0.362500 1.000000
0.000000 0.362500 1.000000
0.000000 0.362500 1.000000
0.000000 0.362500 1.000000
0.000000 0.362500 1.000000
0.000000 0.396875 0.000000
0.000000 0.396875 0.000000
0.000000 0.396875 0.022500
0.000000 0.396875 0.063750
0.000000 0.396875 0.105000
0.000000 0.396875 0.146250
0.000000 0.396875 0.187500
0.000000 0.396875 0.228750
0.000000 0.396875 0.270000
0.000000 0.396875 0.311250
0.000000 0.396875 0.352500
0.000000 0.396875 0.393750
0.000000 0.396875 0.435000
0.000000 0.396875 0.476250
0.000000 0.396875 0.517500
0.000000 0.396875 0.558750
0.000000 0.396875 0.600000
0.000000 0.396875 0.641250
0.000000 0.396875 0.682500
0.000000 0.396875 0.723750
0.000000 0.396875 0.765000
0.000000 0.396875 0.806250
0.000000 0.396875 0.847500
0.000000 0.396875 0.888750
0.000000 0.396875 0.930000
0.000000 0.396875 0.971250
0.000000 0.396875 1.000000
0.000000 0.396875 1.000000
0.000000 0.396875 1.000000
0.000000 0.396875 1.000000
0.000000 0.396875 1.000000
0.000000 0.396875 1.000000
0.000000 0.396875 1.000000
0.000000 0.431250 0.000000
0.000000 0.431250 0.000000
0.000000 0.431250 0.022500
0.000000 0.431250 0.063750
0.000000 0.431250 0.105000
0.000000 0.431250 0.146250
0.000000 0.431250 0.187500
0.000000 0.431250 0.228750
0.000000 0.431250 0.270000
0.000000 0.431250 0.311250
0.000000 0.431250 0.352500
0.000000 0.431250 0.393750
0.000000 0.431250 0.435000
0.000000 0.431250 0.476250
0.000000 0.431250 0.517500
0.000000 0.431250 0.558750
0.000000 0.431250 0.600000
0.000000 0.431250 0.641250
0.000000 0.431250 0.682500
0.000000 0.431250 0.723750
0.000000 0.431250 0.765000
0.000000 0.431250 0.806250
0.000000 0.431250 0.847500
0.000000 0.431250 0.888750
0.000000 0.431250 0.930000
0.000000 0.431250 0.971250
0.000000 0.431250 1.000000
0.000000 0.431250 1.000000
0.000000 0.431250 1.000000
0.000000 0.431250 1.000000
0.000000 0.431250 1.000000
0.000000 0.431250 1.000000
0.000000 0.431250 1.000000
0.000000 0.465625 0.000000
0.000000 0.465625 0.000000
0.000000 0.465625 0.022500
0.000000 0.465625 0.063750
0.000000 0.465625 0.105000
0.000000 0.465625 0.146250
0.000000 0.465625 0.187500
0.000000 0.465625 0.228750
0.000000 0.465625 0.270000
0.000000 0.465625 0.311250
0.000000 0.465625 0.352500
0.000000 0.465625 0.393750
0.000000 0.465625 0.435000
0.000000 0.465625 0.476250
0.000000 0.465625 0.517500
0.000000 0.465625 0.558750
0.000000 0.465625 0.600000
0.000000 0.465625 0.641250
0.000000 0.465625 0.682500
0.000000 0.465625 0.723750
0.000000 0.465625 0.765000
0.000000 0.465625 0.806250
0.000000 0.465625 0.847500
0.000000 0.465625 0.888750
0.000000 0.465625 0.930000
0.000000 0.465625 0.971250
0.000000 0.465625 1.000000
0.000000 0.465625 1.000000
0.000000 0.465625 1.000000
0.000000 0.465625 1.000000
0.000000 0.465625 1.000000
0.000000 0.465625 1.000000
0.000000 0.465625 1.000000
0.000000 0.500000 0.000000
0.000000 0.500000 0.000000
0.000000 0.500000 0.022500
0.000000 0.500000 0.063750
0.000000 0.500000 0.105000
0.000000 0.500000 0.146250
0.000000 0.500000 0.187500
0.000000 0.500000 0.228750
0.000000 0.500000 0.270000
0.000000 0.500000 0.311250
0.000000 0.500000 0.352500
0.000000 0.500000 0.393750
0.000000 0.500000 0.435000
0.000000 0.500000 0.476250
0.000000 0.500000 0.517500
0.000000 0.500000 0.558750
0.000000 0.500000 0.600000
0.000000 0.500000 0.641250
0.000000 0.500000 0.682500
0.000000 0.500000 0.723750
0.000000 0.500000 0.765000
0.000000 0.500000 0.806250
0.000000 0.500000 0.847500
0.000000 0.500000 0.888750
0.000000 0.500000 0.930000
0.000000 0.500000 0.971250
0.000000 0.500000 1.000000
0.000000 0.500000 1.000000
0.000000 0.500000 1.000000
0.000000 0.500000 1.000000
0.000000 0.500000 1.000000
0.000000 0.500000 1.000000
0.000000 0.500000 0.900000
0.000000 0.534375 0.000000
0.000000 0.534375 0.000000
0.000000 0.534375 0.022500
0.000000 0.534375 0.063750
0.000000 0.534375 0.105000
0.000000 0.534375 0.146250
0.000000 0.534375 0.187500
0.000000 0.534375 0.228750
0.000000 0.534375 0.270000
0.000000 0.534375 0.311250
0.000000 0.534375 0.352500
0.000000 0.534375 0.393750
0.000000 0.534375 0.435000
0.000000 0.534375 0.476250
0.000000 0.534375 0.517500
0.000000 0.534375 0.558750
0.000000 0.534375 0.600000
0.000000 0.534375 0.641250
0.000000 0.534375 0.682500
0.000000 0.534375 0.723750
0.000000 0.534375 0.765000
0.000000 0.534375 0.806250
0.000000 0.534375 0.847500
0.000000 0.534375 0.888750
0.000000 0.534375 0.930000
0.000000 0.534375 0.971250
0.000000 0.534375 1.000000
0.000000 0.534375 1.000000
0.000000 0.534375 1.000000
0.000000 0.534375 1.000000
0.000000 0.534375 1.000000
0.000000 0.534375 0.900000
0.000000 0.534375 0.900000
0.000000 0.568750 0.000000
0.000000 0.568750 0.000000
0.000000 0.568750 0.022500
0.000000 0.568750 0.063750
0.000000 0.568750 0.105000
0.000000 0.568750 0.146250
0.000000 0.568750 0.187500
0.000000 0.568750 0.228750
0.000000 0.568750 0.270000
0.000000 0.568750 0.311250
0.000000 0.568750 0.352500
0.000000 0.568750 0.393750
0.000000 0.568750 0.435000
0.000000 0.568750 0.476250
0.000000 0.568750 0.517500
0.000000 0.568750 0.558750
0.000000 0.568750 0.600000
0.000000 0.568750 0.641250
0.000000 0.568750 0.682500
0.000000 0.568750 0.723750
0.000000 0.568750 0.765000
0.000000 0.568750 0.806250
0.000000 0.568750 0.847500
0.000000 0.568750 0.888750
0.000000 0.568750 0.930000
0.000000 0.568750 0.971250
0.000000 0.568750 1.000000
0.000000 0.568750 1.000000
0.000000 0.568750 1.000000
0.000000 0.568750 1.000000
0.000000 0.568750 0.883125
0.000000 0.568750 0.900000
0.000000 0.568750 0.900000
0.000000 0.603125 0.000000
0.000000 0.603125 0.000000
0.000000 0.603125 0.022500
0.000000 0.603125 0.063750
0.000000 0.603125 0.105000
0.000000 0.603125 0.146250
0.000000 0.603125 0.187500
0.000000 0.603125 0.228750
0.000000 0.603125 0.270000
0.000000 0.603125 0.311250
0.000000 0.603125 0.352500
0.000000 0.603125 0.393750
0.000000 0.603125 0.435000
0.000000 0.603125 0.476250
0.000000 0.603125 0.517500
0.000000 0.603125 0.558750
0.000000 0.603125 0.600000
0.000000 0.603125 0.641250
0.000000 0.603125 0.682500
0.000000 0.603125 0.723750
0.000000 0.603125 0.765000
0.000000 0.603125 0.806250
0.000000 0.603125 0.847500
0.000000 0.603125 0.888750
0.000000 0.603125 0.930000
0.000000 0.603125 0.971250
0.000000 0.603125 1.000000
0.000000 0.603125 1.000000
0.000000 0.603125 1.000000
0.000000 0.603125 0.852187
0.000000 0.603125 0.883125
0.000000 0.603125 0.900000
0.000000 0.603125 0.900000
0.000000 0.637500 0.000000
0.000000 0.637500 0.000000
0.000000 0.637500 0.022500
0.000000 0.637500 0.063750
0.000000 0.637500 0.105000
0.000000 0.637500 0.146250
0.000000 0.637500 0.187500
0.000000 0.637500 0.228750
0.000000 0.637500 0.270000
0.000000 0.637500 0.311250
0.000000 0.637500 0.352500
0.000000 0.637500 0.393750
0.000000 0.637500 0.435000
0.000000 0.637500 0.476250
0.000000 0.637500 0.517500
0.000000 0.637500 0.558750
0.000000 0.637500 0.600000
0.000000 0.637500 0.641250
0.000000 0.637500 0.682500
0.000000 0.637500 0.723750
0.000000 0.637500 0.765000
0.000000 0.637500 0.806250
0.000000 0.637500 0.847500
0.000000 0.637500 0.888750
0.000000 0.637500 0.930000
0.000000 0.637500 0.971250
0.000000 0.637500 1.000000
0.000000 0.637500 1.000000
0.000000 0.637500 0.821250
0.000000 0.637500 0.852187
0.000000 0.637500 0.883125
0.000000 0.637500 0.900000
0.000000 0.637500 0.900000
0.000000 0.671875 0.000000
0.000000 0.671875 0.000000
0.000000 0.671875 0.022500
0.000000 0.671875 0.063750
0.000000 0.671875 0.105000
0.000000 0.671875 0.146250
0.000000 0.671875 0.187500
0.000000 0.671875 0.228750
0.000000 0.671875 0.270000
0.000000 0.671875 0.311250
0.000000 0.671875 0.352500
0.000000 0.671875 0.393750
0.000000 0.671875 0.435000
0.000000 0.671875 0.476250
0.000000 0.671875 0.517500
0.000000 0.671875 0.558750
0.000000 0.671875 0.600000
0.000000 0.671875 0.641250
0.000000 0.671875 0.682500
0.000000 0.671875 0.723750
0.000000 0.671875 0.765000
0.000000 0.671875 0.806250
0.000000 0.671875 0.847500
0.000000 0.671875 0.888750
0.000000 0.671875 0.930000
0.000000 0.671875 0.971250
0.000000 0.671875 1.000000
0.000000 0.671875 0.790313
0.000000 0.671875 0.821250
0.000000 0.671875 0.852187
0.000000 0.671875 0.883125
0.000000 0.671875 0.900000
0.000000 0.671875 0.900000
0.000000 0.706250 0.000000
0.000000 0.706250 0.000000
0.000000 0.706250 0.022500
0.000000 0.706250 0.063750
0.000000 0.706250 0.105000
0.000000 0.706250 0.146250
0.000000 0.706250 0.187500
0.000000 0.706250 0.228750
0.000000 0.706250 0.270000
0.000000 0.706250 0.311250
0.000000 0.706250 0.352500
0.000000 0.706250 0.393750
0.000000 0.706250 0.435000
0.000000 0.706250 0.476250
0.000000 0.706250 0.517500
0.000000 0.706250 0.558750
0.000000 0.706250 0.600000
0.000000 0.706250 0.641250
0.000000 0.706250 0.682500
0.000000 0.706250 0.723750
0.000000 0.706250 0.765000
0.000000 0.706250 0.806250
0.000000 0.706250 0.847500
0.000000 0.706250 0.888750
0.000000 0.706250 0.930000
0.000000 0.706250 0.971250
0.000000 0.706250 0.759375
0.000000 0.706250 0.790313
0.000000 0.706250 0.821250
0.000000 0.706250 0.852187
0.000000 0.706250 0.883125
0.000000 0.706250 0.900000
0.000000 0.706250 0.900000
0.000000 0.740625 0.000000
0.000000 0.740625 0.000000
0.000000 0.740625 0.022500
0.000000 0.740625 0.063750
0.000000 0.740625 0.105000
0.000000 0.740625 0.146250
0.000000 0.740625 0.187500
0.000000 0.740625 0.228750
0.000000 0.740625 0.270000
0.000000 0.740625 0.311250
0.000000 0.740625 0.352500
0.000000 0.740625 0.393750
0.000000 0.740625 0.435000
0.000000 0.740625 0.476250
0.000000 0.740625 0.517500
0.000000 0.740625 0.558750
0.000000 0.740625 0.600000
0.000000 0.740625 0.641250
0.000000 0.740625 0.682500
0.000000 0.740625 0.723750
0.000000 0.740625 0.765000
0.000000 0.740625 0.806250
0.000000 0.740625 0.847500
0.000000 0.740625 0.888750
0.000000 0.740625 0.930000
0.000000 0.740625 0.728437
0.000000 0.740625 0.759375
0.000000 0.740625 0.790313
0.000000 0.740625 0.821250
0.000000 0.740625 0.852187
0.000000 0.740625 0.883125
0.000000 0.740625 0.900000
0.000000 0.740625 0.900000
0.000000 0.775000 0.000000
0.000000 0.775000 0.000000
0.000000 0.775000 0.022500
0.000000 0.775000 0.063750
0.000000 0.775000 0.105000
0.000000 0.775000 0.146250
0.000000 0.775000 0.187500
0.000000 0.775000 0.228750
0.000000 0.775000 0.270000
0.000000 0.775000 0.311250
0.000000 0.775000 0.352500
0.000000 0.775000 0.393750
0.000000 0.775000 0.435000
0.000000 0.775000 0.476250
0.000000 0.775000 0.517500
0.000000 0.775000 0.558750
0.000000 0.775000 0.600000
0.000000 0.775000 0.641250
0.000000 0.775000 0.682500
0.000000 0.775000 0.723750
0.000000 0.775000 0.765000
0.000000 0.775000 0.806250
0.000000 0.775000 0.847500
0.000000 0.775000 0.888750
0.000000 0.775000 0.697500
0.000000 0.775000 0.728437
0.000000 0.775000 0.759375
0.000000 0.775000 0.790313
0.000000 0.775000 0.821250
0.000000 0.775000 0.852187
0.000000 0.775000 0.883125
0.000000 0.775000 0.900000
0.000000 0.775000 0.900000
0.000000 0.809375 0.000000
0.000000 0.809375 0.000000
0.000000 0.809375 0.022500
0.000000 0.809375 0.063750
0.000000 0.809375 0.105000
0.000000 0.809375 0.146250
0.000000 0.809375 0.187500
0.000000 0.809375 0.228750
0.000000 0.809375 0.270000
0.000000 0.809375 0.311250
0.000000 0.809375 0.352500
0.000000 0.809375 0.393750
0.000000 0.809375 0.435000
0.000000 0.809375 0.476250
0.000000 0.809375 0.517500
0.000000 0.809375 0.558750
0.000000 0.809375 0.600000
0.000000 0.809375 0.641250
0.000000 0.809375 0.682500
0.000000 0.809375 0.723750
0.000000 0.809375 0.765000
0.000000 0.809375 0.806250
0.000000 0.809375 0.847500
0.000000 0.809375 0.666563
0.000000 0.809375 0.697500
0.000000 0.809375 0.728437
0.000000 0.809375 0.759375
0.000000 0.809375 0.790313
0.000000 0.809375 0.821250
0.000000 0.809375 0.852187
0.000000 0.809375 0.883125
0.000000 0.809375 0.900000
0.000000 0.809375 0.900000
0.000000 0.843750 0.000000
0.000000 0.843750 0.000000
0.000000 0.843750 0.022500
0.000000 0.843750 0.063750
0.000000 0.843750 0.105000
0.000000 0.843750 0.146250
0.000000 0.843750 0.187500
0.000000 0.843750 0.228750
0.000000 0.843750 0.270000
0.000000 0.843750 0.311250
0.000000 0.843750 0.352500
0.000000 0.843750 0.393750
0.000000 0.843750 0.435000
0.000000 0.843750 0.476250
0.000000 0.843750 0.517500
0.000000 0.843750 0.558750
0.000000 0.843750 0.600000
0.000000 0.843750 0.641250
0.000000 0.843750 0.682500
0.000000 0.843750 0.723750
0.000000 0.843750 0.765000
0.000000 0.843750 0.806250
0.000000 0.843750 0.635625
0.000000 0.843750 0.666563
0.000000 0.843750 0.697500
0.000000 0.843750 0.728437
0.000000 0.843750 0.759375
