assets/luts/cube/VHS_Grade.cube
TITLE "VHS_Grade"
LUT_3D_SIZE 33
DOMAIN_MIN 0.000000 0.000000 0.000000
DOMAIN_MAX 1.000000 1.000000 1.000000
0.084674 0.064674 0.118724
0.085252 0.065252 0.140340
0.085831 0.065831 0.161956
0.086409 0.066409 0.183572
0.086988 0.066988 0.205188
0.087567 0.067567 0.226804
0.088145 0.068145 0.248420
0.088724 0.068724 0.270036
0.089302 0.069302 0.291652
0.089881 0.069881 0.313268
0.090459 0.070459 0.334884
0.091038 0.071038 0.356500
0.091616 0.071616 0.378116
0.092195 0.072195 0.399732
0.092773 0.072773 0.421348
0.093352 0.073352 0.442964
0.093930 0.073930 0.464580
0.094509 0.074509 0.486196
0.095087 0.075087 0.507812
0.095666 0.075666 0.529428
0.096245 0.076245 0.551045
0.096823 0.076823 0.572661
0.097402 0.077402 0.594277
0.097980 0.077980 0.615893
0.098559 0.078559 0.637509
0.099137 0.079137 0.659125
0.099716 0.079716 0.680741
0.100294 0.080294 0.702357
0.100873 0.080873 0.723973
0.101451 0.081451 0.745589
0.102030 0.082030 0.767205
0.102608 0.082608 0.788821
0.103187 0.083187 0.810437
0.088130 0.091558 0.122180
0.088708 0.092136 0.143796
0.089287 0.092715 0.165412
0.089865 0.093293 0.187028
0.090444 0.093872 0.208644
0.091022 0.094450 0.230260
0.091601 0.095029 0.251876
0.092179 0.095607 0.273492
0.092758 0.096186 0.295108
0.093336 0.096764 0.316724
0.093915 0.097343 0.338340
0.094493 0.097921 0.359956
0.095072 0.098500 0.381572
0.095650 0.099079 0.403188
0.096229 0.099657 0.424804
0.096807 0.100236 0.446420
0.097386 0.100814 0.468036
0.097965 0.101393 0.489652
0.098543 0.101971 0.511268
0.099122 0.102550 0.532884
0.099700 0.103128 0.554500
0.100279 0.103707 0.576116
0.100857 0.104285 0.597732
0.101436 0.104864 0.619348
0.102014 0.105442 0.640964
0.102593 0.106021 0.662580
0.103171 0.106599 0.684196
0.103750 0.107178 0.705812
0.104328 0.107757 0.727428
0.104907 0.108335 0.749044
0.105485 0.108914 0.770660
0.106064 0.109492 0.792276
0.106643 0.110071 0.813893
0.091585 0.118441 0.125635
0.092164 0.119020 0.147251
0.092742 0.119598 0.168867
0.093321 0.120177 0.190483
0.093899 0.120756 0.212099
0.094478 0.121334 0.233715
0.095056 0.121913 0.255331
0.095635 0.122491 0.276947
0.096213 0.123070 0.298563
0.096792 0.123648 0.320179
0.097370 0.124227 0.341795
0.097949 0.124805 0.363412
0.098528 0.125384 0.385028
0.099106 0.125962 0.406644
0.099685 0.126541 0.428260
0.100263 0.127119 0.449876
0.100842 0.127698 0.471492
0.101420 0.128276 0.493108
0.101999 0.128855 0.514724
0.102577 0.129434 0.536340
0.103156 0.130012 0.557956
0.103734 0.130591 0.579572
0.104313 0.131169 0.601188
0.104891 0.131748 0.622804
0.105470 0.132326 0.644420
0.106048 0.132905 0.666036
0.106627 0.133483 0.687652
0.107206 0.134062 0.709268
0.107784 0.134640 0.730884
0.108363 0.135219 0.752500
0.108941 0.135797 0.774116
0.109520 0.136376 0.795732
0.110098 0.136954 0.817348
0.095041 0.145325 0.129091
0.095619 0.145904 0.150707
0.096198 0.146482 0.172323
0.096776 0.147061 0.193939
0.097355 0.147639 0.215555
0.097933 0.148218 0.237171
0.098512 0.148796 0.258787
0.099091 0.149375 0.280403
0.099669 0.149953 0.302019
0.100248 0.150532 0.323635
0.100826 0.151111 0.345251
0.101405 0.151689 0.366867
0.101983 0.152268 0.388483
0.102562 0.152846 0.410099
0.103140 0.153425 0.431715
0.103719 0.154003 0.453331
0.104297 0.154582 0.474947
0.104876 0.155160 0.496563
0.105454 0.155739 0.518179
0.106033 0.156317 0.539795
0.106611 0.156896 0.561411
0.107190 0.157474 0.583027
0.107769 0.158053 0.604644
0.108347 0.158631 0.626260
0.108926 0.159210 0.647876
0.109504 0.159788 0.669492
0.110083 0.160367 0.691108
0.110661 0.160946 0.712724
0.111240 0.161524 0.734340
0.111818 0.162103 0.755956
0.112397 0.162681 0.777572
0.112975 0.163260 0.799188
0.113554 0.163838 0.820804
0.098496 0.172209 0.132546
0.099075 0.172788 0.154163
0.099654 0.173366 0.175779
0.100232 0.173945 0.197395
0.100811 0.174523 0.219011
0.101389 0.175102 0.240627
0.101968 0.175680 0.262243
0.102546 0.176259 0.283859
0.103125 0.176837 0.305475
0.103703 0.177416 0.327091
0.104282 0.177994 0.348707
0.104860 0.178573 0.370323
0.105439 0.179151 0.391939
0.106017 0.179730 0.413555
0.106596 0.180308 0.435171
0.107174 0.180887 0.456787
0.107753 0.181465 0.478403
0.108332 0.182044 0.500019
0.108910 0.182623 0.521635
0.109489 0.183201 0.543251
0.110067 0.183780 0.564867
0.110646 0.184358 0.586483
0.111224 0.184937 0.608099
0.111803 0.185515 0.629715
0.112381 0.186094 0.651331
0.112960 0.186672 0.672947
0.113538 0.187251 0.694563
0.114117 0.187829 0.716179
0.114695 0.188408 0.737795
0.115274 0.188986 0.759411
0.115852 0.189565 0.781027
0.116431 0.190143 0.802643
0.117009 0.190722 0.824259
0.101952 0.199093 0.136002
0.102531 0.199671 0.157618
0.103109 0.200250 0.179234
0.103688 0.200828 0.200850
0.104266 0.201407 0.222466
0.104845 0.201985 0.244082
0.105423 0.202564 0.265698
0.106002 0.203142 0.287314
0.106580 0.203721 0.308930
0.107159 0.204300 0.330546
0.107737 0.204878 0.352162
0.108316 0.205457 0.373778
0.108894 0.206035 0.395394
0.109473 0.206614 0.417011
0.110052 0.207192 0.438627
0.110630 0.207771 0.460243
0.111209 0.208349 0.481859
0.111787 0.208928 0.503475
0.112366 0.209506 0.525091
0.112944 0.210085 0.546707
0.113523 0.210663 0.568323
0.114101 0.211242 0.589939
0.114680 0.211820 0.611555
0.115258 0.212399 0.633171
0.115837 0.212977 0.654787
0.116415 0.213556 0.676403
0.116994 0.214135 0.698019
0.117572 0.214713 0.719635
0.118151 0.215292 0.741251
0.118730 0.215870 0.762867
0.119308 0.216449 0.784483
0.119887 0.217027 0.806099
0.120465 0.217606 0.827715
0.105408 0.225977 0.139458
0.105986 0.226555 0.161074
0.106565 0.227134 0.182690
0.107143 0.227712 0.204306
0.107722 0.228291 0.225922
0.108300 0.228869 0.247538
0.108879 0.229448 0.269154
0.109457 0.230026 0.290770
0.110036 0.230605 0.312386
0.110615 0.231183 0.334002
0.111193 0.231762 0.355618
0.111772 0.232340 0.377234
0.112350 0.232919 0.398850
0.112929 0.233497 0.420466
0.113507 0.234076 0.442082
0.114086 0.234654 0.463698
0.114664 0.235233 0.485314
0.115243 0.235812 0.506930
0.115821 0.236390 0.528546
0.116400 0.236969 0.550162
0.116978 0.237547 0.571778
0.117557 0.238126 0.593394
0.118135 0.238704 0.615010
0.118714 0.239283 0.636626
0.119293 0.239861 0.658243
0.119871 0.240440 0.679859
0.120450 0.241018 0.701475
0.121028 0.241597 0.723091
0.121607 0.242175 0.744707
0.122185 0.242754 0.766323
0.122764 0.243332 0.787939
0.123342 0.243911 0.809555
0.123921 0.244490 0.831171
0.108863 0.252860 0.142913
0.109442 0.253439 0.164529
0.110020 0.254017 0.186145
0.110599 0.254596 0.207762
0.111178 0.255174 0.229378
0.111756 0.255753 0.250994
0.112335 0.256331 0.272610
0.112913 0.256910 0.294226
0.113492 0.257489 0.315842
0.114070 0.258067 0.337458
0.114649 0.258646 0.359074
0.115227 0.259224 0.380690
0.115806 0.259803 0.402306
0.116384 0.260381 0.423922
0.116963 0.260960 0.445538
0.117541 0.261538 0.467154
0.118120 0.262117 0.488770
0.118698 0.262695 0.510386
0.119277 0.263274 0.532002
0.119856 0.263852 0.553618
0.120434 0.264431 0.575234
0.121013 0.265009 0.596850
0.121591 0.265588 0.618466
0.122170 0.266167 0.640082
0.122748 0.266745 0.661698
0.123327 0.267324 0.683314
0.123905 0.267902 0.704930
0.124484 0.268481 0.726546
0.125062 0.269059 0.748162
0.125641 0.269638 0.769778
0.126219 0.270216 0.791394
0.126798 0.270795 0.813010
0.127376 0.271373 0.834626
0.112319 0.279744 0.146369
0.112898 0.280323 0.167985
0.113476 0.280901 0.189601
0.114055 0.281480 0.211217
0.114633 0.282058 0.232833
0.115212 0.282637 0.254449
0.115790 0.283215 0.276065
0.116369 0.283794 0.297681
0.116947 0.284372 0.319297
0.117526 0.284951 0.340913
0.118104 0.285529 0.362529
0.118683 0.286108 0.384145
0.119261 0.286686 0.405761
0.119840 0.287265 0.427377
0.120419 0.287844 0.448994
0.120997 0.288422 0.470610
0.121576 0.289001 0.492226
0.122154 0.289579 0.513842
0.122733 0.290158 0.535458
0.123311 0.290736 0.557074
0.123890 0.291315 0.578690
0.124468 0.291893 0.600306
0.125047 0.292472 0.621922
0.125625 0.293050 0.643538
0.126204 0.293629 0.665154
0.126782 0.294207 0.686770
0.127361 0.294786 0.708386
0.127939 0.295364 0.730002
0.128518 0.295943 0.751618
0.129096 0.296521 0.773234
0.129675 0.297100 0.794850
0.130254 0.297679 0.816466
0.130832 0.298257 0.838082
0.115775 0.306628 0.149825
0.116353 0.307206 0.171441
0.116932 0.307785 0.193057
0.117510 0.308363 0.214673
0.118089 0.308942 0.236289
0.118667 0.309520 0.257905
0.119246 0.310099 0.279521
0.119824 0.310678 0.301137
0.120403 0.311256 0.322753
0.120981 0.311835 0.344369
0.121560 0.312413 0.365985
0.122139 0.312992 0.387601
0.122717 0.313570 0.409217
0.123296 0.314149 0.430833
0.123874 0.314727 0.452449
0.124453 0.315306 0.474065
0.125031 0.315884 0.495681
0.125610 0.316463 0.517297
0.126188 0.317041 0.538913
0.126767 0.317620 0.560529
0.127345 0.318198 0.582145
0.127924 0.318777 0.603761
0.128502 0.319356 0.625377
0.129081 0.319934 0.646993
0.129659 0.320513 0.668609
0.130238 0.321091 0.690225
0.130817 0.321670 0.711842
0.131395 0.322248 0.733458
0.131974 0.322827 0.755074
0.132552 0.323405 0.776690
0.133131 0.323984 0.798306
0.133709 0.324562 0.819922
0.134288 0.325141 0.841538
0.119230 0.333512 0.153280
0.119809 0.334090 0.174896
0.120387 0.334669 0.196512
0.120966 0.335247 0.218128
0.121544 0.335826 0.239744
0.122123 0.336404 0.261361
0.122702 0.336983 0.282977
0.123280 0.337561 0.304593
0.123859 0.338140 0.326209
0.124437 0.338718 0.347825
0.125016 0.339297 0.369441
0.125594 0.339875 0.391057
0.126173 0.340454 0.412673
0.126751 0.341033 0.434289
0.127330 0.341611 0.455905
0.127908 0.342190 0.477521
0.128487 0.342768 0.499137
0.129065 0.343347 0.520753
0.129644 0.343925 0.542369
0.130222 0.344504 0.563985
0.130801 0.345082 0.585601
0.131380 0.345661 0.607217
0.131958 0.346239 0.628833
0.132537 0.346818 0.650449
0.133115 0.347396 0.672065
0.133694 0.347975 0.693681
0.134272 0.348553 0.715297
0.134851 0.349132 0.736913
0.135429 0.349710 0.758529
0.136008 0.350289 0.780145
0.136586 0.350868 0.801761
0.137165 0.351446 0.823377
0.137743 0.352025 0.844993
0.122686 0.360395 0.156736
0.123265 0.360974 0.178352
0.123843 0.361552 0.199968
0.124422 0.362131 0.221584
0.125000 0.362710 0.243200
0.125579 0.363288 0.264816
0.126157 0.363867 0.286432
0.126736 0.364445 0.308048
0.127314 0.365024 0.329664
0.127893 0.365602 0.351280
0.128471 0.366181 0.372896
0.129050 0.366759 0.394512
0.129628 0.367338 0.416128
0.130207 0.367916 0.437744
0.130785 0.368495 0.459360
0.131364 0.369073 0.480976
0.131943 0.369652 0.502593
0.132521 0.370230 0.524209
0.133100 0.370809 0.545825
0.133678 0.371387 0.567441
0.134257 0.371966 0.589057
0.134835 0.372545 0.610673
0.135414 0.373123 0.632289
0.135992 0.373702 0.653905
0.136571 0.374280 0.675521
0.137149 0.374859 0.697137
0.137728 0.375437 0.718753
0.138306 0.376016 0.740369
0.138885 0.376594 0.761985
0.139463 0.377173 0.783601
0.140042 0.377751 0.805217
0.140620 0.378330 0.826833
0.141199 0.378908 0.848449
0.126142 0.387279 0.160192
0.126720 0.387858 0.181808
0.127299 0.388436 0.203424
0.127877 0.389015 0.225040
0.128456 0.389593 0.246656
0.129034 0.390172 0.268272
0.129613 0.390750 0.289888
0.130191 0.391329 0.311504
0.130770 0.391907 0.333120
0.131348 0.392486 0.354736
0.131927 0.393064 0.376352
0.132505 0.393643 0.397968
0.133084 0.394222 0.419584
0.133663 0.394800 0.441200
0.134241 0.395379 0.462816
0.134820 0.395957 0.484432
0.135398 0.396536 0.506048
0.135977 0.397114 0.527664
0.136555 0.397693 0.549280
0.137134 0.398271 0.570896
0.137712 0.398850 0.592512
0.138291 0.399428 0.614128
0.138869 0.400007 0.635744
0.139448 0.400585 0.657360
0.140026 0.401164 0.678976
0.140605 0.401742 0.700592
0.141183 0.402321 0.722208
0.141762 0.402900 0.743825
0.142341 0.403478 0.765441
0.142919 0.404057 0.787057
0.143498 0.404635 0.808673
0.144076 0.405214 0.830289
0.144655 0.405792 0.851905
0.129597 0.414163 0.163647
0.130176 0.414741 0.185263
0.130754 0.415320 0.206879
0.131333 0.415899 0.228495
0.131911 0.416477 0.250111
0.132490 0.417056 0.271727
0.133068 0.417634 0.293343
0.133647 0.418213 0.314960
0.134226 0.418791 0.336576
0.134804 0.419370 0.358192
0.135383 0.419948 0.379808
0.135961 0.420527 0.401424
0.136540 0.421105 0.423040
0.137118 0.421684 0.444656
0.137697 0.422262 0.466272
0.138275 0.422841 0.487888
0.138854 0.423419 0.509504
0.139432 0.423998 0.531120
0.140011 0.424576 0.552736
0.140589 0.425155 0.574352
0.141168 0.425734 0.595968
0.141746 0.426312 0.617584
0.142325 0.426891 0.639200
0.142904 0.427469 0.660816
0.143482 0.428048 0.682432
0.144061 0.428626 0.704048
0.144639 0.429205 0.725664
0.145218 0.429783 0.747280
0.145796 0.430362 0.768896
0.146375 0.430940 0.790512
0.146953 0.431519 0.812128
0.147532 0.432097 0.833744
0.148110 0.432676 0.855360
0.133053 0.441047 0.167103
0.133631 0.441625 0.188719
0.134210 0.442204 0.210335
0.134789 0.442782 0.231951
0.135367 0.443361 0.253567
0.135946 0.443939 0.275183
0.136524 0.444518 0.296799
0.137103 0.445096 0.318415
0.137681 0.445675 0.340031
0.138260 0.446253 0.361647
0.138838 0.446832 0.383263
0.139417 0.447411 0.404879
0.139995 0.447989 0.426495
0.140574 0.448568 0.448111
0.141152 0.449146 0.469727
0.141731 0.449725 0.491343
0.142309 0.450303 0.512959
0.142888 0.450882 0.534575
0.143467 0.451460 0.556192
0.144045 0.452039 0.577808
0.144624 0.452617 0.599424
0.145202 0.453196 0.621040
0.145781 0.453774 0.642656
0.146359 0.454353 0.664272
0.146938 0.454931 0.685888
0.147516 0.455510 0.707504
0.148095 0.456089 0.729120
0.148673 0.456667 0.750736
0.149252 0.457246 0.772352
0.086688 0.471680 0.891859
0.086688 0.471680 0.918156
0.086688 0.471680 0.944453
0.086688 0.471680 0.970750
0.136509 0.467930 0.170559
0.137087 0.468509 0.192175
0.137666 0.469088 0.213791
0.138244 0.469666 0.235407
0.138823 0.470245 0.257023
0.139401 0.470823 0.278639
0.139980 0.471402 0.300255
0.140558 0.471980 0.321871
0.141137 0.472559 0.343487
0.141715 0.473137 0.365103
0.142294 0.473716 0.386719
0.142872 0.474294 0.408335
0.143451 0.474873 0.429951
0.144030 0.475451 0.451567
0.144608 0.476030 0.473183
0.145187 0.476608 0.494799
0.145765 0.477187 0.516415
0.146344 0.477766 0.538031
0.146922 0.478344 0.559647
0.147501 0.478923 0.581263
0.148079 0.479501 0.602879
0.148658 0.480080 0.624495
0.149236 0.480658 0.646111
0.086688 0.500965 0.734078
0.086688 0.500965 0.760375
0.086688 0.500965 0.786672
0.086688 0.500965 0.812969
0.086688 0.500965 0.839266
0.086688 0.500965 0.865563
0.086688 0.500965 0.891859
0.086688 0.500965 0.918156
0.086688 0.500965 0.944453
0.086688 0.500965 0.970750
0.139964 0.494814 0.174014
0.140543 0.495393 0.195630
0.141121 0.495971 0.217246
0.141700 0.496550 0.238862
0.142278 0.497128 0.260478
0.142857 0.497707 0.282094
0.143435 0.498285 0.303710
0.144014 0.498864 0.325326
0.144593 0.499443 0.346942
0.145171 0.500021 0.368559
0.145750 0.500600 0.390175
0.146328 0.501178 0.411791
0.146907 0.501757 0.433407
0.147485 0.502335 0.455023
0.148064 0.502914 0.476639
0.148642 0.503492 0.498255
0.149221 0.504071 0.519871
0.086688 0.530250 0.576297
0.086688 0.530250 0.602594
0.086688 0.530250 0.628891
0.086688 0.530250 0.655188
0.086688 0.530250 0.681484
0.086688 0.530250 0.707781
0.086688 0.530250 0.734078
0.086688 0.530250 0.760375
0.086688 0.530250 0.786672
0.086688 0.530250 0.812969
0.086688 0.530250 0.839266
0.086688 0.530250 0.865563
0.086688 0.530250 0.891859
0.086688 0.530250 0.918156
0.086688 0.530250 0.944453
0.086688 0.530250 0.970750
0.143420 0.521698 0.177470
0.143998 0.522277 0.199086
0.144577 0.522855 0.220702
0.145155 0.523434 0.242318
0.145734 0.524012 0.263934
0.146313 0.524591 0.285550
0.146891 0.525169 0.307166
0.147470 0.525748 0.328782
0.148048 0.526326 0.350398
0.148627 0.526905 0.372014
0.149205 0.527483 0.393630
0.086688 0.559535 0.418516
0.086688 0.559535 0.444812
0.086688 0.559535 0.471109
0.086688 0.559535 0.497406
0.086688 0.559535 0.523703
0.086688 0.559535 0.550000
0.086688 0.559535 0.576297
0.086688 0.559535 0.602594
0.086688 0.559535 0.628891
0.086688 0.559535 0.655188
0.086688 0.559535 0.681484
0.086688 0.559535 0.707781
0.086688 0.559535 0.734078
0.086688 0.559535 0.760375
0.086688 0.559535 0.786672
0.086688 0.559535 0.812969
0.086688 0.559535 0.839266
0.086688 0.559535 0.865563
0.086688 0.559535 0.891859
0.086688 0.559535 0.918156
0.086688 0.559535 0.944453
0.086688 0.559535 0.970750
0.146876 0.548582 0.180926
0.147454 0.549160 0.202542
0.148033 0.549739 0.224158
0.148611 0.550317 0.245774
0.149190 0.550896 0.267390
0.086688 0.588820 0.260734
0.086688 0.588820 0.287031
0.086688 0.588820 0.313328
0.086688 0.588820 0.339625
0.086688 0.588820 0.365922
0.086688 0.588820 0.392219
0.086688 0.588820 0.418516
0.086688 0.588820 0.444812
0.086688 0.588820 0.471109
0.086688 0.588820 0.497406
0.086688 0.588820 0.523703
0.086688 0.588820 0.550000
0.086688 0.588820 0.576297
0.086688 0.588820 0.602594
0.086688 0.588820 0.628891
0.086688 0.588820 0.655188
0.086688 0.588820 0.681484
0.086688 0.588820 0.707781
0.086688 0.588820 0.734078
0.086688 0.588820 0.760375
0.086688 0.588820 0.786672
0.086688 0.588820 0.812969
0.086688 0.588820 0.839266
0.086688 0.588820 0.865563
0.086688 0.588820 0.891859
0.086688 0.588820 0.918156
0.086688 0.588820 0.944453
0.086688 0.588820 0.970750
0.086688 0.618105 0.129250
0.086688 0.618105 0.155547
0.086688 0.618105 0.181844
0.086688 0.618105 0.208141
0.086688 0.618105 0.234438
0.086688 0.618105 0.260734
0.086688 0.618105 0.287031
0.086688 0.618105 0.313328
0.086688 0.618105 0.339625
0.086688 0.618105 0.365922
0.086688 0.618105 0.392219
0.086688 0.618105 0.418516
0.086688 0.618105 0.444812
0.086688 0.618105 0.471109
0.086688 0.618105 0.497406
0.086688 0.618105 0.523703
0.086688 0.618105 0.550000
0.086688 0.618105 0.576297
0.086688 0.618105 0.602594
0.086688 0.618105 0.628891
0.086688 0.618105 0.655188
0.086688 0.618105 0.681484
0.086688 0.618105 0.707781
0.086688 0.618105 0.734078
0.086688 0.618105 0.760375
0.086688 0.618105 0.786672
0.086688 0.618105 0.812969
0.086688 0.618105 0.839266
0.086688 0.618105 0.865563
0.086688 0.618105 0.891859
0.086688 0.618105 0.918156
0.086688 0.618105 0.944453
0.086688 0.618105 0.970750
0.086688 0.647391 0.129250
0.086688 0.647391 0.155547
0.086688 0.647391 0.181844
0.086688 0.647391 0.208141
0.086688 0.647391 0.234438
0.086688 0.647391 0.260734
0.086688 0.647391 0.287031
0.086688 0.647391 0.313328
0.086688 0.647391 0.339625
0.086688 0.647391 0.365922
0.086688 0.647391 0.392219
0.086688 0.647391 0.418516
0.086688 0.647391 0.444812
0.086688 0.647391 0.471109
0.086688 0.647391 0.497406
0.086688 0.647391 0.523703
0.086688 0.647391 0.550000
0.086688 0.647391 0.576297
0.086688 0.647391 0.602594
0.086688 0.647391 0.628891
0.086688 0.647391 0.655188
0.086688 0.647391 0.681484
0.086688 0.647391 0.707781
0.086688 0.647391 0.734078
0.086688 0.647391 0.760375
0.086688 0.647391 0.786672
0.086688 0.647391 0.812969
0.086688 0.647391 0.839266
0.086688 0.647391 0.865563
0.086688 0.647391 0.891859
0.086688 0.647391 0.918156
0.086688 0.647391 0.944453
0.086688 0.647391 0.970750
0.086688 0.676676 0.129250
0.086688 0.676676 0.155547
0.086688 0.676676 0.181844
0.086688 0.676676 0.208141
0.086688 0.676676 0.234438
0.086688 0.676676 0.260734
0.086688 0.676676 0.287031
0.086688 0.676676 0.313328
0.086688 0.676676 0.339625
0.086688 0.676676 0.365922
0.086688 0.676676 0.392219
0.086688 0.676676 0.418516
0.086688 0.676676 0.444812
0.086688 0.676676 0.471109
0.086688 0.676676 0.497406
0.086688 0.676676 0.523703
0.086688 0.676676 0.550000
0.086688 0.676676 0.576297
0.086688 0.676676 0.602594
0.086688 0.676676 0.628891
0.086688 0.676676 0.655188
0.086688 0.676676 0.681484
0.086688 0.676676 0.707781
0.086688 0.676676 0.734078
0.086688 0.676676 0.760375
0.086688 0.676676 0.786672
0.086688 0.676676 0.812969
0.086688 0.676676 0.839266
0.086688 0.676676 0.865563
0.086688 0.676676 0.891859
0.086688 0.676676 0.918156
0.086688 0.676676 0.944453
0.086688 0.676676 0.970750
0.086688 0.705961 0.129250
0.086688 0.705961 0.155547
0.086688 0.705961 0.181844
0.086688 0.705961 0.208141
0.086688 0.705961 0.234438
0.086688 0.705961 0.260734
0.086688 0.705961 0.287031
0.086688 0.705961 0.313328
0.086688 0.705961 0.339625
0.086688 0.705961 0.365922
0.086688 0.705961 0.392219
0.086688 0.705961 0.418516
0.086688 0.705961 0.444812
0.086688 0.705961 0.471109
0.086688 0.705961 0.497406
0.086688 0.705961 0.523703
0.086688 0.705961 0.550000
0.086688 0.705961 0.576297
0.086688 0.705961 0.602594
0.086688 0.705961 0.628891
0.086688 0.705961 0.655188
0.086688 0.705961 0.681484
0.086688 0.705961 0.707781
0.086688 0.705961 0.734078
0.086688 0.705961 0.760375
0.086688 0.705961 0.786672
0.086688 0.705961 0.812969
0.086688 0.705961 0.839266
0.086688 0.705961 0.865563
0.086688 0.705961 0.891859
0.086688 0.705961 0.918156
0.086688 0.705961 0.944453
0.086688 0.705961 0.970750
0.086688 0.735246 0.129250
0.086688 0.735246 0.155547
0.086688 0.735246 0.181844
0.086688 0.735246 0.208141
0.086688 0.735246 0.234438
0.086688 0.735246 0.260734
0.086688 0.735246 0.287031
0.086688 0.735246 0.313328
0.086688 0.735246 0.339625
0.086688 0.735246 0.365922
0.086688 0.735246 0.392219
0.086688 0.735246 0.418516
0.086688 0.735246 0.444812
0.086688 0.735246 0.471109
0.086688 0.735246 0.497406
0.086688 0.735246 0.523703
0.086688 0.735246 0.550000
0.086688 0.735246 0.576297
0.086688 0.735246 0.602594
0.086688 0.735246 0.628891
0.086688 0.735246 0.655188
0.086688 0.735246 0.681484
0.086688 0.735246 0.707781
0.086688 0.735246 0.734078
0.086688 0.735246 0.760375
0.086688 0.735246 0.786672
0.086688 0.735246 0.812969
0.086688 0.735246 0.839266
0.086688 0.735246 0.865563
0.086688 0.735246 0.891859
0.086688 0.735246 0.918156
0.086688 0.735246 0.944453
0.086688 0.735246 0.970750
0.086688 0.764531 0.129250
0.086688 0.764531 0.155547
0.086688 0.764531 0.181844
0.086688 0.764531 0.208141
0.086688 0.764531 0.234438
0.086688 0.764531 0.260734
0.086688 0.764531 0.287031
0.086688 0.764531 0.313328
0.086688 0.764531 0.339625
0.086688 0.764531 0.365922
0.086688 0.764531 0.392219
0.086688 0.764531 0.418516
0.086688 0.764531 0.444812
0.086688 0.764531 0.471109
0.086688 0.764531 0.497406
0.086688 0.764531 0.523703
0.086688 0.764531 0.550000
0.086688 0.764531 0.576297
0.086688 0.764531 0.602594
0.086688 0.764531 0.628891
0.086688 0.764531 0.655188
0.086688 0.764531 0.681484
0.086688 0.764531 0.707781
0.086688 0.764531 0.734078
0.086688 0.764531 0.760375
0.086688 0.764531 0.786672
0.086688 0.764531 0.812969
0.086688 0.764531 0.839266
0.086688 0.764531 0.865563
0.086688 0.764531 0.891859
0.086688 0.764531 0.918156
0.086688 0.764531 0.944453
0.086688 0.764531 0.970750
0.086688 0.793816 0.129250
0.086688 0.793816 0.155547
0.086688 0.793816 0.181844
0.086688 0.793816 0.208141
0.086688 0.793816 0.234438
0.086688 0.793816 0.260734
0.086688 0.793816 0.287031
0.086688 0.793816 0.313328
0.086688 0.793816 0.339625
0.086688 0.793816 0.365922
0.086688 0.793816 0.392219
0.086688 0.793816 0.418516
0.086688 0.793816 0.444812
0.086688 0.793816 0.471109
0.086688 0.793816 0.497406
0.086688 0.793816 0.523703
0.086688 0.793816 0.550000
0.086688 0.793816 0.576297
0.086688 0.793816 0.602594
0.086688 0.793816 0.628891
0.086688 0.793816 0.655188
0.086688 0.793816 0.681484
0.086688 0.793816 0.707781
0.086688 0.793816 0.734078
0.086688 0.793816 0.760375
0.086688 0.793816 0.786672
0.086688 0.793816 0.812969
0.086688 0.793816 0.839266
0.086688 0.793816 0.865563
0.086688 0.793816 0.891859
0.086688 0.793816 0.918156
0.086688 0.793816 0.944453
0.086688 0.793816 0.970750
0.086688 0.823102 0.129250
0.086688 0.823102 0.155547
0.086688 0.823102 0.181844
0.086688 0.823102 0.208141
0.086688 0.823102 0.234438
0.086688 0.823102 0.260734
0.086688 0.823102 0.287031
0.086688 0.823102 0.313328
0.086688 0.823102 0.339625
0.086688 0.823102 0.365922
0.086688 0.823102 0.392219
0.086688 0.823102 0.418516
0.086688 0.823102 0.444812
0.086688 0.823102 0.471109
0.086688 0.823102 0.497406
0.086688 0.823102 0.523703
0.086688 0.823102 0.550000
0.086688 0.823102 0.576297
0.086688 0.823102 0.602594
0.086688 0.823102 0.628891
0.086688 0.823102 0.655188
0.086688 0.823102 0.681484
0.086688 0.823102 0.707781
0.086688 0.823102 0.734078
0.086688 0.823102 0.760375
0.086688 0.823102 0.786672
