assets/luts/cube/VHS_Grade.cube
TITLE "VHS_Grade"
LUT_3D_SIZE 9
DOMAIN_MIN 0.000000 0.000000 0.000000
DOMAIN_MAX 1.000000 1.000000 1.000000
0.084674 0.064674 0.118724
0.086988 0.066988 0.205188
0.089302 0.069302 0.291652
0.091616 0.071616 0.378116
0.093930 0.073930 0.464580
0.096245 0.076245 0.551045
0.098559 0.078559 0.637509
0.100873 0.080873 0.723973
0.103187 0.083187 0.810437
0.098496 0.172209 0.132546
0.100811 0.174523 0.219011
0.103125 0.176837 0.305475
0.105439 0.179151 0.391939
0.107753 0.181465 0.478403
0.110067 0.183780 0.564867
0.112381 0.186094 0.651331
0.114695 0.188408 0.737795
0.117009 0.190722 0.824259
0.112319 0.279744 0.146369
0.114633 0.282058 0.232833
0.116947 0.284372 0.319297
0.119261 0.286686 0.405761
0.121576 0.289001 0.492226
0.123890 0.291315 0.578690
0.126204 0.293629 0.665154
0.128518 0.295943 0.751618
0.130832 0.298257 0.838082
0.126142 0.387279 0.160192
0.128456 0.389593 0.246656
0.130770 0.391907 0.333120
0.133084 0.394222 0.419584
0.135398 0.396536 0.506048
0.137712 0.398850 0.592512
0.140026 0.401164 0.678976
0.142341 0.403478 0.765441
0.144655 0.405792 0.851905
0.139964 0.494814 0.174014
0.142278 0.497128 0.260478
0.144593 0.499443 0.346942
0.146907 0.501757 0.433407
0.149221 0.504071 0.519871
0.086688 0.530250 0.655188
0.086688 0.530250 0.760375
0.086688 0.530250 0.865563
0.086688 0.530250 0.970750
0.086688 0.647391 0.129250
0.086688 0.647391 0.234438
0.086688 0.647391 0.339625
0.086688 0.647391 0.444812
0.086688 0.647391 0.550000
0.086688 0.647391 0.655188
0.086688 0.647391 0.760375
0.086688 0.647391 0.865563
0.086688 0.647391 0.970750
0.086688 0.764531 0.129250
0.086688 0.764531 0.234438
0.086688 0.764531 0.339625
0.086688 0.764531 0.444812
0.086688 0.764531 0.550000
0.086688 0.764531 0.655188
0.086688 0.764531 0.760375
0.086688 0.764531 0.865563
0.086688 0.764531 0.970750
0.086688 0.881672 0.129250
0.086688 0.881672 0.234438
0.086688 0.881672 0.339625
0.086688 0.881672 0.444812
0.086688 0.881672 0.550000
0.086688 0.881672 0.655188
0.086688 0.881672 0.760375
0.086688 0.881672 0.865563
0.086688 0.881672 0.970750
0.086688 0.998813 0.129250
0.086688 0.998813 0.234438
0.086688 0.998813 0.339625
0.086688 0.998813 0.444812
0.086688 0.998813 0.550000
0.086688 0.998813 0.655188
0.086688 0.998813 0.760375
0.086688 0.998813 0.865563
0.086688 0.998813 0.970750
0.167140 0.070427 0.124477
0.169454 0.072741 0.210941
0.171768 0.075056 0.297406
0.174082 0.077370 0.383870
0.176396 0.079684 0.470334
0.178710 0.081998 0.556798
0.181025 0.084312 0.643262
0.183339 0.086626 0.729726
0.185653 0.088940 0.816190
0.180962 0.177962 0.138300
0.183277 0.180277 0.224764
0.185591 0.182591 0.311228
0.187905 0.184905 0.397692
0.190219 0.187219 0.484156
0.192533 0.189533 0.570621
0.194847 0.191847 0.657085
0.197161 0.194161 0.743549
0.199475 0.196475 0.830013
0.194785 0.285498 0.152123
0.197099 0.287812 0.238587
0.199413 0.290126 0.325051
0.201727 0.292440 0.411515
0.204042 0.294754 0.497979
0.206356 0.297068 0.584443
0.208670 0.299382 0.670907
0.210984 0.301696 0.757371
0.213298 0.304011 0.843836
0.208608 0.393033 0.165945
0.210922 0.395347 0.252409
0.213236 0.397661 0.338873
0.215550 0.399975 0.425337
0.217864 0.402289 0.511802
0.220178 0.404603 0.598266
0.222492 0.406917 0.684730
0.224806 0.409231 0.771194
0.182578 0.413109 0.970750
0.222430 0.500568 0.179768
0.224744 0.502882 0.266232
0.182578 0.530250 0.339625
0.182578 0.530250 0.444812
0.182578 0.530250 0.550000
0.182578 0.530250 0.655188
0.182578 0.530250 0.760375
0.182578 0.530250 0.865563
0.182578 0.530250 0.970750
0.182578 0.647391 0.129250
0.182578 0.647391 0.234438
0.182578 0.647391 0.339625
0.182578 0.647391 0.444812
0.182578 0.647391 0.550000
0.182578 0.647391 0.655188
0.182578 0.647391 0.760375
0.182578 0.647391 0.865563
0.182578 0.647391 0.970750
0.182578 0.764531 0.129250
0.182578 0.764531 0.234438
0.182578 0.764531 0.339625
0.182578 0.764531 0.444812
0.182578 0.764531 0.550000
0.182578 0.764531 0.655188
0.182578 0.764531 0.760375
0.182578 0.764531 0.865563
0.182578 0.764531 0.970750
0.182578 0.881672 0.129250
0.182578 0.881672 0.234438
0.182578 0.881672 0.339625
0.182578 0.881672 0.444812
0.182578 0.881672 0.550000
0.182578 0.881672 0.655188
0.182578 0.881672 0.760375
0.182578 0.881672 0.865563
0.182578 0.881672 0.970750
0.182578 0.998813 0.129250
0.182578 0.998813 0.234438
0.182578 0.998813 0.339625
0.182578 0.998813 0.444812
0.182578 0.998813 0.550000
0.182578 0.998813 0.655188
0.182578 0.998813 0.760375
0.182578 0.998813 0.865563
0.182578 0.998813 0.970750
0.249606 0.076181 0.130231
0.251920 0.078495 0.216695
0.254234 0.080809 0.303159
0.256548 0.083123 0.389623
0.258862 0.085437 0.476087
0.261176 0.087751 0.562551
0.263490 0.090066 0.649016
0.265805 0.092380 0.735480
0.268119 0.094694 0.821944
0.263428 0.183716 0.144053
0.265742 0.186030 0.230517
0.268057 0.188344 0.316982
0.270371 0.190658 0.403446
0.272685 0.192972 0.489910
0.274999 0.195286 0.576374
0.277313 0.197601 0.662838
0.279627 0.199915 0.749302
0.281941 0.202229 0.835766
0.277251 0.291251 0.157876
0.279565 0.293565 0.244340
0.281879 0.295879 0.330804
0.284193 0.298193 0.417268
0.286507 0.300507 0.503732
0.288822 0.302822 0.590197
0.291136 0.305136 0.676661
0.293450 0.307450 0.763125
0.295764 0.309764 0.849589
0.291074 0.398786 0.171699
0.293388 0.401100 0.258163
0.295702 0.403414 0.344627
0.298016 0.405728 0.431091
0.300330 0.408043 0.517555
0.302644 0.410357 0.604019
0.278469 0.413109 0.760375
0.278469 0.413109 0.865563
0.278469 0.413109 0.970750
0.278469 0.530250 0.129250
0.278469 0.530250 0.234438
0.278469 0.530250 0.339625
0.278469 0.530250 0.444812
0.278469 0.530250 0.550000
0.278469 0.530250 0.655188
0.278469 0.530250 0.760375
0.278469 0.530250 0.865563
0.278469 0.530250 0.970750
0.278469 0.647391 0.129250
0.278469 0.647391 0.234438
0.278469 0.647391 0.339625
0.278469 0.647391 0.444812
0.278469 0.647391 0.550000
0.278469 0.647391 0.655188
0.278469 0.647391 0.760375
0.278469 0.647391 0.865563
0.278469 0.647391 0.970750
0.278469 0.764531 0.129250
0.278469 0.764531 0.234438
0.278469 0.764531 0.339625
0.278469 0.764531 0.444812
0.278469 0.764531 0.550000
0.278469 0.764531 0.655188
0.278469 0.764531 0.760375
0.278469 0.764531 0.865563
0.278469 0.764531 0.970750
0.278469 0.881672 0.129250
0.278469 0.881672 0.234438
0.278469 0.881672 0.339625
0.278469 0.881672 0.444812
0.278469 0.881672 0.550000
0.278469 0.881672 0.655188
0.278469 0.881672 0.760375
0.278469 0.881672 0.865563
0.278469 0.881672 0.970750
0.278469 0.998813 0.129250
0.278469 0.998813 0.234438
0.278469 0.998813 0.339625
0.278469 0.998813 0.444812
0.278469 0.998813 0.550000
0.278469 0.998813 0.655188
0.278469 0.998813 0.760375
0.278469 0.998813 0.865563
0.278469 0.998813 0.970750
0.332072 0.081934 0.135984
0.334386 0.084248 0.222448
0.336700 0.086562 0.308912
0.339014 0.088877 0.395377
0.341328 0.091191 0.481841
0.343642 0.093505 0.568305
0.345956 0.095819 0.654769
0.348271 0.098133 0.741233
0.350585 0.100447 0.827697
0.345894 0.189469 0.149807
0.348208 0.191783 0.236271
0.350523 0.194098 0.322735
0.352837 0.196412 0.409199
0.355151 0.198726 0.495663
0.357465 0.201040 0.582127
0.359779 0.203354 0.668592
0.362093 0.205668 0.755056
0.364407 0.207982 0.841520
0.359717 0.297004 0.163629
0.362031 0.299319 0.250094
0.364345 0.301633 0.336558
0.366659 0.303947 0.423022
0.368973 0.306261 0.509486
0.371287 0.308575 0.595950
0.373602 0.310889 0.682414
0.375916 0.313203 0.768878
0.378230 0.315517 0.855342
0.373539 0.404539 0.177452
0.375854 0.406854 0.263916
0.378168 0.409168 0.350380
0.374359 0.413109 0.444812
0.374359 0.413109 0.550000
0.374359 0.413109 0.655188
0.374359 0.413109 0.760375
0.374359 0.413109 0.865563
0.374359 0.413109 0.970750
0.374359 0.530250 0.129250
0.374359 0.530250 0.234438
0.374359 0.530250 0.339625
0.374359 0.530250 0.444812
0.374359 0.530250 0.550000
0.374359 0.530250 0.655188
0.374359 0.530250 0.760375
0.374359 0.530250 0.865563
0.374359 0.530250 0.970750
0.374359 0.647391 0.129250
0.374359 0.647391 0.234438
0.374359 0.647391 0.339625
0.374359 0.647391 0.444812
0.374359 0.647391 0.550000
0.374359 0.647391 0.655188
0.374359 0.647391 0.760375
0.374359 0.647391 0.865563
0.374359 0.647391 0.970750
0.374359 0.764531 0.129250
0.374359 0.764531 0.234438
0.374359 0.764531 0.339625
0.374359 0.764531 0.444812
0.374359 0.764531 0.550000
0.374359 0.764531 0.655188
0.374359 0.764531 0.760375
0.374359 0.764531 0.865563
0.374359 0.764531 0.970750
0.374359 0.881672 0.129250
0.374359 0.881672 0.234438
0.374359 0.881672 0.339625
0.374359 0.881672 0.444812
0.374359 0.881672 0.550000
0.374359 0.881672 0.655188
0.374359 0.881672 0.760375
0.374359 0.881672 0.865563
0.374359 0.881672 0.970750
0.374359 0.998813 0.129250
0.374359 0.998813 0.234438
0.374359 0.998813 0.339625
0.374359 0.998813 0.444812
0.374359 0.998813 0.550000
0.374359 0.998813 0.655188
0.374359 0.998813 0.760375
0.374359 0.998813 0.865563
0.374359 0.998813 0.970750
0.414538 0.087688 0.141738
0.416852 0.090002 0.228202
0.419166 0.092316 0.314666
0.421480 0.094630 0.401130
0.423794 0.096944 0.487594
0.426108 0.099258 0.574058
0.428422 0.101572 0.660522
0.430737 0.103887 0.746986
0.433051 0.106201 0.833451
0.428360 0.195223 0.155560
0.430674 0.197537 0.242024
0.432988 0.199851 0.328488
0.435303 0.202165 0.414953
0.437617 0.204479 0.501417
0.439931 0.206793 0.587881
0.442245 0.209107 0.674345
0.444559 0.211422 0.760809
0.446873 0.213736 0.847273
0.442183 0.302758 0.169383
0.444497 0.305072 0.255847
0.446811 0.307386 0.342311
0.449125 0.309700 0.428775
0.451439 0.312014 0.515239
0.453753 0.314328 0.601703
0.456068 0.316643 0.688168
0.470250 0.295969 0.865563
0.470250 0.295969 0.970750
0.456005 0.410293 0.183205
0.470250 0.413109 0.234438
0.470250 0.413109 0.339625
0.470250 0.413109 0.444812
0.470250 0.413109 0.550000
0.470250 0.413109 0.655188
0.470250 0.413109 0.760375
0.470250 0.413109 0.865563
0.470250 0.413109 0.970750
0.470250 0.530250 0.129250
0.470250 0.530250 0.234438
0.470250 0.530250 0.339625
0.470250 0.530250 0.444812
0.470250 0.530250 0.550000
0.470250 0.530250 0.655188
0.470250 0.530250 0.760375
0.470250 0.530250 0.865563
0.470250 0.530250 0.970750
0.470250 0.647391 0.129250
0.470250 0.647391 0.234438
0.470250 0.647391 0.339625
0.470250 0.647391 0.444812
0.470250 0.647391 0.550000
0.470250 0.647391 0.655188
0.470250 0.647391 0.760375
0.470250 0.647391 0.865563
0.470250 0.647391 0.970750
0.470250 0.764531 0.129250
0.470250 0.764531 0.234438
0.470250 0.764531 0.339625
0.470250 0.764531 0.444812
0.470250 0.764531 0.550000
0.470250 0.764531 0.655188
0.470250 0.764531 0.760375
0.470250 0.764531 0.865563
0.470250 0.764531 0.970750
0.470250 0.881672 0.129250
0.470250 0.881672 0.234438
0.470250 0.881672 0.339625
0.470250 0.881672 0.444812
0.470250 0.881672 0.550000
0.470250 0.881672 0.655188
0.470250 0.881672 0.760375
0.470250 0.881672 0.865563
0.470250 0.881672 0.970750
0.470250 0.998813 0.129250
0.470250 0.998813 0.234438
0.470250 0.998813 0.339625
0.470250 0.998813 0.444812
0.470250 0.998813 0.550000
0.470250 0.998813 0.655188
0.470250 0.998813 0.760375
0.470250 0.998813 0.865563
0.470250 0.998813 0.970750
0.497004 0.093441 0.147491
0.499318 0.095755 0.233955
0.501632 0.098069 0.320419
0.503946 0.100383 0.406883
0.506260 0.102698 0.493348
0.508574 0.105012 0.579812
0.510888 0.107326 0.666276
0.513202 0.109640 0.752740
0.515517 0.111954 0.839204
0.510826 0.200976 0.161314
0.513140 0.203290 0.247778
0.515454 0.205604 0.334242
0.517769 0.207919 0.420706
0.520083 0.210233 0.507170
0.522397 0.212547 0.593634
0.524711 0.214861 0.680098
0.527025 0.217175 0.766563
0.529339 0.219489 0.853027
0.524649 0.308511 0.175136
0.526963 0.310825 0.261600
0.529277 0.313140 0.348064
0.531591 0.315454 0.434529
0.566141 0.295969 0.550000
0.566141 0.295969 0.655188
0.566141 0.295969 0.760375
0.566141 0.295969 0.865563
0.566141 0.295969 0.970750
0.566141 0.413109 0.129250
0.566141 0.413109 0.234438
0.566141 0.413109 0.339625
0.566141 0.413109 0.444812
0.566141 0.413109 0.550000
0.566141 0.413109 0.655188
0.566141 0.413109 0.760375
0.566141 0.413109 0.865563
0.566141 0.413109 0.970750
0.566141 0.530250 0.129250
0.566141 0.530250 0.234438
0.566141 0.530250 0.339625
0.566141 0.530250 0.444812
0.566141 0.530250 0.550000
0.566141 0.530250 0.655188
0.566141 0.530250 0.760375
0.566141 0.530250 0.865563
0.566141 0.530250 0.970750
0.566141 0.647391 0.129250
0.566141 0.647391 0.234438
0.566141 0.647391 0.339625
0.566141 0.647391 0.444812
0.566141 0.647391 0.550000
0.566141 0.647391 0.655188
0.566141 0.647391 0.760375
0.566141 0.647391 0.865563
0.566141 0.647391 0.970750
0.566141 0.764531 0.129250
0.566141 0.764531 0.234438
0.566141 0.764531 0.339625
0.566141 0.764531 0.444812
0.566141 0.764531 0.550000
0.566141 0.764531 0.655188
0.566141 0.764531 0.760375
0.566141 0.764531 0.865563
0.566141 0.764531 0.970750
0.566141 0.881672 0.129250
0.566141 0.881672 0.234438
0.566141 0.881672 0.339625
0.566141 0.881672 0.444812
0.566141 0.881672 0.550000
0.566141 0.881672 0.655188
0.566141 0.881672 0.760375
0.566141 0.881672 0.865563
0.566141 0.881672 0.970750
0.566141 0.998813 0.129250
0.566141 0.998813 0.234438
0.566141 0.998813 0.339625
0.566141 0.998813 0.444812
0.566141 0.998813 0.550000
0.566141 0.998813 0.655188
0.566141 0.998813 0.760375
0.566141 0.998813 0.865563
0.566141 0.998813 0.970750
0.579469 0.099195 0.153245
0.581784 0.101509 0.239709
0.584098 0.103823 0.326173
0.586412 0.106137 0.412637
0.588726 0.108451 0.499101
0.591040 0.110765 0.585565
0.593354 0.113079 0.672029
0.595668 0.115393 0.758493
0.597982 0.117708 0.844958
0.593292 0.206730 0.167067
0.595606 0.209044 0.253531
0.597920 0.211358 0.339995
0.600234 0.213672 0.426459
0.602549 0.215986 0.512924
0.604863 0.218300 0.599388
0.607177 0.220614 0.685852
0.609491 0.222928 0.772316
0.662031 0.178828 0.970750
0.607115 0.314265 0.180890
0.609429 0.316579 0.267354
0.662031 0.295969 0.339625
0.662031 0.295969 0.444812
0.662031 0.295969 0.550000
0.662031 0.295969 0.655188
0.662031 0.295969 0.760375
0.662031 0.295969 0.865563
0.662031 0.295969 0.970750
0.662031 0.413109 0.129250
0.662031 0.413109 0.234438
0.662031 0.413109 0.339625
0.662031 0.413109 0.444812
0.662031 0.413109 0.550000
0.662031 0.413109 0.655188
0.662031 0.413109 0.760375
0.662031 0.413109 0.865563
0.662031 0.413109 0.970750
0.662031 0.530250 0.129250
0.662031 0.530250 0.234438
0.662031 0.530250 0.339625
0.662031 0.530250 0.444812
0.662031 0.530250 0.550000
0.662031 0.530250 0.655188
0.662031 0.530250 0.760375
0.662031 0.530250 0.865563
0.662031 0.530250 0.970750
0.662031 0.647391 0.129250
0.662031 0.647391 0.234438
0.662031 0.647391 0.339625
0.662031 0.647391 0.444812
0.662031 0.647391 0.550000
0.662031 0.647391 0.655188
0.662031 0.647391 0.760375
0.662031 0.647391 0.865563
0.662031 0.647391 0.970750
0.662031 0.764531 0.129250
0.662031 0.764531 0.234438
0.662031 0.764531 0.339625
0.662031 0.764531 0.444812
0.662031 0.764531 0.550000
0.662031 0.764531 0.655188
0.662031 0.764531 0.760375
0.662031 0.764531 0.865563
0.662031 0.764531 0.970750
0.662031 0.881672 0.129250
0.662031 0.881672 0.234438
0.662031 0.881672 0.339625
0.662031 0.881672 0.444812
0.662031 0.881672 0.550000
0.662031 0.881672 0.655188
0.662031 0.881672 0.760375
0.662031 0.881672 0.865563
0.662031 0.881672 0.970750
0.662031 0.998813 0.129250
0.662031 0.998813 0.234438
0.662031 0.998813 0.339625
0.662031 0.998813 0.444812
0.662031 0.998813 0.550000
0.662031 0.998813 0.655188
0.662031 0.998813 0.760375
0.662031 0.998813 0.865563
0.662031 0.998813 0.970750
0.661935 0.104948 0.158998
0.664250 0.107262 0.245462
0.666564 0.109576 0.331926
0.668878 0.111890 0.418390
0.671192 0.114204 0.504854
0.673506 0.116519 0.591319
0.675820 0.118833 0.677783
0.678134 0.121147 0.764247
0.680448 0.123461 0.850711
0.675758 0.212483 0.172821
0.678072 0.214797 0.259285
0.680386 0.217111 0.345749
0.682700 0.219425 0.432213
0.685015 0.221740 0.518677
0.757922 0.178828 0.655188
0.757922 0.178828 0.760375
0.757922 0.178828 0.865563
0.757922 0.178828 0.970750
0.757922 0.295969 0.129250
0.757922 0.295969 0.234438
0.757922 0.295969 0.339625
0.757922 0.295969 0.444812
0.757922 0.295969 0.550000
0.757922 0.295969 0.655188
0.757922 0.295969 0.760375
0.757922 0.295969 0.865563
0.757922 0.295969 0.970750
0.757922 0.413109 0.129250
0.757922 0.413109 0.234438
0.757922 0.413109 0.339625
0.757922 0.413109 0.444812
0.757922 0.413109 0.550000
0.757922 0.413109 0.655188
0.757922 0.413109 0.760375
0.757922 0.413109 0.865563
0.757922 0.413109 0.970750
0.757922 0.530250 0.129250
0.757922 0.530250 0.234438
0.757922 0.530250 0.339625
0.757922 0.530250 0.444812
0.757922 0.530250 0.550000
0.757922 0.530250 0.655188
0.757922 0.530250 0.760375
0.757922 0.530250 0.865563
0.757922 0.530250 0.970750
0.757922 0.647391 0.129250
0.757922 0.647391 0.234438
0.757922 0.647391 0.339625
0.757922 0.647391 0.444812
0.757922 0.647391 0.550000
0.757922 0.647391 0.655188
0.757922 0.647391 0.760375
0.757922 0.647391 0.865563
0.757922 0.647391 0.970750
0.757922 0.764531 0.129250
0.757922 0.764531 0.234438
0.757922 0.764531 0.339625
0.757922 0.764531 0.444812
0.757922 0.764531 0.550000
0.757922 0.764531 0.655188
0.757922 0.764531 0.760375
0.757922 0.764531 0.865563
0.757922 0.764531 0.970750
0.757922 0.881672 0.129250
0.757922 0.881672 0.234438
0.757922 0.881672 0.339625
0.757922 0.881672 0.444812
0.757922 0.881672 0.550000
0.757922 0.881672 0.655188
0.757922 0.881672 0.760375
0.757922 0.881672 0.865563
0.757922 0.881672 0.970750
0.757922 0.998813 0.129250
0.757922 0.998813 0.234438
0.757922 0.998813 0.339625
0.757922 0.998813 0.444812
0.757922 0.998813 0.550000
0.757922 0.998813 0.655188
0.757922 0.998813 0.760375
0.757922 0.998813 0.865563
0.757922 0.998813 0.970750
0.744401 0.110701 0.164751
0.746716 0.113016 0.251216
0.749030 0.115330 0.337680
0.751344 0.117644 0.424144
0.753658 0.119958 0.510608
0.755972 0.122272 0.597072
0.758286 0.124586 0.683536
0.760600 0.126900 0.770000
0.762914 0.129214 0.856464
0.758224 0.218236 0.178574
0.760538 0.220551 0.265038
0.762852 0.222865 0.351502
0.853812 0.178828 0.444812
0.853812 0.178828 0.550000
0.853812 0.178828 0.655188
0.853812 0.178828 0.760375
0.853812 0.178828 0.865563
0.853812 0.178828 0.970750
0.853812 0.295969 0.129250
0.853812 0.295969 0.234438
0.853812 0.295969 0.339625
0.853812 0.295969 0.444812
0.853812 0.295969 0.550000
0.853812 0.295969 0.655188
0.853812 0.295969 0.760375
0.853812 0.295969 0.865563
0.853812 0.295969 0.970750
0.853812 0.413109 0.129250
0.853812 0.413109 0.234438
0.853812 0.413109 0.339625
0.853812 0.413109 0.444812
0.853812 0.413109 0.550000
0.853812 0.413109 0.655188
0.853812 0.413109 0.760375
0.853812 0.413109 0.865563
0.853812 0.413109 0.970750
0.853812 0.530250 0.129250
0.853812 0.530250 0.234438
0.853812 0.530250 0.339625
0.853812 0.530250 0.444812
0.853812 0.530250 0.550000
0.853812 0.530250 0.655188
0.853812 0.530250 0.760375
0.853812 0.530250 0.865563
0.853812 0.530250 0.970750
0.853812 0.647391 0.129250
0.853812 0.647391 0.234438
0.853812 0.647391 0.339625
0.853812 0.647391 0.444812
0.853812 0.647391 0.550000
0.853812 0.647391 0.655188
0.853812 0.647391 0.760375
0.853812 0.647391 0.865563
0.853812 0.647391 0.970750
0.853812 0.764531 0.129250
0.853812 0.764531 0.234438
0.853812 0.764531 0.339625
0.853812 0.764531 0.444812
0.853812 0.764531 0.550000
0.853812 0.764531 0.655188
0.853812 0.764531 0.760375
0.853812 0.764531 0.865563
0.853812 0.764531 0.970750
0.853812 0.881672 0.129250
0.853812 0.881672 0.234438
0.853812 0.881672 0.339625
0.853812 0.881672 0.444812
0.853812 0.881672 0.550000
0.853812 0.881672 0.655188
0.853812 0.881672 0.760375
0.853812 0.881672 0.865563
0.853812 0.881672 0.970750
0.853812 0.998813 0.129250
0.853812 0.998813 0.234438
0.853812 0.998813 0.339625
0.853812 0.998813 0.444812
0.853812 0.998813 0.550000
0.853812 0.998813 0.655188
0.853812 0.998813 0.760375
0.853812 0.998813 0.865563
0.853812 0.998813 0.970750
