assets/luts/cube/VHS_Grade.cube
TITLE "VHS_Grade"
LUT_3D_SIZE 5
DOMAIN_MIN 0.000000 0.000000 0.000000
DOMAIN_MAX 1.000000 1.000000 1.000000
0.084674 0.064674 0.118724
0.089302 0.069302 0.291652
0.093930 0.073930 0.464580
0.098559 0.078559 0.637509
0.103187 0.083187 0.810437
0.112319 0.279744 0.146369
0.116947 0.284372 0.319297
0.121576 0.289001 0.492226
0.126204 0.293629 0.665154
0.130832 0.298257 0.838082
0.139964 0.494814 0.174014
0.144593 0.499443 0.346942
0.149221 0.504071 0.519871
0.086688 0.530250 0.760375
0.086688 0.530250 0.970750
0.086688 0.764531 0.129250
0.086688 0.764531 0.339625
0.086688 0.764531 0.550000
0.086688 0.764531 0.760375
0.086688 0.764531 0.970750
0.086688 0.998813 0.129250
0.086688 0.998813 0.339625
0.086688 0.998813 0.550000
0.086688 0.998813 0.760375
0.086688 0.998813 0.970750
0.249606 0.076181 0.130231
0.254234 0.080809 0.303159
0.258862 0.085437 0.476087
0.263490 0.090066 0.649016
0.268119 0.094694 0.821944
0.277251 0.291251 0.157876
0.281879 0.295879 0.330804
0.286507 0.300507 0.503732
0.291136 0.305136 0.676661
0.295764 0.309764 0.849589
0.278469 0.530250 0.129250
0.278469 0.530250 0.339625
0.278469 0.530250 0.550000
0.278469 0.530250 0.760375
0.278469 0.530250 0.970750
0.278469 0.764531 0.129250
0.278469 0.764531 0.339625
0.278469 0.764531 0.550000
0.278469 0.764531 0.760375
0.278469 0.764531 0.970750
0.278469 0.998813 0.129250
0.278469 0.998813 0.339625
0.278469 0.998813 0.550000
0.278469 0.998813 0.760375
0.278469 0.998813 0.970750
0.414538 0.087688 0.141738
0.419166 0.092316 0.314666
0.423794 0.096944 0.487594
0.428422 0.101572 0.660522
0.433051 0.106201 0.833451
0.442183 0.302758 0.169383
0.446811 0.307386 0.342311
0.451439 0.312014 0.515239
0.456068 0.316643 0.688168
0.470250 0.295969 0.970750
0.470250 0.530250 0.129250
0.470250 0.530250 0.339625
0.470250 0.530250 0.550000
0.470250 0.530250 0.760375
0.470250 0.530250 0.970750
0.470250 0.764531 0.129250
0.470250 0.764531 0.339625
0.470250 0.764531 0.550000
0.470250 0.764531 0.760375
0.470250 0.764531 0.970750
0.470250 0.998813 0.129250
0.470250 0.998813 0.339625
0.470250 0.998813 0.550000
0.470250 0.998813 0.760375
0.470250 0.998813 0.970750
0.579469 0.099195 0.153245
0.584098 0.103823 0.326173
0.588726 0.108451 0.499101
0.593354 0.113079 0.672029
0.597982 0.117708 0.844958
0.607115 0.314265 0.180890
0.662031 0.295969 0.339625
0.662031 0.295969 0.550000
0.662031 0.295969 0.760375
0.662031 0.295969 0.970750
0.662031 0.530250 0.129250
0.662031 0.530250 0.339625
0.662031 0.530250 0.550000
0.662031 0.530250 0.760375
0.662031 0.530250 0.970750
0.662031 0.764531 0.129250
0.662031 0.764531 0.339625
0.662031 0.764531 0.550000
0.662031 0.764531 0.760375
0.662031 0.764531 0.970750
0.662031 0.998813 0.129250
0.662031 0.998813 0.339625
0.662031 0.998813 0.550000
0.662031 0.998813 0.760375
0.662031 0.998813 0.970750
0.744401 0.110701 0.164751
0.749030 0.115330 0.337680
0.753658 0.119958 0.510608
0.758286 0.124586 0.683536
0.762914 0.129214 0.856464
0.853812 0.295969 0.129250
0.853812 0.295969 0.339625
0.853812 0.295969 0.550000
0.853812 0.295969 0.760375
0.853812 0.295969 0.970750
0.853812 0.530250 0.129250
0.853812 0.530250 0.339625
0.853812 0.530250 0.550000
0.853812 0.530250 0.760375
0.853812 0.530250 0.970750
0.853812 0.764531 0.129250
0.853812 0.764531 0.339625
0.853812 0.764531 0.550000
0.853812 0.764531 0.760375
0.853812 0.764531 0.970750
0.853812 0.998813 0.129250
0.853812 0.998813 0.339625
0.853812 0.998813 0.550000
0.853812 0.998813 0.760375
0.853812 0.998813 0.970750
